;PYCAM-META-DATA: Filename: C:\Users\Wat\Documents\GitHub\Foldarap\source\heatsink_RS-CNC.stl
;PYCAM-META-DATA: Timestamp: 2012-11-21 18:08:55.870000
;PYCAM-META-DATA: Version: 0.5.1.1
;Estimated machine time: 28 minutes
G40 (disable tool radius compensation)
G49 (disable tool length compensation)
G80 (cancel modal motion)
G54 (select coordinate system 1)
G90 (disable incremental moves)
G21 (metric)
G61 (exact path mode)
F200.00000
S1000.00000
;PYCAM_TOOLPATH_SETTINGS: START
;[Bounds]
;maxz = 10.1000000037
;maxx = 40.1
;maxy = -9.89999999753
;minx = -0.1
;miny = -50.1000000001
;minz = -0.100000000037
;
;[Tool]
;torus_radius = 0.25
;speed = 1000.0
;shape = CylindricalCutter
;tool_radius = 1.5
;feedrate = 200.0
;
;[Process]
;generator = PushCutter
;pocketing_type = none
;engrave_offset = 0.0
;milling_style = ignore
;path_direction = x
;step_down = 1.0
;postprocessor = SimpleCutter
;material_allowance = 0.5
;
;PYCAM_TOOLPATH_SETTINGS: END
T1 M6
G0 Z15.0000
M3 (start spindle)
G04 P3 (wait for 3 seconds)
 X-0.1000 Y-50.1000
G1 Z10.1000
 X40.1000
 Y-47.2286
 X-0.1000
 Y-44.3571
 X40.1000
 Y-41.4857
 X-0.1000
 Y-38.6143
 X40.1000
 Y-35.7429
 X-0.1000
 Y-32.8714
 X40.1000
 Y-30.0000
 X-0.1000
 Y-27.1286
 X40.1000
 Y-24.2571
 X-0.1000
 Y-21.3857
 X40.1000
 Y-18.5143
 X-0.1000
 Y-15.6429
 X40.1000
 Y-12.7714
 X-0.1000
 Y-9.9000
 X40.1000
G0 Z15.0000
 X35.4454
G1 Z9.1727
 X31.4975
G0 Z15.0000
 X8.5025
G1 Z9.1727
 X4.4975
 X4.5000 Y-12.7714
 X8.5000
G0 Z15.0000
 X31.5000
G1 Z9.1727
 X35.4429
G0 Z15.0000
 X17.5000 Y-30.0000
G1 Z9.1727
 X22.5000
 Y-32.8714
 X17.5000
G0 Z15.0000
 X4.5000 Y-35.7429
G1 Z9.1727
 X8.5000
G0 Z15.0000
 X17.5000
G1 Z9.1727
 X22.5000
G0 Z15.0000
 X31.5000
G1 Z9.1727
 X35.5000
 Y-38.6143
 X31.5000
G0 Z15.0000
 X22.5000
G1 Z9.1727
 X17.5000
G0 Z15.0000
 X8.5000
G1 Z9.1727
 X4.5000
 X3.8389 Y-41.4857
 X9.1611
G0 Z15.0000
 X16.8389
G1 Z9.1727
 X23.1611
G0 Z15.0000
 X30.8389
G1 Z9.1727
 X36.1611
G0 Z15.0000
 X40.1000 Y-44.3571
G1 Z9.1727
 X-0.1000
 Y-47.2286
 X40.1000
 Y-50.1000
 X-0.1000
 Z8.2455
 X40.1000
 Y-47.2286
 X-0.1000
 Y-44.3571
 X40.1000
G0 Z15.0000
 X36.1611 Y-41.4857
G1 Z8.2455
 X30.8389
G0 Z15.0000
 X23.1611
G1 Z8.2455
 X16.8389
G0 Z15.0000
 X9.1611
G1 Z8.2455
 X3.8389
 X4.5000 Y-38.6143
 X8.5000
G0 Z15.0000
 X17.5000
G1 Z8.2455
 X22.5000
G0 Z15.0000
 X31.5000
G1 Z8.2455
 X35.5000
 Y-35.7429
 X31.5000
G0 Z15.0000
 X22.5000
G1 Z8.2455
 X17.5000
G0 Z15.0000
 X8.5000
G1 Z8.2455
 X4.5000
G0 Z15.0000
 X17.5000 Y-32.8714
G1 Z8.2455
 X22.5000
 Y-30.0000
 X17.5000
G0 Z15.0000
 X35.4429 Y-12.7714
G1 Z8.2455
 X31.5000
G0 Z15.0000
 X8.5000
G1 Z8.2455
 X4.5000
 X4.4975 Y-9.9000
 X8.5025
G0 Z15.0000
 X31.4975
G1 Z8.2455
 X35.4454
 Z7.3182
 X31.4975
G0 Z15.0000
 X8.5025
G1 Z7.3182
 X4.4975
 X4.5000 Y-12.7714
 X8.5000
G0 Z15.0000
 X31.5000
G1 Z7.3182
 X35.4429
G0 Z15.0000
 X17.5000 Y-30.0000
G1 Z7.3182
 X22.5000
 Y-32.8714
 X17.5000
G0 Z15.0000
 X4.5000 Y-35.7429
G1 Z7.3182
 X8.5000
G0 Z15.0000
 X17.5000
G1 Z7.3182
 X22.5000
G0 Z15.0000
 X31.5000
G1 Z7.3182
 X35.5000
 Y-38.6143
 X31.5000
G0 Z15.0000
 X22.5000
G1 Z7.3182
 X17.5000
G0 Z15.0000
 X8.5000
G1 Z7.3182
 X4.5000
 X3.8389 Y-41.4857
 X9.1611
G0 Z15.0000
 X16.8389
G1 Z7.3182
 X23.1611
G0 Z15.0000
 X30.8389
G1 Z7.3182
 X36.1611
G0 Z15.0000
 X40.1000 Y-44.3571
G1 Z7.3182
 X-0.1000
 Y-47.2286
 X40.1000
 Y-50.1000
 X-0.1000
 Z6.3909
 X40.1000
 Y-47.2286
 X-0.1000
 Y-44.3571
 X40.1000
G0 Z15.0000
 X36.1611 Y-41.4857
G1 Z6.3909
 X30.8389
G0 Z15.0000
 X23.1611
G1 Z6.3909
 X16.8389
G0 Z15.0000
 X9.1611
G1 Z6.3909
 X3.8389
 X4.5000 Y-38.6143
 X8.5000
G0 Z15.0000
 X17.5000
G1 Z6.3909
 X22.5000
G0 Z15.0000
 X31.5000
G1 Z6.3909
 X35.5000
 Y-35.7429
 X31.5000
G0 Z15.0000
 X22.5000
G1 Z6.3909
 X17.5000
G0 Z15.0000
 X8.5000
G1 Z6.3909
 X4.5000
G0 Z15.0000
 X17.5000 Y-32.8714
G1 Z6.3909
 X22.5000
 Y-30.0000
 X17.5000
G0 Z15.0000
 X35.4429 Y-12.7714
G1 Z6.3909
 X31.5000
G0 Z15.0000
 X8.5000
G1 Z6.3909
 X4.5000
 X4.4975 Y-9.9000
 X8.5025
G0 Z15.0000
 X31.4975
G1 Z6.3909
 X35.4454
 Z5.4636
 X31.4975
G0 Z15.0000
 X8.5025
G1 Z5.4636
 X4.4975
 X4.5000 Y-12.7714
 X8.5000
G0 Z15.0000
 X31.5000
G1 Z5.4636
 X35.4429
G0 Z15.0000
 X6.0115 Y-30.0000
G1 Z5.4636
 X8.5000
G0 Z15.0000
 X15.8609
G1 Z5.4636
 X23.1667
G0 Z15.0000
 X26.5000
G1 Z5.4636
 X27.5000
G0 Z15.0000
 X31.5000
G1 Z5.4636
 X35.4924
G0 Z15.0000
 X39.7401
G1 Z5.4636
 X40.1000
G0 Z15.0000
 X22.5000 Y-32.8714
G1 Z5.4636
 X17.5000
G0 Z15.0000
 X4.5000 Y-35.7429
G1 Z5.4636
 X8.5000
G0 Z15.0000
 X17.5000
G1 Z5.4636
 X22.5000
G0 Z15.0000
 X31.5000
G1 Z5.4636
 X35.5000
 Y-38.6143
 X31.5000
G0 Z15.0000
 X22.5000
G1 Z5.4636
 X17.5000
G0 Z15.0000
 X8.5000
G1 Z5.4636
 X4.5000
 X3.8389 Y-41.4857
 X9.1611
G0 Z15.0000
 X16.8389
G1 Z5.4636
 X23.1611
G0 Z15.0000
 X30.8389
G1 Z5.4636
 X36.1611
G0 Z15.0000
 X40.1000 Y-44.3571
G1 Z5.4636
 X-0.1000
 Y-47.2286
 X40.1000
 Y-50.1000
 X-0.1000
 Z4.5364
 X40.1000
 Y-47.2286
 X-0.1000
 Y-44.3571
 X40.1000
G0 Z15.0000
 X36.1611 Y-41.4857
G1 Z4.5364
 X30.8389
G0 Z15.0000
 X23.1611
G1 Z4.5364
 X16.8389
G0 Z15.0000
 X9.1611
G1 Z4.5364
 X3.8389
 X4.5000 Y-38.6143
 X8.5000
G0 Z15.0000
 X17.5000
G1 Z4.5364
 X22.5000
G0 Z15.0000
 X31.5000
G1 Z4.5364
 X35.5000
 Y-35.7429
 X31.5000
G0 Z15.0000
 X22.5000
G1 Z4.5364
 X17.5000
G0 Z15.0000
 X8.5000
G1 Z4.5364
 X4.5000
G0 Z15.0000
 X17.5000 Y-32.8714
G1 Z4.5364
 X22.5000
 Y-30.0000
 X17.5000
G0 Z15.0000
 X35.4429 Y-12.7714
G1 Z4.5364
 X31.5000
G0 Z15.0000
 X8.5000
G1 Z4.5364
 X4.5000
 X4.4975 Y-9.9000
 X8.5025
G0 Z15.0000
 X31.4975
G1 Z4.5364
 X35.4454
 Z3.6091
 X31.4975
G0 Z15.0000
 X8.5025
G1 Z3.6091
 X4.4975
 X4.5000 Y-12.7714
 X8.5000
G0 Z15.0000
 X31.5000
G1 Z3.6091
 X35.4429
G0 Z15.0000
 X6.0115 Y-30.0000
G1 Z3.6091
 X8.5000
G0 Z15.0000
 X17.4568
G1 Z3.6091
 X22.5432
G0 Z15.0000
 X26.5000
G1 Z3.6091
 X27.5000
G0 Z15.0000
 X31.5000
G1 Z3.6091
 X35.4924
G0 Z15.0000
 X22.5000 Y-32.8714
G1 Z3.6091
 X17.5000
G0 Z15.0000
 X4.5000 Y-35.7429
G1 Z3.6091
 X8.5000
G0 Z15.0000
 X17.5000
G1 Z3.6091
 X22.5000
G0 Z15.0000
 X31.5000
G1 Z3.6091
 X35.5000
 Y-38.6143
 X31.5000
G0 Z15.0000
 X22.5000
G1 Z3.6091
 X17.5000
G0 Z15.0000
 X8.5000
G1 Z3.6091
 X4.5000
 X3.8389 Y-41.4857
 X9.1611
G0 Z15.0000
 X16.8389
G1 Z3.6091
 X23.1611
G0 Z15.0000
 X30.8389
G1 Z3.6091
 X36.1611
G0 Z15.0000
 X40.1000 Y-44.3571
G1 Z3.6091
 X-0.1000
 Y-47.2286
 X40.1000
 Y-50.1000
 X-0.1000
 Z2.6818
 X40.1000
 Y-47.2286
 X-0.1000
 Y-44.3571
 X40.1000
G0 Z15.0000
 X36.1611 Y-41.4857
G1 Z2.6818
 X30.8389
G0 Z15.0000
 X23.1611
G1 Z2.6818
 X16.8389
G0 Z15.0000
 X9.1611
G1 Z2.6818
 X3.8389
 X4.5000 Y-38.6143
 X8.5000
G0 Z15.0000
 X17.5000
G1 Z2.6818
 X22.5000
G0 Z15.0000
 X31.5000
G1 Z2.6818
 X35.5000
 Y-35.7429
 X31.5000
G0 Z15.0000
 X22.5000
G1 Z2.6818
 X17.5000
G0 Z15.0000
 X8.5000
G1 Z2.6818
 X4.5000
G0 Z15.0000
 X17.5000 Y-32.8714
G1 Z2.6818
 X22.5000
 Y-30.0000
 X17.5000
G0 Z15.0000
 X35.4429 Y-12.7714
G1 Z2.6818
 X31.5000
G0 Z15.0000
 X8.5000
G1 Z2.6818
 X4.5000
 X4.4975 Y-9.9000
 X8.5025
G0 Z15.0000
 X31.4975
G1 Z2.6818
 X35.4454
G0 Z15.0000
 X6.0115 Y-30.0000
G1 Z1.7545
 X8.5000
G0 Z15.0000
 X17.5000
G1 Z1.7545
 X22.5000
G0 Z15.0000
 X26.5000
G1 Z1.7545
 X27.5000
G0 Z15.0000
 X31.5000
G1 Z1.7545
 X35.4924
G0 Z15.0000
 X6.0115
G1 Z-0.1000
 X7.1667
G0 Z15.0000
 X27.5000
G1 Z-0.1000
G0 Z15.0000
 X31.5000
G1 Z-0.1000
 X34.1667
G0 Z15.0000
M5 (stop spindle)
G04 P3 (wait for 3 seconds)
G0 Z15.0000
M2 (end program)
