; generated by Slic3r 1.34.1-prusa3d-win64 on 2017-10-12 at 15:12:55

; Buse diamètre 0,4mm
; Debit : 3,2mm3/s

; external perimeters extrusion width = 0.32mm
; perimeters extrusion width = 0.40mm
; infill extrusion width = 0.40mm
; solid infill extrusion width = 0.40mm
; top infill extrusion width = 0.32mm

M107 ; disable fan
M190 S70 ; attente chauffe plateau
M104 S195 ; préchauffe tête
G92 Z0
G28 Y ; prise d'origine en Y
G28 X ; prise d'origine en X
G1 X70 Y0 F6000 ; parking
M109 S195 ; attente chauffe T0
G21 ; set units to millimeters
G90 ; use absolute coordinates
M82 ; use absolute distances for extrusion
G92 E0 ; reset extrusion distance
G1 E-3.50000 F3000.00000 ; retract
G92 E0 ; reset extrusion distance
G1 Z0.200 F6000.000 ; move to next layer (0)
G1 X48.750 Y49.910 F6000.000 ; move to first skirt point
G1 E3.52000 F3000.00000 ; unretract
G1 F1200
G1 X49.210 Y49.504 E3.53822 ; skirt
G1 X49.742 Y49.198 E3.55645 ; skirt
G1 X50.320 Y49.005 E3.57454 ; skirt
G1 X50.930 Y48.930 E3.59277 ; skirt
G1 X91.004 Y48.929 E4.78264 ; skirt
G1 X91.581 Y48.984 E4.79984 ; skirt
G1 X92.141 Y49.149 E4.81717 ; skirt
G1 X92.660 Y49.416 E4.83449 ; skirt
G1 X93.119 Y49.777 E4.85182 ; skirt
G1 X93.498 Y50.214 E4.86902 ; skirt
G1 X93.791 Y50.719 E4.88635 ; skirt
G1 X93.983 Y51.270 E4.90368 ; skirt
G1 X94.067 Y51.847 E4.92101 ; skirt
G1 X94.071 Y92.061 E6.11499 ; skirt
G1 X94.009 Y92.615 E6.13155 ; skirt
G1 X93.848 Y93.149 E6.14811 ; skirt
G1 X93.593 Y93.645 E6.16467 ; skirt
G1 X93.250 Y94.090 E6.18136 ; skirt
G1 X92.779 Y94.503 E6.19997 ; skirt
G1 X92.234 Y94.812 E6.21857 ; skirt
G1 X91.637 Y95.004 E6.23718 ; skirt
G1 X91.014 Y95.071 E6.25579 ; skirt
G1 X50.939 Y95.071 E7.44566 ; skirt
G1 X50.385 Y95.009 E7.46222 ; skirt
G1 X49.851 Y94.848 E7.47878 ; skirt
G1 X49.355 Y94.593 E7.49534 ; skirt
G1 X48.910 Y94.250 E7.51203 ; skirt
G1 X48.497 Y93.779 E7.53064 ; skirt
G1 X48.188 Y93.234 E7.54924 ; skirt
G1 X47.996 Y92.637 E7.56785 ; skirt
G1 X47.929 Y92.014 E7.58646 ; skirt
G1 X47.929 Y51.939 E8.77633 ; skirt
G1 X47.991 Y51.385 E8.79289 ; skirt
G1 X48.152 Y50.851 E8.80945 ; skirt
G1 X48.407 Y50.355 E8.82601 ; skirt
G1 X48.713 Y49.957 E8.84092 ; skirt
G1 E5.34092 F3000.00000 ; retract
G92 E0 ; reset extrusion distance
G1 X48.485 Y50.980 F6000.000 ; move to first skirt point
G1 E3.52000 F3000.00000 ; unretract
G1 F1200
G1 X49.019 Y50.144 E3.54944 ; skirt
G1 X49.426 Y49.789 E3.56549 ; skirt
G1 X49.895 Y49.521 E3.58153 ; skirt
G1 X50.409 Y49.351 E3.59758 ; skirt
G1 X50.945 Y49.286 E3.61363 ; skirt
G1 X91.004 Y49.286 E4.80303 ; skirt
G1 X92.013 Y49.482 E4.83354 ; skirt
G1 X92.876 Y50.039 E4.86405 ; skirt
G1 X93.471 Y50.877 E4.89456 ; skirt
G1 X93.712 Y51.880 E4.92519 ; skirt
G1 X93.714 Y92.049 E6.11785 ; skirt
G1 X93.515 Y93.020 E6.14729 ; skirt
G1 X92.981 Y93.856 E6.17673 ; skirt
G1 X92.564 Y94.218 E6.19314 ; skirt
G1 X92.082 Y94.489 E6.20955 ; skirt
G1 X91.556 Y94.657 E6.22595 ; skirt
G1 X91.006 Y94.714 E6.24236 ; skirt
G1 X50.951 Y94.714 E7.43164 ; skirt
G1 X49.980 Y94.515 E7.46108 ; skirt
G1 X49.144 Y93.981 E7.49052 ; skirt
G1 X48.782 Y93.564 E7.50693 ; skirt
G1 X48.511 Y93.082 E7.52334 ; skirt
G1 X48.343 Y92.556 E7.53974 ; skirt
G1 X48.286 Y92.006 E7.55615 ; skirt
G1 X48.286 Y51.951 E8.74543 ; skirt
G1 X48.473 Y51.038 E8.77309 ; skirt
G1 E5.27309 F3000.00000 ; retract
G92 E0 ; reset extrusion distance
G1 X50.045 Y49.845 F6000.000 ; move to first skirt point
G1 E3.52000 F3000.00000 ; unretract
G1 F1200
G1 X50.958 Y49.643 E3.54774 ; skirt
G1 X91.004 Y49.643 E4.73676 ; skirt
G1 X91.884 Y49.815 E4.76340 ; skirt
G1 X92.637 Y50.304 E4.79004 ; skirt
G1 X93.150 Y51.035 E4.81657 ; skirt
G1 X93.355 Y51.908 E4.84321 ; skirt
G1 X93.357 Y92.034 E6.03460 ; skirt
G1 X93.185 Y92.884 E6.06035 ; skirt
G1 X92.714 Y93.618 E6.08622 ; skirt
G1 X91.934 Y94.164 E6.11451 ; skirt
G1 X91.004 Y94.357 E6.14270 ; skirt
G1 X50.966 Y94.357 E7.33149 ; skirt
G1 X50.116 Y94.185 E7.35725 ; skirt
G1 X49.382 Y93.714 E7.38311 ; skirt
G1 X48.836 Y92.934 E7.41141 ; skirt
G1 X48.643 Y92.004 E7.43959 ; skirt
G1 X48.643 Y51.966 E8.62839 ; skirt
G1 X48.815 Y51.116 E8.65414 ; skirt
G1 X49.286 Y50.382 E8.68001 ; skirt
G1 X49.996 Y49.880 E8.70586 ; skirt
G1 E5.20586 F3000.00000 ; retract
G92 E0 ; reset extrusion distance
G1 X90.443 Y91.443 F6000.000 ; move to first perimeter point
G1 E3.52000 F3000.00000 ; unretract
G1 F1200
G1 X51.557 Y91.443 E4.67457 ; perimeter
G1 X51.557 Y52.557 E5.82914 ; perimeter
G1 X90.443 Y52.557 E6.98371 ; perimeter
G1 X90.443 Y91.383 E8.13650 ; perimeter
G1 E4.63650 F3000.00000 ; retract
G92 E0 ; reset extrusion distance
G1 X90.800 Y91.800 F6000.000 ; move to first perimeter point
G1 E3.52000 F3000.00000 ; unretract
G1 F1080
G1 X51.200 Y91.800 E4.69578 ; perimeter
G1 X51.200 Y52.200 E5.87155 ; perimeter
G1 X90.800 Y52.200 E7.04733 ; perimeter
G1 X90.800 Y91.740 E8.22132 ; perimeter
G1 X90.414 Y91.696 F6000.000 ; move inwards before travel
G1 E4.72132 F3000.00000 ; retract
G92 E0 ; reset extrusion distance
G1 X90.300 Y53.422 F6000.000 ; move to first infill point
G1 E3.52000 F3000.00000 ; unretract
G1 F1200
G1 X89.739 Y52.861 E3.54357 ; infill
G1 X89.234 Y52.861 E3.55857 ; infill
G1 X90.139 Y53.766 E3.59660 ; infill
G1 X90.139 Y54.271 E3.61159 ; infill
G1 X88.729 Y52.861 E3.67083 ; infill
G1 X88.224 Y52.861 E3.68583 ; infill
G1 X90.139 Y54.776 E3.76628 ; infill
G1 X90.139 Y55.281 E3.78128 ; infill
G1 X87.719 Y52.861 E3.88293 ; infill
G1 X87.214 Y52.861 E3.89793 ; infill
G1 X90.139 Y55.786 E4.02080 ; infill
G1 X90.139 Y56.291 E4.03579 ; infill
G1 X86.709 Y52.861 E4.17987 ; infill
G1 X86.204 Y52.861 E4.19487 ; infill
G1 X90.139 Y56.796 E4.36015 ; infill
G1 X90.139 Y57.301 E4.37515 ; infill
G1 X85.699 Y52.861 E4.56164 ; infill
G1 X85.193 Y52.861 E4.57664 ; infill
G1 X90.139 Y57.807 E4.78434 ; infill
G1 X90.139 Y58.312 E4.79934 ; infill
G1 X84.688 Y52.861 E5.02825 ; infill
G1 X84.183 Y52.861 E5.04325 ; infill
G1 X90.139 Y58.817 E5.29337 ; infill
G1 X90.139 Y59.322 E5.30837 ; infill
G1 X83.678 Y52.861 E5.57970 ; infill
G1 X83.173 Y52.861 E5.59470 ; infill
G1 X90.139 Y59.827 E5.88724 ; infill
G1 X90.139 Y60.332 E5.90223 ; infill
G1 X82.668 Y52.861 E6.21598 ; infill
G1 X82.163 Y52.861 E6.23098 ; infill
G1 X90.139 Y60.837 E6.56594 ; infill
G1 X90.139 Y61.342 E6.58094 ; infill
G1 X81.658 Y52.861 E6.93710 ; infill
G1 X81.153 Y52.861 E6.95210 ; infill
G1 X90.139 Y61.847 E7.32948 ; infill
G1 X90.139 Y62.352 E7.34447 ; infill
G1 X80.648 Y52.861 E7.74306 ; infill
G1 X80.143 Y52.861 E7.75806 ; infill
G1 X90.139 Y62.857 E8.17785 ; infill
G1 X90.139 Y63.362 E8.19285 ; infill
G1 X79.638 Y52.861 E8.63385 ; infill
G1 X79.133 Y52.861 E8.64885 ; infill
G1 X90.139 Y63.867 E9.11106 ; infill
G1 X90.139 Y64.372 E9.12606 ; infill
G1 X78.628 Y52.861 E9.60948 ; infill
G1 X78.123 Y52.861 E9.62448 ; infill
G1 X90.139 Y64.877 E10.12911 ; infill
G1 X90.139 Y65.382 E10.14410 ; infill
G1 X77.618 Y52.861 E10.66994 ; infill
G1 X77.113 Y52.861 E10.68494 ; infill
G1 X90.139 Y65.887 E11.23199 ; infill
G1 X90.139 Y66.392 E11.24699 ; infill
G1 X76.608 Y52.861 E11.81524 ; infill
G1 X76.103 Y52.861 E11.83024 ; infill
G1 X90.139 Y66.897 E12.41971 ; infill
G1 X90.139 Y67.402 E12.43471 ; infill
G1 X75.598 Y52.861 E13.04538 ; infill
G1 X75.093 Y52.861 E13.06038 ; infill
G1 X90.139 Y67.907 E13.69226 ; infill
G1 X90.139 Y68.412 E13.70726 ; infill
G1 X74.588 Y52.861 E14.36036 ; infill
G1 X74.083 Y52.861 E14.37535 ; infill
G1 X90.139 Y68.917 E15.04966 ; infill
G1 X90.139 Y69.423 E15.06465 ; infill
G1 X73.577 Y52.861 E15.76017 ; infill
G1 X73.072 Y52.861 E15.77516 ; infill
G1 X90.139 Y69.928 E16.49189 ; infill
G1 X90.139 Y70.433 E16.50688 ; infill
G1 X72.567 Y52.861 E17.24481 ; infill
G1 X72.062 Y52.861 E17.25981 ; infill
G1 X90.139 Y70.938 E18.01895 ; infill
G1 X90.139 Y71.443 E18.03395 ; infill
G1 X71.557 Y52.861 E18.81430 ; infill
G1 X71.052 Y52.861 E18.82929 ; infill
G1 X90.139 Y71.948 E19.63085 ; infill
G1 X90.139 Y72.453 E19.64585 ; infill
G1 X70.547 Y52.861 E20.46862 ; infill
G1 X70.042 Y52.861 E20.48361 ; infill
G1 X90.139 Y72.958 E21.32759 ; infill
G1 X90.139 Y73.463 E21.34259 ; infill
G1 X69.537 Y52.861 E22.20777 ; infill
G1 X69.032 Y52.861 E22.22277 ; infill
G1 X90.139 Y73.968 E23.10917 ; infill
G1 X90.139 Y74.473 E23.12416 ; infill
G1 X68.527 Y52.861 E24.03177 ; infill
G1 X68.022 Y52.861 E24.04676 ; infill
G1 X90.139 Y74.978 E24.97558 ; infill
G1 X90.139 Y75.483 E24.99057 ; infill
G1 X67.517 Y52.861 E25.94060 ; infill
G1 X67.012 Y52.861 E25.95559 ; infill
G1 X90.139 Y75.988 E26.92682 ; infill
G1 X90.139 Y76.493 E26.94182 ; infill
G1 X66.507 Y52.861 E27.93426 ; infill
G1 X66.002 Y52.861 E27.94926 ; infill
G1 X90.139 Y76.998 E28.96291 ; infill
G1 X90.139 Y77.503 E28.97790 ; infill
G1 X65.497 Y52.861 E30.01276 ; infill
G1 X64.992 Y52.861 E30.02776 ; infill
G1 X90.139 Y78.008 E31.08383 ; infill
G1 X90.139 Y78.513 E31.09883 ; infill
G1 X64.487 Y52.861 E32.17610 ; infill
G1 X63.982 Y52.861 E32.19110 ; infill
G1 X90.139 Y79.018 E33.28958 ; infill
G1 X90.139 Y79.523 E33.30458 ; infill
G1 X63.477 Y52.861 E34.42428 ; infill
G1 X62.972 Y52.861 E34.43927 ; infill
G1 X90.139 Y80.028 E35.58018 ; infill
G1 X90.139 Y80.534 E35.59518 ; infill
G1 X62.466 Y52.861 E36.75729 ; infill
G1 X61.961 Y52.861 E36.77229 ; infill
G1 X90.139 Y81.039 E37.95561 ; infill
G1 X90.139 Y81.544 E37.97060 ; infill
G1 X61.456 Y52.861 E39.17514 ; infill
G1 X60.951 Y52.861 E39.19013 ; infill
G1 X90.139 Y82.049 E40.41587 ; infill
G1 X90.139 Y82.554 E40.43087 ; infill
G1 X60.446 Y52.861 E41.67782 ; infill
G1 X59.941 Y52.861 E41.69282 ; infill
G1 X90.139 Y83.059 E42.96098 ; infill
G1 X90.139 Y83.564 E42.97597 ; infill
G1 X59.436 Y52.861 E44.26534 ; infill
G1 X58.931 Y52.861 E44.28034 ; infill
G1 X90.139 Y84.069 E45.59091 ; infill
G1 X90.139 Y84.574 E45.60591 ; infill
G1 X58.426 Y52.861 E46.93770 ; infill
G1 X57.921 Y52.861 E46.95269 ; infill
G1 X90.139 Y85.079 E48.30569 ; infill
G1 X90.139 Y85.584 E48.32069 ; infill
G1 X57.416 Y52.861 E49.69489 ; infill
G1 X56.911 Y52.861 E49.70989 ; infill
G1 X90.139 Y86.089 E51.10530 ; infill
G1 X90.139 Y86.594 E51.12030 ; infill
G1 X56.406 Y52.861 E52.53692 ; infill
G1 X55.901 Y52.861 E52.55192 ; infill
G1 X90.139 Y87.099 E53.98975 ; infill
G1 X90.139 Y87.604 E54.00475 ; infill
G1 X55.396 Y52.861 E55.46379 ; infill
G1 X54.891 Y52.861 E55.47878 ; infill
G1 X90.139 Y88.109 E56.95903 ; infill
G1 X90.139 Y88.614 E56.97403 ; infill
G1 X54.386 Y52.861 E58.47549 ; infill
G1 X53.881 Y52.861 E58.49049 ; infill
G1 X90.139 Y89.119 E60.01316 ; infill
G1 X90.139 Y89.624 E60.02815 ; infill
G1 X53.376 Y52.861 E61.57203 ; infill
G1 X52.871 Y52.861 E61.58703 ; infill
G1 X90.139 Y90.129 E63.15211 ; infill
G1 X90.139 Y90.634 E63.16711 ; infill
G1 X52.366 Y52.861 E64.75341 ; infill
G1 X51.861 Y52.861 E64.76840 ; infill
G1 X90.139 Y91.139 E66.37591 ; infill
G1 X89.634 Y91.139 E66.39090 ; infill
G1 X51.861 Y53.366 E67.97720 ; infill
G1 X51.861 Y53.871 E67.99220 ; infill
G1 X89.129 Y91.139 E69.55728 ; infill
G1 X88.624 Y91.139 E69.57228 ; infill
G1 X51.861 Y54.376 E71.11616 ; infill
G1 X51.861 Y54.881 E71.13115 ; infill
G1 X88.119 Y91.139 E72.65382 ; infill
G1 X87.614 Y91.139 E72.66882 ; infill
G1 X51.861 Y55.386 E74.17028 ; infill
G1 X51.861 Y55.891 E74.18527 ; infill
G1 X87.109 Y91.139 E75.66552 ; infill
G1 X86.604 Y91.139 E75.68052 ; infill
G1 X51.861 Y56.396 E77.13956 ; infill
G1 X51.861 Y56.901 E77.15456 ; infill
G1 X86.099 Y91.139 E78.59239 ; infill
G1 X85.594 Y91.139 E78.60738 ; infill
G1 X51.861 Y57.406 E80.02401 ; infill
G1 X51.861 Y57.911 E80.03900 ; infill
G1 X85.089 Y91.139 E81.43442 ; infill
G1 X84.584 Y91.139 E81.44941 ; infill
G1 X51.861 Y58.416 E82.82362 ; infill
G1 X51.861 Y58.921 E82.83861 ; infill
G1 X84.079 Y91.139 E84.19161 ; infill
G1 X83.574 Y91.139 E84.20661 ; infill
G1 X51.861 Y59.426 E85.53839 ; infill
G1 X51.861 Y59.931 E85.55339 ; infill
G1 X83.069 Y91.139 E86.86397 ; infill
G1 X82.564 Y91.139 E86.87896 ; infill
G1 X51.861 Y60.436 E88.16833 ; infill
G1 X51.861 Y60.941 E88.18333 ; infill
G1 X82.059 Y91.139 E89.45149 ; infill
G1 X81.554 Y91.139 E89.46648 ; infill
G1 X51.861 Y61.446 E90.71343 ; infill
G1 X51.861 Y61.951 E90.72843 ; infill
G1 X81.049 Y91.139 E91.95417 ; infill
G1 X80.544 Y91.139 E91.96917 ; infill
G1 X51.861 Y62.456 E93.17370 ; infill
G1 X51.861 Y62.961 E93.18869 ; infill
G1 X80.039 Y91.139 E94.37202 ; infill
G1 X79.533 Y91.139 E94.38701 ; infill
G1 X51.861 Y63.467 E95.54913 ; infill
G1 X51.861 Y63.972 E95.56412 ; infill
G1 X79.028 Y91.139 E96.70503 ; infill
G1 X78.523 Y91.139 E96.72002 ; infill
G1 X51.861 Y64.477 E97.83972 ; infill
G1 X51.861 Y64.982 E97.85472 ; infill
G1 X78.018 Y91.139 E98.95320 ; infill
G1 X77.513 Y91.139 E98.96820 ; infill
G1 X51.861 Y65.487 E100.04547 ; infill
G1 X51.861 Y65.992 E100.06047 ; infill
G1 X77.008 Y91.139 E101.11654 ; infill
G1 X76.503 Y91.139 E101.13154 ; infill
G1 X51.861 Y66.497 E102.16639 ; infill
G1 X51.861 Y67.002 E102.18139 ; infill
G1 X75.998 Y91.139 E103.19504 ; infill
G1 X75.493 Y91.139 E103.21004 ; infill
G1 X51.861 Y67.507 E104.20248 ; infill
G1 X51.861 Y68.012 E104.21747 ; infill
G1 X74.988 Y91.139 E105.18871 ; infill
G1 X74.483 Y91.139 E105.20370 ; infill
G1 X51.861 Y68.517 E106.15372 ; infill
G1 X51.861 Y69.022 E106.16872 ; infill
G1 X73.978 Y91.139 E107.09753 ; infill
G1 X73.473 Y91.139 E107.11253 ; infill
G1 X51.861 Y69.527 E108.02013 ; infill
G1 X51.861 Y70.032 E108.03513 ; infill
G1 X72.968 Y91.139 E108.92153 ; infill
G1 X72.463 Y91.139 E108.93652 ; infill
G1 X51.861 Y70.537 E109.80171 ; infill
G1 X51.861 Y71.042 E109.81671 ; infill
G1 X71.958 Y91.139 E110.66068 ; infill
G1 X71.453 Y91.139 E110.67568 ; infill
G1 X51.861 Y71.547 E111.49845 ; infill
G1 X51.861 Y72.052 E111.51344 ; infill
G1 X70.948 Y91.139 E112.31500 ; infill
G1 X70.443 Y91.139 E112.33000 ; infill
G1 X51.861 Y72.557 E113.11035 ; infill
G1 X51.861 Y73.062 E113.12534 ; infill
G1 X69.938 Y91.139 E113.88448 ; infill
G1 X69.433 Y91.139 E113.89948 ; infill
G1 X51.861 Y73.567 E114.63741 ; infill
G1 X51.861 Y74.072 E114.65241 ; infill
G1 X68.928 Y91.139 E115.36913 ; infill
G1 X68.423 Y91.139 E115.38413 ; infill
G1 X51.861 Y74.577 E116.07964 ; infill
G1 X51.861 Y75.083 E116.09464 ; infill
G1 X67.917 Y91.139 E116.76894 ; infill
G1 X67.412 Y91.139 E116.78394 ; infill
G1 X51.861 Y75.588 E117.43703 ; infill
G1 X51.861 Y76.093 E117.45203 ; infill
G1 X66.907 Y91.139 E118.08391 ; infill
G1 X66.402 Y91.139 E118.09891 ; infill
G1 X51.861 Y76.598 E118.70959 ; infill
G1 X51.861 Y77.103 E118.72458 ; infill
G1 X65.897 Y91.139 E119.31405 ; infill
G1 X65.392 Y91.139 E119.32905 ; infill
G1 X51.861 Y77.608 E119.89730 ; infill
G1 X51.861 Y78.113 E119.91230 ; infill
G1 X64.887 Y91.139 E120.45935 ; infill
G1 X64.382 Y91.139 E120.47435 ; infill
G1 X51.861 Y78.618 E121.00019 ; infill
G1 X51.861 Y79.123 E121.01518 ; infill
G1 X63.877 Y91.139 E121.51981 ; infill
G1 X63.372 Y91.139 E121.53481 ; infill
G1 X51.861 Y79.628 E122.01823 ; infill
G1 X51.861 Y80.133 E122.03323 ; infill
G1 X62.867 Y91.139 E122.49544 ; infill
G1 X62.362 Y91.139 E122.51044 ; infill
G1 X51.861 Y80.638 E122.95144 ; infill
G1 X51.861 Y81.143 E122.96644 ; infill
G1 X61.857 Y91.139 E123.38623 ; infill
G1 X61.352 Y91.139 E123.40123 ; infill
G1 X51.861 Y81.648 E123.79982 ; infill
G1 X51.861 Y82.153 E123.81481 ; infill
G1 X60.847 Y91.139 E124.19219 ; infill
G1 X60.342 Y91.139 E124.20719 ; infill
G1 X51.861 Y82.658 E124.56335 ; infill
G1 X51.861 Y83.163 E124.57835 ; infill
G1 X59.837 Y91.139 E124.91331 ; infill
G1 X59.332 Y91.139 E124.92830 ; infill
G1 X51.861 Y83.668 E125.24205 ; infill
G1 X51.861 Y84.173 E125.25705 ; infill
G1 X58.827 Y91.139 E125.54959 ; infill
G1 X58.322 Y91.139 E125.56459 ; infill
G1 X51.861 Y84.678 E125.83592 ; infill
G1 X51.861 Y85.183 E125.85091 ; infill
G1 X57.817 Y91.139 E126.10103 ; infill
G1 X57.312 Y91.139 E126.11603 ; infill
G1 X51.861 Y85.688 E126.34494 ; infill
G1 X51.861 Y86.193 E126.35994 ; infill
G1 X56.807 Y91.139 E126.56764 ; infill
G1 X56.301 Y91.139 E126.58264 ; infill
G1 X51.861 Y86.699 E126.76914 ; infill
G1 X51.861 Y87.204 E126.78413 ; infill
