; generated by Slic3r 1.34.1-prusa3d-win64 on 2017-10-08 at 16:36:17

; Buse OEV5 - diamètre 0,5mm

; external perimeters extrusion width = 0.40mm
; perimeters extrusion width = 0.50mm
; infill extrusion width = 0.50mm
; solid infill extrusion width = 0.50mm
; top infill extrusion width = 0.40mm

M107 ; disable fan
M190 S70 ; attente chauffe plateau
M104 S195 ; préchauffe tête
G92 Z0
G1 Z10 F1500
G28 Y ; prise d'origine en Y
G28 X ; prise d'origine en X
G1 X70 Y0 F6000 ; parking
M109 S195 ; attente chauffe T0
G21 ; set units to millimeters
G90 ; use absolute coordinates
M82 ; use absolute distances for extrusion
G92 E0 ; reset extrusion distance
G1 E-3.60000 F3000.00000 ; retract
G92 E0 ; reset extrusion distance
G1 Z0.250 F6000.000 ; move to next layer (0)
G1 X31.514 Y32.547 F6000.000 ; move to first skirt point
G1 E3.64000 F3000.00000 ; unretract
G1 F1200
G1 X31.948 Y32.176 E3.66647 ; skirt
G1 X32.450 Y31.897 E3.69313 ; skirt
G1 X32.994 Y31.723 E3.71960 ; skirt
G1 X33.565 Y31.659 E3.74626 ; skirt
G1 X108.404 Y31.658 E7.21826 ; skirt
G1 X108.955 Y31.712 E7.24395 ; skirt
G1 X109.490 Y31.872 E7.26984 ; skirt
G1 X109.984 Y32.131 E7.29572 ; skirt
G1 X110.419 Y32.480 E7.32161 ; skirt
G1 X110.777 Y32.903 E7.34730 ; skirt
G1 X111.049 Y33.390 E7.37319 ; skirt
G1 X111.223 Y33.920 E7.39907 ; skirt
G1 X111.292 Y34.474 E7.42496 ; skirt
G1 X111.293 Y109.478 E10.90463 ; skirt
G1 X111.236 Y110.021 E10.92993 ; skirt
G1 X111.078 Y110.543 E10.95523 ; skirt
G1 X110.825 Y111.026 E10.98054 ; skirt
G1 X110.486 Y111.453 E11.00584 ; skirt
G1 X110.041 Y111.831 E11.03289 ; skirt
G1 X109.534 Y112.110 E11.05975 ; skirt
G1 X108.982 Y112.283 E11.08660 ; skirt
G1 X108.406 Y112.342 E11.11346 ; skirt
G1 X33.571 Y112.342 E14.58526 ; skirt
G1 X33.028 Y112.285 E14.61057 ; skirt
G1 X32.506 Y112.127 E14.63587 ; skirt
G1 X32.023 Y111.874 E14.66118 ; skirt
G1 X31.596 Y111.535 E14.68648 ; skirt
G1 X31.218 Y111.090 E14.71353 ; skirt
G1 X30.939 Y110.583 E14.74039 ; skirt
G1 X30.766 Y110.031 E14.76724 ; skirt
G1 X30.707 Y109.455 E14.79410 ; skirt
G1 X30.707 Y34.522 E18.27045 ; skirt
G1 X30.764 Y33.979 E18.29575 ; skirt
G1 X30.922 Y33.457 E18.32106 ; skirt
G1 X31.175 Y32.974 E18.34636 ; skirt
G1 X31.468 Y32.605 E18.36819 ; skirt
G1 X31.842 Y32.850 F6000.000 ; move to first skirt point
G1 F1200
G1 X32.632 Y32.304 E18.41275 ; skirt
G1 X33.575 Y32.105 E18.45745 ; skirt
G1 X108.404 Y32.105 E21.92896 ; skirt
G1 X109.323 Y32.286 E21.97243 ; skirt
G1 X110.110 Y32.802 E22.01607 ; skirt
G1 X110.644 Y33.576 E22.05972 ; skirt
G1 X110.846 Y34.495 E22.10337 ; skirt
G1 X110.846 Y109.472 E25.58175 ; skirt
G1 X110.664 Y110.376 E25.62452 ; skirt
G1 X110.158 Y111.151 E25.66746 ; skirt
G1 X109.353 Y111.702 E25.71269 ; skirt
G1 X108.400 Y111.895 E25.75783 ; skirt
G1 X33.577 Y111.895 E29.22907 ; skirt
G1 X32.673 Y111.713 E29.27184 ; skirt
G1 X31.898 Y111.207 E29.31478 ; skirt
G1 X31.347 Y110.402 E29.36001 ; skirt
G1 X31.154 Y109.449 E29.40514 ; skirt
G1 X31.154 Y34.528 E32.88094 ; skirt
G1 X31.336 Y33.624 E32.92370 ; skirt
G1 X31.801 Y32.913 E32.96313 ; skirt
G1 E29.36313 F3000.00000 ; retract
G92 E0 ; reset extrusion distance
G1 X34.296 Y35.247 F6000.000 ; move to first perimeter point
G1 E3.64000 F3000.00000 ; unretract
G1 F1200
G1 X107.704 Y35.247 E7.04556 ; perimeter
G1 X107.704 Y108.753 E10.45566 ; perimeter
G1 X34.296 Y108.753 E13.86122 ; perimeter
G1 X34.296 Y35.322 E17.26785 ; perimeter
G1 E13.66785 F3000.00000 ; retract
G92 E0 ; reset extrusion distance
G1 X33.850 Y34.801 F6000.000 ; move to first perimeter point
G1 E3.64000 F3000.00000 ; unretract
G1 F1080
G1 X108.150 Y34.801 E7.08697 ; perimeter
G1 X108.150 Y109.199 E10.53849 ; perimeter
G1 X33.850 Y109.199 E13.98547 ; perimeter
G1 X33.850 Y34.876 E17.43351 ; perimeter
G1 X34.333 Y34.931 F6000.000 ; move inwards before travel
G1 E13.83351 F3000.00000 ; retract
G92 E0 ; reset extrusion distance
G1 X34.475 Y107.669 F6000.000 ; move to first infill point
G1 E3.64000 F3000.00000 ; unretract
G1 F1200
G1 X35.180 Y108.373 E3.68638 ; infill
G1 X35.813 Y108.373 E3.71586 ; infill
G1 X34.676 Y107.236 E3.79070 ; infill
G1 X34.676 Y106.603 E3.82018 ; infill
G1 X36.446 Y108.373 E3.93671 ; infill
G1 X37.079 Y108.373 E3.96618 ; infill
G1 X34.676 Y105.970 E4.12439 ; infill
G1 X34.676 Y105.336 E4.15387 ; infill
G1 X37.713 Y108.373 E4.35376 ; infill
G1 X38.346 Y108.373 E4.38324 ; infill
G1 X34.676 Y104.703 E4.62482 ; infill
G1 X34.676 Y104.070 E4.65429 ; infill
G1 X38.979 Y108.373 E4.93755 ; infill
G1 X39.612 Y108.373 E4.96703 ; infill
G1 X34.676 Y103.437 E5.29198 ; infill
G1 X34.676 Y102.803 E5.32145 ; infill
G1 X40.246 Y108.373 E5.68808 ; infill
G1 X40.879 Y108.373 E5.71756 ; infill
G1 X34.676 Y102.170 E6.12587 ; infill
G1 X34.676 Y101.537 E6.15534 ; infill
G1 X41.512 Y108.373 E6.60534 ; infill
G1 X42.146 Y108.373 E6.63481 ; infill
G1 X34.676 Y100.903 E7.12650 ; infill
G1 X34.676 Y100.270 E7.15597 ; infill
G1 X42.779 Y108.373 E7.68933 ; infill
G1 X43.412 Y108.373 E7.71881 ; infill
G1 X34.676 Y99.637 E8.29386 ; infill
G1 X34.676 Y99.004 E8.32333 ; infill
G1 X44.045 Y108.373 E8.94006 ; infill
G1 X44.679 Y108.373 E8.96954 ; infill
G1 X34.676 Y98.370 E9.62795 ; infill
G1 X34.676 Y97.737 E9.65743 ; infill
G1 X45.312 Y108.373 E10.35752 ; infill
G1 X45.945 Y108.373 E10.38700 ; infill
G1 X34.676 Y97.104 E11.12878 ; infill
G1 X34.676 Y96.470 E11.15825 ; infill
G1 X46.579 Y108.373 E11.94172 ; infill
G1 X47.212 Y108.373 E11.97119 ; infill
G1 X34.676 Y95.837 E12.79634 ; infill
G1 X34.676 Y95.204 E12.82582 ; infill
G1 X47.845 Y108.373 E13.69265 ; infill
G1 X48.478 Y108.373 E13.72212 ; infill
G1 X34.676 Y94.571 E14.63064 ; infill
G1 X34.676 Y93.937 E14.66011 ; infill
G1 X49.112 Y108.373 E15.61031 ; infill
G1 X49.745 Y108.373 E15.63979 ; infill
G1 X34.676 Y93.304 E16.63167 ; infill
G1 X34.676 Y92.671 E16.66115 ; infill
G1 X50.378 Y108.373 E17.69471 ; infill
G1 X51.012 Y108.373 E17.72419 ; infill
G1 X34.676 Y92.037 E18.79944 ; infill
G1 X34.676 Y91.404 E18.82891 ; infill
G1 X51.645 Y108.373 E19.94584 ; infill
G1 X52.278 Y108.373 E19.97532 ; infill
G1 X34.676 Y90.771 E21.13394 ; infill
G1 X34.676 Y90.138 E21.16341 ; infill
G1 X52.911 Y108.373 E22.36371 ; infill
G1 X53.545 Y108.373 E22.39319 ; infill
G1 X34.676 Y89.504 E23.63517 ; infill
G1 X34.676 Y88.871 E23.66464 ; infill
G1 X54.178 Y108.373 E24.94831 ; infill
G1 X54.811 Y108.373 E24.97779 ; infill
G1 X34.676 Y88.238 E26.30314 ; infill
G1 X34.676 Y87.605 E26.33261 ; infill
G1 X55.444 Y108.373 E27.69965 ; infill
G1 X56.078 Y108.373 E27.72912 ; infill
G1 X34.676 Y86.971 E29.13784 ; infill
G1 X34.676 Y86.338 E29.16731 ; infill
G1 X56.711 Y108.373 E30.61772 ; infill
G1 X57.344 Y108.373 E30.64719 ; infill
G1 X34.676 Y85.705 E32.13928 ; infill
G1 X34.676 Y85.071 E32.16875 ; infill
G1 X57.978 Y108.373 E33.70252 ; infill
G1 X58.611 Y108.373 E33.73199 ; infill
G1 X34.676 Y84.438 E35.30745 ; infill
G1 X34.676 Y83.805 E35.33692 ; infill
G1 X59.244 Y108.373 E36.95406 ; infill
G1 X59.877 Y108.373 E36.98353 ; infill
G1 X34.676 Y83.172 E38.64235 ; infill
G1 X34.676 Y82.538 E38.67182 ; infill
G1 X60.511 Y108.373 E40.37233 ; infill
G1 X61.144 Y108.373 E40.40180 ; infill
G1 X34.676 Y81.905 E42.14399 ; infill
G1 X34.676 Y81.272 E42.17346 ; infill
G1 X61.777 Y108.373 E43.95733 ; infill
G1 X62.411 Y108.373 E43.98681 ; infill
G1 X34.676 Y80.638 E45.81236 ; infill
G1 X34.676 Y80.005 E45.84183 ; infill
G1 X63.044 Y108.373 E47.70907 ; infill
G1 X63.677 Y108.373 E47.73855 ; infill
G1 X34.676 Y79.372 E49.64747 ; infill
G1 X34.676 Y78.739 E49.67694 ; infill
G1 X64.310 Y108.373 E51.62754 ; infill
G1 X64.944 Y108.373 E51.65702 ; infill
G1 X34.676 Y78.105 E53.64931 ; infill
G1 X34.676 Y77.472 E53.67878 ; infill
G1 X65.577 Y108.373 E55.71275 ; infill
G1 X66.210 Y108.373 E55.74223 ; infill
G1 X34.676 Y76.839 E57.81788 ; infill
G1 X34.676 Y76.206 E57.84736 ; infill
G1 X66.843 Y108.373 E59.96469 ; infill
G1 X67.477 Y108.373 E59.99417 ; infill
G1 X34.676 Y75.572 E62.15319 ; infill
G1 X34.676 Y74.939 E62.18266 ; infill
G1 X68.110 Y108.373 E64.38337 ; infill
G1 X68.743 Y108.373 E64.41284 ; infill
G1 X34.676 Y74.306 E66.65523 ; infill
G1 X34.676 Y73.672 E66.68471 ; infill
G1 X69.377 Y108.373 E68.96878 ; infill
G1 X70.010 Y108.373 E68.99825 ; infill
G1 X34.676 Y73.039 E71.32401 ; infill
G1 X34.676 Y72.406 E71.35348 ; infill
G1 X70.643 Y108.373 E73.72092 ; infill
G1 X71.276 Y108.373 E73.75040 ; infill
G1 X34.676 Y71.773 E76.15952 ; infill
G1 X34.676 Y71.139 E76.18899 ; infill
G1 X71.910 Y108.373 E78.63980 ; infill
G1 X72.543 Y108.373 E78.66927 ; infill
G1 X34.676 Y70.506 E81.16176 ; infill
G1 X34.676 Y69.873 E81.19124 ; infill
G1 X73.176 Y108.373 E83.72541 ; infill
G1 X73.810 Y108.373 E83.75489 ; infill
G1 X34.676 Y69.239 E86.33074 ; infill
G1 X34.676 Y68.606 E86.36022 ; infill
G1 X74.443 Y108.373 E88.97776 ; infill
G1 X75.076 Y108.373 E89.00723 ; infill
G1 X34.676 Y67.973 E91.66646 ; infill
G1 X34.676 Y67.340 E91.69593 ; infill
G1 X75.709 Y108.373 E94.39684 ; infill
G1 X76.343 Y108.373 E94.42631 ; infill
G1 X34.676 Y66.706 E97.16890 ; infill
G1 X34.676 Y66.073 E97.19838 ; infill
G1 X76.976 Y108.373 E99.98265 ; infill
G1 X77.609 Y108.373 E100.01213 ; infill
G1 X34.676 Y65.440 E102.83808 ; infill
G1 X34.676 Y64.806 E102.86756 ; infill
G1 X78.243 Y108.373 E105.73520 ; infill
G1 X78.876 Y108.373 E105.76468 ; infill
G1 X34.676 Y64.173 E108.67400 ; infill
G1 X34.676 Y63.540 E108.70347 ; infill
G1 X79.509 Y108.373 E111.65448 ; infill
G1 X80.142 Y108.373 E111.68396 ; infill
G1 X34.676 Y62.907 E114.67665 ; infill
G1 X34.676 Y62.273 E114.70612 ; infill
G1 X80.776 Y108.373 E117.74050 ; infill
G1 X81.409 Y108.373 E117.76997 ; infill
G1 X34.676 Y61.640 E120.84603 ; infill
G1 X34.676 Y61.007 E120.87551 ; infill
G1 X82.042 Y108.373 E123.99325 ; infill
G1 X82.675 Y108.373 E124.02272 ; infill
G1 X34.676 Y60.374 E127.18215 ; infill
G1 X34.676 Y59.740 E127.21162 ; infill
G1 X83.309 Y108.373 E130.41273 ; infill
G1 X83.942 Y108.373 E130.44221 ; infill
G1 X34.676 Y59.107 E133.68500 ; infill
G1 X34.676 Y58.474 E133.71448 ; infill
G1 X84.575 Y108.373 E136.99895 ; infill
G1 X85.209 Y108.373 E137.02843 ; infill
G1 X34.676 Y57.840 E140.35459 ; infill
G1 X34.676 Y57.207 E140.38406 ; infill
G1 X85.842 Y108.373 E143.75191 ; infill
G1 X86.475 Y108.373 E143.78138 ; infill
G1 X34.676 Y56.574 E147.19091 ; infill
G1 X34.676 Y55.941 E147.22038 ; infill
G1 X87.108 Y108.373 E150.67159 ; infill
G1 X87.742 Y108.373 E150.70107 ; infill
G1 X34.676 Y55.307 E154.19396 ; infill
G1 X34.676 Y54.674 E154.22344 ; infill
G1 X88.375 Y108.373 E157.75801 ; infill
G1 X89.008 Y108.373 E157.78749 ; infill
G1 X34.676 Y54.041 E161.36375 ; infill
G1 X34.676 Y53.407 E161.39322 ; infill
G1 X89.642 Y108.373 E165.01117 ; infill
G1 X90.275 Y108.373 E165.04064 ; infill
G1 X34.676 Y52.774 E168.70027 ; infill
G1 X34.676 Y52.141 E168.72975 ; infill
G1 X90.908 Y108.373 E172.43106 ; infill
G1 X91.541 Y108.373 E172.46053 ; infill
G1 X34.676 Y51.508 E176.20353 ; infill
G1 X34.676 Y50.874 E176.23300 ; infill
G1 X92.175 Y108.373 E180.01768 ; infill
G1 X92.808 Y108.373 E180.04716 ; infill
G1 X34.676 Y50.241 E183.87352 ; infill
G1 X34.676 Y49.608 E183.90299 ; infill
G1 X93.441 Y108.373 E187.77104 ; infill
G1 X94.074 Y108.373 E187.80051 ; infill
G1 X34.676 Y48.975 E191.71024 ; infill
G1 X34.676 Y48.341 E191.73972 ; infill
G1 X94.708 Y108.373 E195.69113 ; infill
G1 X95.341 Y108.373 E195.72060 ; infill
G1 X34.676 Y47.708 E199.71370 ; infill
G1 X34.676 Y47.075 E199.74318 ; infill
G1 X95.974 Y108.373 E203.77796 ; infill
G1 X96.608 Y108.373 E203.80743 ; infill
G1 X34.676 Y46.441 E207.88389 ; infill
G1 X34.676 Y45.808 E207.91337 ; infill
G1 X97.241 Y108.373 E212.03152 ; infill
G1 X97.874 Y108.373 E212.06099 ; infill
G1 X34.676 Y45.175 E216.22082 ; infill
G1 X34.676 Y44.542 E216.25030 ; infill
G1 X98.507 Y108.373 E220.45181 ; infill
G1 X99.141 Y108.373 E220.48128 ; infill
G1 X34.676 Y43.908 E224.72448 ; infill
G1 X34.676 Y43.275 E224.75396 ; infill
G1 X99.774 Y108.373 E229.03884 ; infill
G1 X100.407 Y108.373 E229.06831 ; infill
G1 X34.676 Y42.642 E233.39488 ; infill
G1 X34.676 Y42.008 E233.42435 ; infill
G1 X101.041 Y108.373 E237.79260 ; infill
G1 X101.674 Y108.373 E237.82207 ; infill
G1 X34.676 Y41.375 E242.23201 ; infill
G1 X34.676 Y40.742 E242.26148 ; infill
G1 X102.307 Y108.373 E246.71309 ; infill
G1 X102.940 Y108.373 E246.74257 ; infill
G1 X34.676 Y40.109 E251.23587 ; infill
G1 X34.676 Y39.475 E251.26534 ; infill
G1 X103.574 Y108.373 E255.80032 ; infill
G1 X104.207 Y108.373 E255.82980 ; infill
G1 X34.676 Y38.842 E260.40647 ; infill
G1 X34.676 Y38.209 E260.43594 ; infill
G1 X104.840 Y108.373 E265.05429 ; infill
G1 X105.474 Y108.373 E265.08376 ; infill
G1 X34.676 Y37.575 E269.74380 ; infill
G1 X34.676 Y36.942 E269.77327 ; infill
G1 X106.107 Y108.373 E274.47499 ; infill
G1 X106.740 Y108.373 E274.50446 ; infill
G1 X34.676 Y36.309 E279.24786 ; infill
G1 X34.676 Y35.676 E279.27734 ; infill
G1 X107.324 Y108.324 E284.05919 ; infill
G1 X107.324 Y107.691 E284.08866 ; infill
G1 X35.260 Y35.627 E288.83205 ; infill
G1 X35.893 Y35.627 E288.86153 ; infill
G1 X107.324 Y107.058 E293.56323 ; infill
G1 X107.324 Y106.424 E293.59271 ; infill
G1 X36.527 Y35.627 E298.25273 ; infill
G1 X37.160 Y35.627 E298.28220 ; infill
G1 X107.324 Y105.791 E302.90054 ; infill
G1 X107.324 Y105.158 E302.93002 ; infill
G1 X37.793 Y35.627 E307.50667 ; infill
G1 X38.426 Y35.627 E307.53614 ; infill
G1 X107.324 Y104.525 E312.07112 ; infill
G1 X107.324 Y103.891 E312.10059 ; infill
G1 X39.060 Y35.627 E316.59388 ; infill
G1 X39.693 Y35.627 E316.62335 ; infill
G1 X107.324 Y103.258 E321.07496 ; infill
G1 X107.324 Y102.625 E321.10443 ; infill
G1 X40.326 Y35.627 E325.51435 ; infill
G1 X40.960 Y35.627 E325.54383 ; infill
G1 X107.324 Y101.991 E329.91206 ; infill
G1 X107.324 Y101.358 E329.94154 ; infill
G1 X41.593 Y35.627 E334.26809 ; infill
G1 X42.226 Y35.627 E334.29757 ; infill
G1 X107.324 Y100.725 E338.58244 ; infill
G1 X107.324 Y100.092 E338.61191 ; infill
G1 X42.859 Y35.627 E342.85510 ; infill
G1 X43.493 Y35.627 E342.88457 ; infill
G1 X107.324 Y99.458 E347.08607 ; infill
G1 X107.324 Y98.825 E347.11555 ; infill
G1 X44.126 Y35.627 E351.27537 ; infill
G1 X44.759 Y35.627 E351.30484 ; infill
G1 X107.324 Y98.192 E355.42298 ; infill
G1 X107.324 Y97.558 E355.45245 ; infill
G1 X45.393 Y35.627 E359.52891 ; infill
G1 X46.026 Y35.627 E359.55838 ; infill
G1 X107.324 Y96.925 E363.59315 ; infill
G1 X107.324 Y96.292 E363.62262 ; infill
G1 X46.659 Y35.627 E367.61571 ; infill
G1 X47.292 Y35.627 E367.64518 ; infill
G1 X107.324 Y95.659 E371.59658 ; infill
G1 X107.324 Y95.025 E371.62606 ; infill
G1 X47.926 Y35.627 E375.53578 ; infill
G1 X48.559 Y35.627 E375.56525 ; infill
G1 X107.324 Y94.392 E379.43329 ; infill
G1 X107.324 Y93.759 E379.46276 ; infill
G1 X49.192 Y35.627 E383.28911 ; infill
G1 X49.826 Y35.627 E383.31859 ; infill
G1 X107.324 Y93.125 E387.10325 ; infill
G1 X107.324 Y92.492 E387.13273 ; infill
G1 X50.459 Y35.627 E390.87571 ; infill
G1 X51.092 Y35.627 E390.90519 ; infill
G1 X107.324 Y91.859 E394.60649 ; infill
G1 X107.324 Y91.226 E394.63596 ; infill
G1 X51.725 Y35.627 E398.29558 ; infill
G1 X52.359 Y35.627 E398.32505 ; infill
G1 X107.324 Y90.592 E401.94299 ; infill
G1 X107.324 Y89.959 E401.97246 ; infill
G1 X52.992 Y35.627 E405.54871 ; infill
G1 X53.625 Y35.627 E405.57819 ; infill
G1 X107.324 Y89.326 E409.11275 ; infill
G1 X107.324 Y88.693 E409.14223 ; infill
G1 X54.258 Y35.627 E412.63511 ; infill
G1 X54.892 Y35.627 E412.66459 ; infill
G1 X107.324 Y88.059 E416.11579 ; infill
G1 X107.324 Y87.426 E416.14526 ; infill
G1 X55.525 Y35.627 E419.55478 ; infill
G1 X56.158 Y35.627 E419.58425 ; infill
G1 X107.324 Y86.793 E422.95208 ; infill
G1 X107.324 Y86.159 E422.98156 ; infill
G1 X56.792 Y35.627 E426.30771 ; infill
G1 X57.425 Y35.627 E426.33718 ; infill
G1 X107.324 Y85.526 E429.62165 ; infill
G1 X107.324 Y84.893 E429.65112 ; infill
G1 X58.058 Y35.627 E432.89390 ; infill
G1 X58.691 Y35.627 E432.92338 ; infill
G1 X107.324 Y84.260 E436.12448 ; infill
G1 X107.324 Y83.626 E436.15395 ; infill
G1 X59.325 Y35.627 E439.31337 ; infill
