; generated by Slic3r 1.34.1-prusa3d-win64 on 2017-10-08 at 16:03:35

; Buse OEV5 - diamètre 0,5mm

; external perimeters extrusion width = 0.40mm
; perimeters extrusion width = 0.50mm
; infill extrusion width = 0.50mm
; solid infill extrusion width = 0.50mm
; top infill extrusion width = 0.40mm

M107 ; disable fan
M190 S70 ; attente chauffe plateau
M104 S195 ; préchauffe tête
G92 Z0
G1 Z10 F1500
G28 Y ; prise d'origine en Y
G28 X ; prise d'origine en X
G1 X70 Y0 F6000 ; parking
M109 S195 ; attente chauffe T0
G21 ; set units to millimeters
G90 ; use absolute coordinates
M82 ; use absolute distances for extrusion
G92 E0 ; reset extrusion distance
G1 E-3.60000 F3000.00000 ; retract
G92 E0 ; reset extrusion distance
G1 Z0.250 F6000.000 ; move to next layer (0)
G1 X60.142 Y61.066 F6000.000 ; move to first skirt point
G1 E3.64000 F3000.00000 ; unretract
G1 F1200
G1 X61.616 Y59.779 E3.73080 ; skirt
G1 X62.688 Y59.024 E3.79163 ; skirt
G1 X63.748 Y58.404 E3.84857 ; skirt
G1 X65.417 Y57.640 E3.93376 ; skirt
G1 X66.663 Y57.213 E3.99485 ; skirt
G1 X67.844 Y56.917 E4.05136 ; skirt
G1 X69.679 Y56.650 E4.13738 ; skirt
G1 X71.005 Y56.590 E4.19897 ; skirt
G1 X72.332 Y56.651 E4.26059 ; skirt
G1 X74.242 Y56.935 E4.35017 ; skirt
G1 X75.531 Y57.274 E4.41199 ; skirt
G1 X77.256 Y57.918 E4.49742 ; skirt
G1 X78.359 Y58.461 E4.55446 ; skirt
G1 X79.489 Y59.141 E4.61566 ; skirt
G1 X80.973 Y60.254 E4.70171 ; skirt
G1 X81.934 Y61.142 E4.76239 ; skirt
G1 X83.221 Y62.616 E4.85319 ; skirt
G1 X83.976 Y63.688 E4.91402 ; skirt
G1 X84.596 Y64.748 E4.97096 ; skirt
G1 X85.360 Y66.417 E5.05614 ; skirt
G1 X85.787 Y67.663 E5.11724 ; skirt
G1 X86.083 Y68.844 E5.17374 ; skirt
G1 X86.350 Y70.679 E5.25977 ; skirt
G1 X86.410 Y72.001 E5.32113 ; skirt
G1 X86.349 Y73.332 E5.38297 ; skirt
G1 X86.065 Y75.242 E5.47256 ; skirt
G1 X85.726 Y76.531 E5.53438 ; skirt
G1 X85.082 Y78.256 E5.61980 ; skirt
G1 X84.539 Y79.359 E5.67685 ; skirt
G1 X83.859 Y80.489 E5.73805 ; skirt
G1 X82.746 Y81.973 E5.82410 ; skirt
G1 X81.858 Y82.934 E5.88477 ; skirt
G1 X80.384 Y84.221 E5.97557 ; skirt
G1 X79.312 Y84.976 E6.03640 ; skirt
G1 X78.252 Y85.596 E6.09335 ; skirt
G1 X76.583 Y86.360 E6.17853 ; skirt
G1 X75.337 Y86.787 E6.23963 ; skirt
G1 X74.156 Y87.083 E6.29613 ; skirt
G1 X72.321 Y87.350 E6.38215 ; skirt
G1 X70.999 Y87.410 E6.44352 ; skirt
G1 X69.668 Y87.349 E6.50536 ; skirt
G1 X67.758 Y87.065 E6.59495 ; skirt
G1 X66.469 Y86.726 E6.65676 ; skirt
G1 X64.744 Y86.082 E6.74219 ; skirt
G1 X63.641 Y85.539 E6.79924 ; skirt
G1 X62.511 Y84.859 E6.86044 ; skirt
G1 X61.027 Y83.746 E6.94648 ; skirt
G1 X60.066 Y82.858 E7.00717 ; skirt
G1 X58.779 Y81.384 E7.09796 ; skirt
G1 X58.027 Y80.316 E7.15857 ; skirt
G1 X57.407 Y79.257 E7.21551 ; skirt
G1 X56.640 Y77.583 E7.30092 ; skirt
G1 X56.213 Y76.337 E7.36202 ; skirt
G1 X55.917 Y75.156 E7.41852 ; skirt
G1 X55.650 Y73.321 E7.50454 ; skirt
G1 X55.590 Y71.999 E7.56591 ; skirt
G1 X55.651 Y70.668 E7.62775 ; skirt
G1 X55.935 Y68.758 E7.71733 ; skirt
G1 X56.275 Y67.465 E7.77937 ; skirt
G1 X56.918 Y65.744 E7.86458 ; skirt
G1 X57.461 Y64.641 E7.92162 ; skirt
G1 X58.141 Y63.511 E7.98282 ; skirt
G1 X59.254 Y62.027 E8.06887 ; skirt
G1 X60.091 Y61.121 E8.12607 ; skirt
G1 X60.418 Y61.424 F6000.000 ; move to first skirt point
G1 F1200
G1 X61.896 Y60.127 E8.21728 ; skirt
G1 X62.932 Y59.398 E8.27605 ; skirt
G1 X63.950 Y58.802 E8.33076 ; skirt
G1 X65.587 Y58.052 E8.41434 ; skirt
G1 X66.789 Y57.641 E8.47328 ; skirt
G1 X67.929 Y57.356 E8.52778 ; skirt
G1 X69.721 Y57.094 E8.61181 ; skirt
G1 X71.003 Y57.036 E8.67134 ; skirt
G1 X72.288 Y57.095 E8.73098 ; skirt
G1 X74.152 Y57.372 E8.81841 ; skirt
G1 X75.394 Y57.699 E8.87801 ; skirt
G1 X77.085 Y58.331 E8.96174 ; skirt
G1 X78.144 Y58.852 E9.01651 ; skirt
G1 X79.236 Y59.509 E9.07566 ; skirt
G1 X80.688 Y60.598 E9.15984 ; skirt
G1 X81.618 Y61.457 E9.21860 ; skirt
G1 X82.873 Y62.896 E9.30715 ; skirt
G1 X83.602 Y63.932 E9.36593 ; skirt
G1 X84.198 Y64.950 E9.42064 ; skirt
G1 X84.948 Y66.587 E9.50421 ; skirt
G1 X85.359 Y67.789 E9.56316 ; skirt
G1 X85.644 Y68.925 E9.61745 ; skirt
G1 X85.906 Y70.721 E9.70169 ; skirt
G1 X85.964 Y71.999 E9.76101 ; skirt
G1 X85.906 Y73.277 E9.82035 ; skirt
G1 X85.644 Y75.072 E9.90452 ; skirt
G1 X85.360 Y76.208 E9.95887 ; skirt
G1 X84.949 Y77.410 E10.01778 ; skirt
G1 X84.197 Y79.052 E10.10158 ; skirt
G1 X83.600 Y80.071 E10.15635 ; skirt
G1 X82.873 Y81.105 E10.21501 ; skirt
G1 X81.618 Y82.543 E10.30353 ; skirt
G1 X80.691 Y83.400 E10.36213 ; skirt
G1 X79.238 Y84.490 E10.44636 ; skirt
G1 X78.146 Y85.147 E10.50549 ; skirt
G1 X77.088 Y85.668 E10.56020 ; skirt
G1 X75.396 Y86.301 E10.64405 ; skirt
G1 X74.151 Y86.629 E10.70377 ; skirt
G1 X72.283 Y86.905 E10.79135 ; skirt
G1 X71.001 Y86.964 E10.85089 ; skirt
G1 X69.723 Y86.906 E10.91023 ; skirt
G1 X67.928 Y86.644 E10.99439 ; skirt
G1 X66.792 Y86.360 E11.04875 ; skirt
G1 X65.590 Y85.949 E11.10766 ; skirt
G1 X63.948 Y85.197 E11.19145 ; skirt
G1 X62.929 Y84.600 E11.24622 ; skirt
G1 X61.895 Y83.873 E11.30489 ; skirt
G1 X60.457 Y82.618 E11.39341 ; skirt
G1 X59.600 Y81.691 E11.45201 ; skirt
G1 X58.510 Y80.238 E11.53624 ; skirt
G1 X57.853 Y79.146 E11.59537 ; skirt
G1 X57.332 Y78.088 E11.65008 ; skirt
G1 X56.699 Y76.396 E11.73392 ; skirt
G1 X56.371 Y75.151 E11.79364 ; skirt
G1 X56.095 Y73.283 E11.88123 ; skirt
G1 X56.036 Y72.001 E11.94076 ; skirt
G1 X56.095 Y70.719 E12.00031 ; skirt
G1 X56.372 Y68.848 E12.08803 ; skirt
G1 X56.699 Y67.606 E12.14764 ; skirt
G1 X57.331 Y65.915 E12.23137 ; skirt
G1 X57.852 Y64.856 E12.28614 ; skirt
G1 X58.509 Y63.764 E12.34528 ; skirt
G1 X59.598 Y62.312 E12.42947 ; skirt
G1 X60.367 Y61.479 E12.48208 ; skirt
G1 X60.695 Y61.782 F6000.000 ; move to first skirt point
G1 F1200
G1 X62.175 Y60.475 E12.57370 ; skirt
G1 X63.172 Y59.774 E12.63023 ; skirt
G1 X64.152 Y59.200 E12.68292 ; skirt
G1 X65.758 Y58.465 E12.76486 ; skirt
G1 X68.010 Y57.794 E12.87388 ; skirt
G1 X69.769 Y57.538 E12.95632 ; skirt
G1 X71.006 Y57.482 E13.01380 ; skirt
G1 X72.240 Y57.539 E13.07108 ; skirt
G1 X74.061 Y57.809 E13.15650 ; skirt
G1 X75.257 Y58.123 E13.21388 ; skirt
G1 X76.913 Y58.743 E13.29591 ; skirt
G1 X78.984 Y59.877 E13.40542 ; skirt
G1 X80.407 Y60.944 E13.48795 ; skirt
G1 X81.303 Y61.773 E13.54456 ; skirt
G1 X82.525 Y63.175 E13.63087 ; skirt
G1 X83.228 Y64.176 E13.68760 ; skirt
G1 X83.800 Y65.152 E13.74009 ; skirt
G1 X84.535 Y66.758 E13.82203 ; skirt
G1 X85.206 Y69.010 E13.93105 ; skirt
G1 X85.462 Y70.769 E14.01349 ; skirt
G1 X85.518 Y72.002 E14.07077 ; skirt
G1 X85.461 Y73.235 E14.12802 ; skirt
G1 X85.191 Y75.061 E14.21367 ; skirt
G1 X84.877 Y76.257 E14.27105 ; skirt
G1 X84.257 Y77.913 E14.35309 ; skirt
G1 X83.123 Y79.984 E14.46259 ; skirt
G1 X82.056 Y81.407 E14.54512 ; skirt
G1 X81.227 Y82.303 E14.60173 ; skirt
G1 X79.825 Y83.525 E14.68804 ; skirt
G1 X78.825 Y84.228 E14.74476 ; skirt
G1 X77.848 Y84.800 E14.79726 ; skirt
G1 X76.242 Y85.535 E14.87920 ; skirt
G1 X73.990 Y86.206 E14.98822 ; skirt
G1 X72.231 Y86.462 E15.07066 ; skirt
G1 X70.998 Y86.518 E15.12794 ; skirt
G1 X69.765 Y86.461 E15.18519 ; skirt
G1 X67.939 Y86.191 E15.27084 ; skirt
G1 X66.743 Y85.877 E15.32822 ; skirt
G1 X65.087 Y85.257 E15.41026 ; skirt
G1 X63.016 Y84.123 E15.51976 ; skirt
G1 X61.593 Y83.056 E15.60229 ; skirt
G1 X60.697 Y82.227 E15.65891 ; skirt
G1 X59.475 Y80.825 E15.74521 ; skirt
G1 X58.772 Y79.824 E15.80194 ; skirt
G1 X58.200 Y78.848 E15.85444 ; skirt
G1 X57.465 Y77.242 E15.93637 ; skirt
G1 X56.794 Y74.990 E16.04539 ; skirt
G1 X56.538 Y73.231 E16.12783 ; skirt
G1 X56.482 Y71.998 E16.18511 ; skirt
G1 X56.539 Y70.760 E16.24260 ; skirt
G1 X56.809 Y68.939 E16.32801 ; skirt
G1 X57.123 Y67.743 E16.38539 ; skirt
G1 X57.743 Y66.086 E16.46743 ; skirt
G1 X58.877 Y64.016 E16.57693 ; skirt
G1 X59.944 Y62.593 E16.65947 ; skirt
G1 X60.644 Y61.837 E16.70725 ; skirt
G1 X60.971 Y62.140 F6000.000 ; move to first skirt point
G1 F1200
G1 X61.088 Y62.013 E16.71528 ; skirt
G1 X62.455 Y60.823 E16.79934 ; skirt
G1 X63.419 Y60.146 E16.85401 ; skirt
G1 X64.355 Y59.598 E16.90433 ; skirt
G1 X65.928 Y58.877 E16.98460 ; skirt
G1 X68.092 Y58.233 E17.08935 ; skirt
G1 X69.816 Y57.982 E17.17014 ; skirt
G1 X71.005 Y57.929 E17.22539 ; skirt
G1 X72.189 Y57.982 E17.28033 ; skirt
G1 X73.967 Y58.245 E17.36374 ; skirt
G1 X75.120 Y58.548 E17.41906 ; skirt
G1 X76.742 Y59.155 E17.49941 ; skirt
G1 X78.731 Y60.245 E17.60462 ; skirt
G1 X80.123 Y61.288 E17.68530 ; skirt
G1 X80.987 Y62.088 E17.73995 ; skirt
G1 X82.177 Y63.455 E17.82401 ; skirt
G1 X82.852 Y64.416 E17.87850 ; skirt
G1 X83.402 Y65.355 E17.92900 ; skirt
G1 X84.123 Y66.928 E18.00927 ; skirt
G1 X84.767 Y69.092 E18.11402 ; skirt
G1 X85.018 Y70.816 E18.19481 ; skirt
G1 X85.071 Y72.001 E18.24988 ; skirt
G1 X85.018 Y73.188 E18.30500 ; skirt
G1 X84.755 Y74.967 E18.38841 ; skirt
G1 X84.452 Y76.120 E18.44373 ; skirt
G1 X83.845 Y77.742 E18.52408 ; skirt
G1 X82.755 Y79.731 E18.62929 ; skirt
G1 X81.712 Y81.123 E18.70997 ; skirt
G1 X80.912 Y81.987 E18.76462 ; skirt
G1 X79.545 Y83.177 E18.84868 ; skirt
G1 X78.584 Y83.852 E18.90317 ; skirt
G1 X77.645 Y84.402 E18.95366 ; skirt
G1 X76.072 Y85.123 E19.03394 ; skirt
G1 X73.908 Y85.767 E19.13869 ; skirt
G1 X72.184 Y86.018 E19.21948 ; skirt
G1 X70.999 Y86.071 E19.27455 ; skirt
G1 X69.812 Y86.018 E19.32967 ; skirt
G1 X68.033 Y85.755 E19.41308 ; skirt
G1 X66.880 Y85.452 E19.46840 ; skirt
G1 X65.258 Y84.845 E19.54874 ; skirt
G1 X63.269 Y83.755 E19.65396 ; skirt
G1 X61.877 Y82.712 E19.73464 ; skirt
G1 X61.013 Y81.912 E19.78929 ; skirt
G1 X59.823 Y80.545 E19.87335 ; skirt
G1 X59.148 Y79.584 E19.92784 ; skirt
G1 X58.598 Y78.645 E19.97834 ; skirt
G1 X57.877 Y77.072 E20.05861 ; skirt
G1 X57.233 Y74.908 E20.16336 ; skirt
G1 X56.982 Y73.184 E20.24414 ; skirt
G1 X56.929 Y71.999 E20.29922 ; skirt
G1 X56.982 Y70.812 E20.35434 ; skirt
G1 X57.245 Y69.033 E20.43775 ; skirt
G1 X57.548 Y67.880 E20.49307 ; skirt
G1 X58.155 Y66.258 E20.57342 ; skirt
G1 X59.245 Y64.269 E20.67863 ; skirt
G1 X60.288 Y62.877 E20.75931 ; skirt
G1 X60.920 Y62.195 E20.80245 ; skirt
G1 E17.20245 F3000.00000 ; retract
G92 E0 ; reset extrusion distance
G1 X75.037 Y67.045 F6000.000 ; move to first perimeter point
G1 E3.64000 F3000.00000 ; unretract
G1 F1200
G1 X77.327 Y67.045 E3.74622 ; perimeter
G1 X76.003 Y69.037 E3.85717 ; perimeter
G1 X76.722 Y70.159 E3.91895 ; perimeter
G1 X78.979 Y70.159 E4.02367 ; perimeter
G1 X79.350 Y70.201 E4.04102 ; perimeter
G1 X79.741 Y70.337 E4.06019 ; perimeter
G1 X80.056 Y70.535 E4.07747 ; perimeter
G1 X80.378 Y70.842 E4.09810 ; perimeter
G1 X80.603 Y71.199 E4.11768 ; perimeter
G1 X80.739 Y71.589 E4.13686 ; perimeter
G1 X80.785 Y72.000 E4.15603 ; perimeter
G1 X80.739 Y72.411 E4.17521 ; perimeter
G1 X80.603 Y72.801 E4.19438 ; perimeter
G1 X80.383 Y73.151 E4.21356 ; perimeter
G1 X80.091 Y73.443 E4.23273 ; perimeter
G1 X79.741 Y73.663 E4.25191 ; perimeter
G1 X79.350 Y73.799 E4.27108 ; perimeter
G1 X78.979 Y73.841 E4.28843 ; perimeter
G1 X72.781 Y73.841 E4.57596 ; perimeter
G1 X72.781 Y80.037 E4.86341 ; perimeter
G1 X72.740 Y80.409 E4.88076 ; perimeter
G1 X72.603 Y80.799 E4.89994 ; perimeter
G1 X72.384 Y81.150 E4.91913 ; perimeter
G1 X72.091 Y81.442 E4.93832 ; perimeter
G1 X71.741 Y81.663 E4.95751 ; perimeter
G1 X71.389 Y81.786 E4.97481 ; perimeter
G1 X70.948 Y81.847 E4.99545 ; perimeter
G1 X70.529 Y81.799 E5.01505 ; perimeter
G1 X70.138 Y81.663 E5.03424 ; perimeter
G1 X69.788 Y81.442 E5.05343 ; perimeter
G1 X69.496 Y81.150 E5.07262 ; perimeter
G1 X69.276 Y80.799 E5.09181 ; perimeter
G1 X69.140 Y80.409 E5.11099 ; perimeter
G1 X69.098 Y80.037 E5.12835 ; perimeter
G1 X69.099 Y78.249 E5.21129 ; perimeter
G1 X67.822 Y78.249 E5.27053 ; perimeter
G1 X67.639 Y77.934 E5.28745 ; perimeter
G1 X67.451 Y78.249 E5.30445 ; perimeter
G1 X65.198 Y78.249 E5.40900 ; perimeter
G1 X66.684 Y75.900 E5.53794 ; perimeter
G1 X66.684 Y74.351 E5.60981 ; perimeter
G1 X68.581 Y74.351 E5.69781 ; perimeter
G1 X68.581 Y75.897 E5.76950 ; perimeter
G1 X68.907 Y76.412 E5.79781 ; perimeter
G1 X69.100 Y76.356 E5.80714 ; perimeter
G1 X69.102 Y71.838 E6.01676 ; perimeter
G1 X69.176 Y71.455 E6.03486 ; perimeter
G1 X69.349 Y71.073 E6.05432 ; perimeter
G1 X69.551 Y70.785 E6.07062 ; perimeter
G1 X69.837 Y70.520 E6.08870 ; perimeter
G1 X70.172 Y70.322 E6.10679 ; perimeter
G1 X70.542 Y70.198 E6.12487 ; perimeter
G1 X70.895 Y70.159 E6.14132 ; perimeter
G1 X73.007 Y70.159 E6.23932 ; perimeter
G1 X73.724 Y69.051 E6.30053 ; perimeter
G1 X72.410 Y67.045 E6.41177 ; perimeter
G1 X74.686 Y67.045 E6.51732 ; perimeter
G1 X74.862 Y67.319 E6.53243 ; perimeter
G1 X74.997 Y67.109 E6.54404 ; perimeter
G1 X75.281 Y67.492 F6000.000 ; move to first perimeter point
G1 F1080
G1 X76.495 Y67.492 E6.60032 ; perimeter
G1 X75.471 Y69.033 E6.68616 ; perimeter
G1 X76.477 Y70.605 E6.77277 ; perimeter
G1 X78.954 Y70.605 E6.88766 ; perimeter
G1 X79.251 Y70.638 E6.90151 ; perimeter
G1 X79.546 Y70.742 E6.91602 ; perimeter
G1 X79.781 Y70.889 E6.92889 ; perimeter
G1 X80.030 Y71.127 E6.94486 ; perimeter
G1 X80.198 Y71.394 E6.95951 ; perimeter
G1 X80.301 Y71.689 E6.97402 ; perimeter
G1 X80.336 Y72.000 E6.98853 ; perimeter
G1 X80.301 Y72.311 E7.00304 ; perimeter
G1 X80.198 Y72.606 E7.01754 ; perimeter
G1 X80.032 Y72.871 E7.03205 ; perimeter
G1 X79.810 Y73.092 E7.04656 ; perimeter
G1 X79.546 Y73.258 E7.06107 ; perimeter
G1 X79.251 Y73.362 E7.07558 ; perimeter
G1 X78.954 Y73.395 E7.08943 ; perimeter
G1 X72.335 Y73.395 E7.39651 ; perimeter
G1 X72.335 Y80.013 E7.70351 ; perimeter
G1 X72.302 Y80.309 E7.71737 ; perimeter
G1 X72.199 Y80.605 E7.73189 ; perimeter
G1 X72.032 Y80.870 E7.74641 ; perimeter
G1 X71.811 Y81.091 E7.76093 ; perimeter
G1 X71.546 Y81.258 E7.77545 ; perimeter
G1 X71.284 Y81.350 E7.78833 ; perimeter
G1 X70.943 Y81.397 E7.80431 ; perimeter
G1 X70.629 Y81.361 E7.81897 ; perimeter
G1 X70.333 Y81.258 E7.83349 ; perimeter
G1 X70.068 Y81.091 E7.84801 ; perimeter
G1 X69.847 Y80.870 E7.86253 ; perimeter
G1 X69.681 Y80.605 E7.87705 ; perimeter
G1 X69.578 Y80.309 E7.89157 ; perimeter
G1 X69.545 Y80.012 E7.90543 ; perimeter
G1 X69.549 Y71.880 E8.28270 ; perimeter
G1 X69.604 Y71.591 E8.29639 ; perimeter
G1 X69.738 Y71.295 E8.31145 ; perimeter
G1 X69.889 Y71.081 E8.32359 ; perimeter
G1 X70.105 Y70.880 E8.33728 ; perimeter
G1 X70.359 Y70.730 E8.35096 ; perimeter
G1 X70.639 Y70.636 E8.36465 ; perimeter
G1 X70.919 Y70.605 E8.37775 ; perimeter
G1 X73.250 Y70.605 E8.48585 ; perimeter
G1 X74.257 Y69.050 E8.57181 ; perimeter
G1 X73.236 Y67.492 E8.65821 ; perimeter
G1 X74.442 Y67.492 E8.71415 ; perimeter
G1 X74.862 Y68.145 E8.75021 ; perimeter
G1 X75.241 Y67.555 E8.78275 ; perimeter
G1 X75.531 Y67.059 F6000.000 ; move inwards before travel
G1 E5.18275 F3000.00000 ; retract
G92 E0 ; reset extrusion distance
G1 X68.134 Y74.798 F6000.000 ; move to first perimeter point
G1 E3.64000 F3000.00000 ; unretract
G1 F600
G1 X68.134 Y76.026 E3.69699 ; perimeter
G1 X69.260 Y77.803 E3.79457 ; perimeter
G1 X68.079 Y77.803 E3.84935 ; perimeter
G1 X67.643 Y77.055 E3.88954 ; perimeter
G1 X67.198 Y77.803 E3.92994 ; perimeter
G1 X66.008 Y77.803 E3.98511 ; perimeter
G1 X67.130 Y76.030 E4.08245 ; perimeter
G1 X67.130 Y74.798 E4.13961 ; perimeter
G1 X68.059 Y74.798 E4.18271 ; perimeter
G1 X68.613 Y74.652 F6000.000 ; move inwards before travel
G1 E0.58271 F3000.00000 ; retract
G92 E0 ; reset extrusion distance
G1 X63.075 Y79.511 F6000.000 ; move to first perimeter point
G1 E3.64000 F3000.00000 ; unretract
G1 F1200
G1 X62.711 Y79.120 E3.66480 ; perimeter
G1 X62.227 Y78.516 E3.70070 ; perimeter
G1 X61.787 Y77.876 E3.73673 ; perimeter
G1 X61.444 Y77.299 E3.76785 ; perimeter
G1 X61.047 Y76.513 E3.80872 ; perimeter
G1 X60.753 Y75.797 E3.84464 ; perimeter
G1 X60.541 Y75.160 E3.87578 ; perimeter
G1 X60.318 Y74.307 E3.91667 ; perimeter
G1 X60.182 Y73.546 E3.95255 ; perimeter
G1 X60.110 Y72.878 E3.98370 ; perimeter
G1 X60.072 Y72.000 E4.02449 ; perimeter
G1 X60.110 Y71.122 E4.06527 ; perimeter
G1 X60.182 Y70.454 E4.09643 ; perimeter
G1 X60.318 Y69.693 E4.13231 ; perimeter
G1 X60.541 Y68.840 E4.17320 ; perimeter
G1 X60.753 Y68.203 E4.20434 ; perimeter
G1 X61.047 Y67.487 E4.24025 ; perimeter
G1 X61.444 Y66.701 E4.28112 ; perimeter
