; generated by Slic3r 1.34.1-prusa3d-win64 on 2017-10-13 at 19:28:09

; Buse diamètre 0,4mm
; Debit : 3,2mm3/s

; external perimeters extrusion width = 0.32mm
; perimeters extrusion width = 0.40mm
; infill extrusion width = 0.40mm
; solid infill extrusion width = 0.40mm
; top infill extrusion width = 0.32mm

M107 ; disable fan
M190 S70 ; attente chauffe plateau
M104 S195 ; préchauffe tête
G92 Z0
G1 Z10 F1500
G28 Y ; prise d'origine en Y
G28 X ; prise d'origine en X
G1 X70 Y0 F6000 ; parking
M109 S195 ; attente chauffe T0
G21 ; set units to millimeters
G90 ; use absolute coordinates
M82 ; use absolute distances for extrusion
G92 E0 ; reset extrusion distance
G1 E-3.50000 F3000.00000 ; retract
G92 E0 ; reset extrusion distance
G1 Z0.200 F6000.000 ; move to next layer (0)
G1 X50.967 Y52.191 F6000.000 ; move to first skirt point
G1 E3.52000 F3000.00000 ; unretract
G1 F1200
G1 X51.477 Y51.733 E3.54034 ; skirt
G1 X52.067 Y51.386 E3.56068 ; skirt
G1 X52.715 Y51.163 E3.58102 ; skirt
G1 X53.399 Y51.074 E3.60149 ; skirt
G1 X88.504 Y51.072 E4.64381 ; skirt
G1 X89.145 Y51.134 E4.66294 ; skirt
G1 X89.763 Y51.314 E4.68206 ; skirt
G1 X90.337 Y51.606 E4.70118 ; skirt
G1 X90.849 Y52.004 E4.72044 ; skirt
G1 X91.275 Y52.488 E4.73956 ; skirt
G1 X91.602 Y53.042 E4.75868 ; skirt
G1 X91.820 Y53.648 E4.77780 ; skirt
G1 X91.921 Y54.289 E4.79706 ; skirt
G1 X91.927 Y89.582 E5.84495 ; skirt
G1 X91.858 Y90.190 E5.86313 ; skirt
G1 X91.681 Y90.776 E5.88130 ; skirt
G1 X91.403 Y91.322 E5.89948 ; skirt
G1 X91.033 Y91.809 E5.91765 ; skirt
G1 X90.509 Y92.277 E5.93853 ; skirt
G1 X89.895 Y92.631 E5.95955 ; skirt
G1 X89.223 Y92.851 E5.98056 ; skirt
G1 X88.519 Y92.928 E6.00157 ; skirt
G1 X53.418 Y92.927 E7.04376 ; skirt
G1 X52.810 Y92.858 E7.06194 ; skirt
G1 X52.224 Y92.681 E7.08011 ; skirt
G1 X51.678 Y92.403 E7.09829 ; skirt
G1 X51.191 Y92.033 E7.11646 ; skirt
G1 X50.723 Y91.509 E7.13734 ; skirt
G1 X50.369 Y90.895 E7.15836 ; skirt
G1 X50.149 Y90.223 E7.17937 ; skirt
G1 X50.072 Y89.519 E7.20039 ; skirt
G1 X50.073 Y54.418 E8.24257 ; skirt
G1 X50.142 Y53.810 E8.26075 ; skirt
G1 X50.319 Y53.224 E8.27893 ; skirt
G1 X50.597 Y52.678 E8.29710 ; skirt
G1 X50.931 Y52.239 E8.31350 ; skirt
G1 E4.81350 F3000.00000 ; retract
G92 E0 ; reset extrusion distance
G1 X50.651 Y53.356 F6000.000 ; move to first skirt point
G1 E3.52000 F3000.00000 ; unretract
G1 F1200
G1 X51.239 Y52.423 E3.55273 ; skirt
G1 X51.697 Y52.015 E3.57095 ; skirt
G1 X52.227 Y51.706 E3.58918 ; skirt
G1 X52.808 Y51.508 E3.60740 ; skirt
G1 X53.417 Y51.430 E3.62563 ; skirt
G1 X88.504 Y51.429 E4.66740 ; skirt
G1 X89.080 Y51.485 E4.68460 ; skirt
G1 X89.636 Y51.647 E4.70180 ; skirt
G1 X90.152 Y51.912 E4.71900 ; skirt
G1 X90.609 Y52.268 E4.73620 ; skirt
G1 X90.990 Y52.704 E4.75340 ; skirt
G1 X91.283 Y53.204 E4.77060 ; skirt
G1 X91.477 Y53.749 E4.78780 ; skirt
G1 X91.566 Y54.326 E4.80513 ; skirt
G1 X91.570 Y89.564 E5.85139 ; skirt
G1 X91.349 Y90.644 E5.88412 ; skirt
G1 X90.761 Y91.577 E5.91685 ; skirt
G1 X90.289 Y91.995 E5.93559 ; skirt
G1 X89.741 Y92.309 E5.95432 ; skirt
G1 X89.141 Y92.503 E5.97306 ; skirt
G1 X88.514 Y92.571 E5.99180 ; skirt
G1 X53.436 Y92.570 E7.03331 ; skirt
G1 X52.356 Y92.349 E7.06604 ; skirt
G1 X51.423 Y91.761 E7.09877 ; skirt
G1 X51.005 Y91.289 E7.11750 ; skirt
G1 X50.691 Y90.741 E7.13624 ; skirt
G1 X50.497 Y90.141 E7.15498 ; skirt
G1 X50.429 Y89.514 E7.17371 ; skirt
G1 X50.430 Y54.436 E8.21522 ; skirt
G1 X50.639 Y53.414 E8.24617 ; skirt
G1 X50.984 Y53.485 F6000.000 ; move to first skirt point
G1 F1200
G1 X51.511 Y52.654 E8.27540 ; skirt
G1 X51.917 Y52.296 E8.29145 ; skirt
G1 X52.385 Y52.026 E8.30749 ; skirt
G1 X52.897 Y51.854 E8.32354 ; skirt
G1 X53.437 Y51.787 E8.33971 ; skirt
G1 X88.504 Y51.786 E9.38086 ; skirt
G1 X89.508 Y51.981 E9.41126 ; skirt
G1 X90.370 Y52.534 E9.44165 ; skirt
G1 X90.965 Y53.366 E9.47204 ; skirt
G1 X91.210 Y54.364 E9.50255 ; skirt
G1 X91.213 Y89.552 E10.54733 ; skirt
G1 X91.016 Y90.516 E10.57653 ; skirt
G1 X90.489 Y91.346 E10.60574 ; skirt
G1 X90.073 Y91.711 E10.62214 ; skirt
G1 X89.589 Y91.985 E10.63867 ; skirt
G1 X89.063 Y92.154 E10.65508 ; skirt
G1 X88.510 Y92.214 E10.67160 ; skirt
G1 X53.448 Y92.213 E11.71264 ; skirt
G1 X52.484 Y92.016 E11.74184 ; skirt
G1 X51.654 Y91.489 E11.77105 ; skirt
G1 X51.289 Y91.073 E11.78745 ; skirt
G1 X51.015 Y90.589 E11.80398 ; skirt
G1 X50.846 Y90.063 E11.82039 ; skirt
G1 X50.786 Y89.510 E11.83692 ; skirt
G1 X50.787 Y54.448 E12.87795 ; skirt
G1 X50.972 Y53.544 E12.90535 ; skirt
G1 E9.40535 F3000.00000 ; retract
G92 E0 ; reset extrusion distance
G1 X52.539 Y52.349 F6000.000 ; move to first skirt point
G1 E3.52000 F3000.00000 ; unretract
G1 F1200
G1 X53.451 Y52.144 E3.54774 ; skirt
G1 X88.503 Y52.143 E4.58850 ; skirt
G1 X89.380 Y52.314 E4.61503 ; skirt
G1 X90.131 Y52.799 E4.64156 ; skirt
G1 X90.647 Y53.528 E4.66809 ; skirt
G1 X90.854 Y54.398 E4.69462 ; skirt
G1 X90.856 Y89.541 E5.73808 ; skirt
G1 X90.684 Y90.384 E5.76361 ; skirt
G1 X90.219 Y91.112 E5.78926 ; skirt
G1 X89.440 Y91.661 E5.81755 ; skirt
G1 X88.508 Y91.857 E5.84585 ; skirt
G1 X53.459 Y91.856 E6.88650 ; skirt
G1 X52.616 Y91.684 E6.91203 ; skirt
G1 X51.888 Y91.219 E6.93767 ; skirt
G1 X51.339 Y90.440 E6.96597 ; skirt
G1 X51.143 Y89.508 E6.99426 ; skirt
G1 X51.144 Y54.459 E8.03491 ; skirt
G1 X51.316 Y53.616 E8.06044 ; skirt
G1 X51.781 Y52.888 E8.08609 ; skirt
G1 X52.490 Y52.383 E8.11194 ; skirt
G1 E4.61194 F3000.00000 ; retract
G92 E0 ; reset extrusion distance
G1 X87.942 Y88.942 F6000.000 ; move to first perimeter point
G1 E3.52000 F3000.00000 ; unretract
G1 F1200
G1 X54.058 Y88.942 E4.52608 ; perimeter
G1 X54.058 Y55.058 E5.53217 ; perimeter
G1 X87.942 Y55.058 E6.53825 ; perimeter
G1 X87.942 Y88.882 E7.54256 ; perimeter
G1 E4.04256 F3000.00000 ; retract
G92 E0 ; reset extrusion distance
G1 X88.299 Y89.299 F6000.000 ; move to first perimeter point
G1 E3.52000 F3000.00000 ; unretract
G1 F1080
G1 X53.700 Y89.299 E4.54729 ; perimeter
G1 X53.700 Y54.700 E5.57458 ; perimeter
G1 X88.299 Y54.700 E6.60187 ; perimeter
G1 X88.299 Y89.239 E7.62737 ; perimeter
G1 X87.913 Y89.196 F6000.000 ; move inwards before travel
G1 E4.12737 F3000.00000 ; retract
G92 E0 ; reset extrusion distance
G1 X87.800 Y55.923 F6000.000 ; move to first infill point
G1 E3.52000 F3000.00000 ; unretract
G1 F1200
G1 X87.237 Y55.361 E3.54365 ; infill
G1 X86.731 Y55.361 E3.55869 ; infill
G1 X87.639 Y56.269 E3.59686 ; infill
G1 X87.639 Y56.774 E3.61190 ; infill
G1 X86.226 Y55.361 E3.67133 ; infill
G1 X85.720 Y55.361 E3.68638 ; infill
G1 X87.639 Y57.280 E3.76708 ; infill
G1 X87.639 Y57.786 E3.78212 ; infill
G1 X85.214 Y55.361 E3.88410 ; infill
G1 X84.708 Y55.361 E3.89915 ; infill
G1 X87.639 Y58.292 E4.02240 ; infill
G1 X87.639 Y58.797 E4.03744 ; infill
G1 X84.203 Y55.361 E4.18196 ; infill
G1 X83.697 Y55.361 E4.19700 ; infill
G1 X87.639 Y59.303 E4.36280 ; infill
G1 X87.639 Y59.809 E4.37784 ; infill
G1 X83.191 Y55.361 E4.56490 ; infill
G1 X82.685 Y55.361 E4.57995 ; infill
G1 X87.639 Y60.315 E4.78828 ; infill
G1 X87.639 Y60.821 E4.80332 ; infill
G1 X82.179 Y55.361 E5.03293 ; infill
G1 X81.674 Y55.361 E5.04797 ; infill
G1 X87.639 Y61.326 E5.29886 ; infill
G1 X87.639 Y61.832 E5.31390 ; infill
G1 X81.168 Y55.361 E5.58605 ; infill
G1 X80.662 Y55.361 E5.60109 ; infill
G1 X87.639 Y62.338 E5.89452 ; infill
G1 X87.639 Y62.844 E5.90956 ; infill
G1 X80.156 Y55.361 E6.22425 ; infill
G1 X79.650 Y55.361 E6.23929 ; infill
G1 X87.639 Y63.350 E6.57526 ; infill
G1 X87.639 Y63.855 E6.59030 ; infill
G1 X79.145 Y55.361 E6.94754 ; infill
G1 X78.639 Y55.361 E6.96258 ; infill
G1 X87.639 Y64.361 E7.34109 ; infill
G1 X87.639 Y64.867 E7.35613 ; infill
G1 X78.133 Y55.361 E7.75592 ; infill
G1 X77.627 Y55.361 E7.77096 ; infill
G1 X87.639 Y65.373 E8.19201 ; infill
G1 X87.639 Y65.879 E8.20705 ; infill
G1 X77.121 Y55.361 E8.64938 ; infill
G1 X76.616 Y55.361 E8.66442 ; infill
G1 X87.639 Y66.384 E9.12802 ; infill
G1 X87.639 Y66.890 E9.14306 ; infill
G1 X76.110 Y55.361 E9.62793 ; infill
G1 X75.604 Y55.361 E9.64297 ; infill
G1 X87.639 Y67.396 E10.14911 ; infill
G1 X87.639 Y67.902 E10.16415 ; infill
G1 X75.098 Y55.361 E10.69156 ; infill
G1 X74.593 Y55.361 E10.70660 ; infill
G1 X87.639 Y68.407 E11.25529 ; infill
G1 X87.639 Y68.913 E11.27033 ; infill
G1 X74.087 Y55.361 E11.84029 ; infill
G1 X73.581 Y55.361 E11.85533 ; infill
G1 X87.639 Y69.419 E12.44655 ; infill
G1 X87.639 Y69.925 E12.46159 ; infill
G1 X73.075 Y55.361 E13.07409 ; infill
G1 X72.569 Y55.361 E13.08913 ; infill
G1 X87.639 Y70.431 E13.72291 ; infill
G1 X87.639 Y70.936 E13.73795 ; infill
G1 X72.064 Y55.361 E14.39299 ; infill
G1 X71.558 Y55.361 E14.40803 ; infill
G1 X87.639 Y71.442 E15.08434 ; infill
G1 X87.639 Y71.948 E15.09938 ; infill
G1 X71.052 Y55.361 E15.79697 ; infill
G1 X70.546 Y55.361 E15.81201 ; infill
G1 X87.639 Y72.454 E16.53087 ; infill
G1 X87.639 Y72.960 E16.54591 ; infill
G1 X70.040 Y55.361 E17.28604 ; infill
G1 X69.535 Y55.361 E17.30108 ; infill
G1 X87.639 Y73.465 E18.06248 ; infill
G1 X87.639 Y73.971 E18.07752 ; infill
G1 X69.029 Y55.361 E18.86019 ; infill
G1 X68.523 Y55.361 E18.87523 ; infill
G1 X87.639 Y74.477 E19.67918 ; infill
G1 X87.639 Y74.983 E19.69422 ; infill
G1 X68.017 Y55.361 E20.51943 ; infill
G1 X67.512 Y55.361 E20.53447 ; infill
G1 X87.639 Y75.488 E21.38096 ; infill
G1 X87.639 Y75.994 E21.39600 ; infill
G1 X67.006 Y55.361 E22.26376 ; infill
G1 X66.500 Y55.361 E22.27880 ; infill
G1 X87.639 Y76.500 E23.16783 ; infill
G1 X87.639 Y77.006 E23.18287 ; infill
G1 X65.994 Y55.361 E24.09317 ; infill
G1 X65.488 Y55.361 E24.10822 ; infill
G1 X87.639 Y77.512 E25.03979 ; infill
G1 X87.639 Y78.017 E25.05483 ; infill
G1 X64.983 Y55.361 E26.00767 ; infill
G1 X64.477 Y55.361 E26.02272 ; infill
G1 X87.639 Y78.523 E26.99683 ; infill
G1 X87.639 Y79.029 E27.01187 ; infill
G1 X63.971 Y55.361 E28.00726 ; infill
G1 X63.465 Y55.361 E28.02230 ; infill
G1 X87.639 Y79.535 E29.03896 ; infill
G1 X87.639 Y80.041 E29.05400 ; infill
G1 X62.959 Y55.361 E30.09193 ; infill
G1 X62.454 Y55.361 E30.10698 ; infill
G1 X87.639 Y80.546 E31.16618 ; infill
G1 X87.639 Y81.052 E31.18122 ; infill
G1 X61.948 Y55.361 E32.26169 ; infill
G1 X61.442 Y55.361 E32.27674 ; infill
G1 X87.639 Y81.558 E33.37848 ; infill
G1 X87.639 Y82.064 E33.39352 ; infill
G1 X60.936 Y55.361 E34.51654 ; infill
G1 X60.430 Y55.361 E34.53158 ; infill
G1 X87.639 Y82.570 E35.67587 ; infill
G1 X87.639 Y83.075 E35.69091 ; infill
G1 X59.925 Y55.361 E36.85647 ; infill
G1 X59.419 Y55.361 E36.87152 ; infill
G1 X87.639 Y83.581 E38.05835 ; infill
G1 X87.639 Y84.087 E38.07339 ; infill
G1 X58.913 Y55.361 E39.28149 ; infill
G1 X58.407 Y55.361 E39.29653 ; infill
G1 X87.639 Y84.593 E40.52591 ; infill
G1 X87.639 Y85.098 E40.54095 ; infill
G1 X57.902 Y55.361 E41.79160 ; infill
G1 X57.396 Y55.361 E41.80664 ; infill
G1 X87.639 Y85.604 E43.07856 ; infill
G1 X87.639 Y86.110 E43.09360 ; infill
G1 X56.890 Y55.361 E44.38679 ; infill
G1 X56.384 Y55.361 E44.40183 ; infill
G1 X87.639 Y86.616 E45.71630 ; infill
G1 X87.639 Y87.122 E45.73134 ; infill
G1 X55.878 Y55.361 E47.06707 ; infill
G1 X55.373 Y55.361 E47.08211 ; infill
G1 X87.639 Y87.627 E48.43912 ; infill
G1 X87.639 Y88.133 E48.45416 ; infill
G1 X54.867 Y55.361 E49.83244 ; infill
G1 X54.361 Y55.361 E49.84748 ; infill
G1 X87.639 Y88.639 E51.24702 ; infill
G1 X87.133 Y88.639 E51.26207 ; infill
G1 X54.361 Y55.867 E52.64034 ; infill
G1 X54.361 Y56.373 E52.65538 ; infill
G1 X86.627 Y88.639 E54.01238 ; infill
G1 X86.122 Y88.639 E54.02743 ; infill
G1 X54.361 Y56.878 E55.36316 ; infill
G1 X54.361 Y57.384 E55.37820 ; infill
G1 X85.616 Y88.639 E56.69266 ; infill
G1 X85.110 Y88.639 E56.70770 ; infill
G1 X54.361 Y57.890 E58.00089 ; infill
G1 X54.361 Y58.396 E58.01593 ; infill
G1 X84.604 Y88.639 E59.28785 ; infill
G1 X84.098 Y88.639 E59.30289 ; infill
G1 X54.361 Y58.902 E60.55353 ; infill
G1 X54.361 Y59.407 E60.56857 ; infill
G1 X83.593 Y88.639 E61.79795 ; infill
G1 X83.087 Y88.639 E61.81299 ; infill
G1 X54.361 Y59.913 E63.02109 ; infill
G1 X54.361 Y60.419 E63.03613 ; infill
G1 X82.581 Y88.639 E64.22296 ; infill
G1 X82.075 Y88.639 E64.23800 ; infill
G1 X54.361 Y60.925 E65.40356 ; infill
G1 X54.361 Y61.431 E65.41860 ; infill
G1 X81.569 Y88.639 E66.56289 ; infill
G1 X81.064 Y88.639 E66.57793 ; infill
G1 X54.361 Y61.936 E67.70094 ; infill
G1 X54.361 Y62.442 E67.71598 ; infill
G1 X80.558 Y88.639 E68.81773 ; infill
G1 X80.052 Y88.639 E68.83277 ; infill
G1 X54.361 Y62.948 E69.91324 ; infill
G1 X54.361 Y63.454 E69.92828 ; infill
G1 X79.546 Y88.639 E70.98748 ; infill
G1 X79.040 Y88.639 E71.00252 ; infill
G1 X54.361 Y63.960 E72.04045 ; infill
G1 X54.361 Y64.465 E72.05549 ; infill
G1 X78.535 Y88.639 E73.07215 ; infill
G1 X78.029 Y88.639 E73.08719 ; infill
G1 X54.361 Y64.971 E74.08258 ; infill
G1 X54.361 Y65.477 E74.09762 ; infill
G1 X77.523 Y88.639 E75.07173 ; infill
G1 X77.017 Y88.639 E75.08677 ; infill
G1 X54.361 Y65.983 E76.03962 ; infill
G1 X54.361 Y66.488 E76.05466 ; infill
G1 X76.512 Y88.639 E76.98623 ; infill
G1 X76.006 Y88.639 E77.00127 ; infill
G1 X54.361 Y66.994 E77.91157 ; infill
G1 X54.361 Y67.500 E77.92661 ; infill
G1 X75.500 Y88.639 E78.81564 ; infill
G1 X74.994 Y88.639 E78.83068 ; infill
G1 X54.361 Y68.006 E79.69843 ; infill
G1 X54.361 Y68.512 E79.71347 ; infill
G1 X74.488 Y88.639 E80.55996 ; infill
G1 X73.983 Y88.639 E80.57500 ; infill
G1 X54.361 Y69.017 E81.40021 ; infill
G1 X54.361 Y69.523 E81.41525 ; infill
G1 X73.477 Y88.639 E82.21919 ; infill
G1 X72.971 Y88.639 E82.23423 ; infill
G1 X54.361 Y70.029 E83.01690 ; infill
G1 X54.361 Y70.535 E83.03194 ; infill
G1 X72.465 Y88.639 E83.79334 ; infill
G1 X71.959 Y88.639 E83.80838 ; infill
G1 X54.361 Y71.041 E84.54851 ; infill
G1 X54.361 Y71.546 E84.56355 ; infill
G1 X71.454 Y88.639 E85.28240 ; infill
G1 X70.948 Y88.639 E85.29745 ; infill
G1 X54.361 Y72.052 E85.99503 ; infill
G1 X54.361 Y72.558 E86.01007 ; infill
G1 X70.442 Y88.639 E86.68638 ; infill
G1 X69.936 Y88.639 E86.70142 ; infill
G1 X54.361 Y73.064 E87.35646 ; infill
G1 X54.361 Y73.569 E87.37150 ; infill
G1 X69.431 Y88.639 E88.00527 ; infill
G1 X68.925 Y88.639 E88.02031 ; infill
G1 X54.361 Y74.075 E88.63281 ; infill
G1 X54.361 Y74.581 E88.64785 ; infill
G1 X68.419 Y88.639 E89.23907 ; infill
G1 X67.913 Y88.639 E89.25411 ; infill
G1 X54.361 Y75.087 E89.82407 ; infill
G1 X54.361 Y75.593 E89.83911 ; infill
G1 X67.407 Y88.639 E90.38779 ; infill
G1 X66.902 Y88.639 E90.40283 ; infill
G1 X54.361 Y76.098 E90.93024 ; infill
G1 X54.361 Y76.604 E90.94528 ; infill
G1 X66.396 Y88.639 E91.45142 ; infill
G1 X65.890 Y88.639 E91.46646 ; infill
G1 X54.361 Y77.110 E91.95133 ; infill
G1 X54.361 Y77.616 E91.96637 ; infill
G1 X65.384 Y88.639 E92.42996 ; infill
G1 X64.878 Y88.639 E92.44500 ; infill
G1 X54.361 Y78.122 E92.88733 ; infill
G1 X54.361 Y78.627 E92.90237 ; infill
G1 X64.373 Y88.639 E93.32342 ; infill
G1 X63.867 Y88.639 E93.33846 ; infill
G1 X54.361 Y79.133 E93.73824 ; infill
G1 X54.361 Y79.639 E93.75328 ; infill
G1 X63.361 Y88.639 E94.13179 ; infill
G1 X62.855 Y88.639 E94.14683 ; infill
G1 X54.361 Y80.145 E94.50407 ; infill
G1 X54.361 Y80.650 E94.51911 ; infill
G1 X62.350 Y88.639 E94.85507 ; infill
G1 X61.844 Y88.639 E94.87011 ; infill
G1 X54.361 Y81.156 E95.18481 ; infill
G1 X54.361 Y81.662 E95.19985 ; infill
G1 X61.338 Y88.639 E95.49327 ; infill
G1 X60.832 Y88.639 E95.50831 ; infill
G1 X54.361 Y82.168 E95.78046 ; infill
G1 X54.361 Y82.674 E95.79550 ; infill
G1 X60.326 Y88.639 E96.04638 ; infill
G1 X59.821 Y88.639 E96.06142 ; infill
G1 X54.361 Y83.179 E96.29103 ; infill
G1 X54.361 Y83.685 E96.30607 ; infill
G1 X59.315 Y88.639 E96.51440 ; infill
G1 X58.809 Y88.639 E96.52945 ; infill
G1 X54.361 Y84.191 E96.71651 ; infill
G1 X54.361 Y84.697 E96.73155 ; infill
G1 X58.303 Y88.639 E96.89734 ; infill
G1 X57.797 Y88.639 E96.91238 ; infill
G1 X54.361 Y85.203 E97.05690 ; infill
G1 X54.361 Y85.708 E97.07194 ; infill
G1 X57.292 Y88.639 E97.19519 ; infill
G1 X56.786 Y88.639 E97.21023 ; infill
G1 X54.361 Y86.214 E97.31221 ; infill
G1 X54.361 Y86.720 E97.32725 ; infill
G1 X56.280 Y88.639 E97.40796 ; infill
G1 X55.774 Y88.639 E97.42300 ; infill
G1 X54.361 Y87.226 E97.48243 ; infill
G1 X54.361 Y87.732 E97.49747 ; infill
