; generated by Slic3r 1.34.1-prusa3d-win64 on 2017-11-29 at 16:03:12

; Buse diamètre 0,5mm
; Debit : 7,5mm3/s

; external perimeters extrusion width = 0.40mm
; perimeters extrusion width = 0.50mm
; infill extrusion width = 0.50mm
; solid infill extrusion width = 0.50mm
; top infill extrusion width = 0.40mm

; external perimeters extrusion width = 0.40mm
; perimeters extrusion width = 0.50mm
; infill extrusion width = 0.50mm
; solid infill extrusion width = 0.50mm
; top infill extrusion width = 0.40mm

M107 ; disable fan
M190 S70 ; attente chauffe plateau
M104 S195 ; préchauffe tête
G92 Z0 ; définir hauteur actuelle comme 0
G0 Z10 F1500
G28 Y ; prise d'origine en Y
G28 X ; prise d'origine en X
G1 X70 Y0 F6000 ; parking
M109 S195 ; attente chauffe T0
G21 ; set units to millimeters
G90 ; use absolute coordinates
M82 ; use absolute distances for extrusion
G92 E0 ; reset extrusion distance
G1 E-3.55000 F3000.00000 ; retract
G92 E0 ; reset extrusion distance
G1 Z0.250 F6000.000 ; move to next layer (0)
G1 X6.416 Y7.077 F6000.000 ; move to first skirt point
G1 E3.57000 F3000.00000 ; unretract
G1 F1800
G1 X6.919 Y6.800 E3.59666 ; skirt
G1 X7.463 Y6.628 E3.62313 ; skirt
G1 X8.035 Y6.566 E3.64979 ; skirt
G1 X133.928 Y6.522 E9.49033 ; skirt
G1 X134.488 Y6.577 E9.51641 ; skirt
G1 X135.022 Y6.738 E9.54229 ; skirt
G1 X135.519 Y7.001 E9.56837 ; skirt
G1 X135.956 Y7.355 E9.59445 ; skirt
G1 X136.315 Y7.787 E9.62053 ; skirt
G1 X136.585 Y8.280 E9.64661 ; skirt
G1 X136.753 Y8.812 E9.67250 ; skirt
G1 X136.816 Y9.371 E9.69858 ; skirt
G1 X136.835 Y136.602 E15.60117 ; skirt
G1 X136.780 Y137.149 E15.62667 ; skirt
G1 X136.620 Y137.679 E15.65236 ; skirt
G1 X136.363 Y138.170 E15.67805 ; skirt
G1 X136.020 Y138.599 E15.70355 ; skirt
G1 X135.591 Y138.963 E15.72963 ; skirt
G1 X135.100 Y139.236 E15.75571 ; skirt
G1 X134.565 Y139.410 E15.78179 ; skirt
G1 X134.003 Y139.477 E15.80807 ; skirt
G1 X93.943 Y139.478 E17.66658 ; skirt
G1 X8.029 Y139.374 E21.65235 ; skirt
G1 X7.486 Y139.317 E21.67766 ; skirt
G1 X6.960 Y139.158 E21.70315 ; skirt
G1 X6.474 Y138.902 E21.72865 ; skirt
G1 X6.044 Y138.559 E21.75415 ; skirt
G1 X5.674 Y138.120 E21.78081 ; skirt
G1 X5.395 Y137.612 E21.80767 ; skirt
G1 X5.223 Y137.060 E21.83453 ; skirt
G1 X5.165 Y136.484 E21.86138 ; skirt
G1 X5.165 Y9.442 E27.75517 ; skirt
G1 X5.220 Y8.895 E27.78066 ; skirt
G1 X5.380 Y8.365 E27.80636 ; skirt
G1 X5.637 Y7.875 E27.83205 ; skirt
G1 X5.980 Y7.446 E27.85755 ; skirt
G1 X6.359 Y7.126 E27.88053 ; skirt
G1 E24.33053 F3000.00000 ; retract
G92 E0 ; reset extrusion distance
G1 X7.097 Y7.209 F6000.000 ; move to first skirt point
G1 E3.57000 F3000.00000 ; unretract
G1 F1800
G1 X8.040 Y7.013 E3.61470 ; skirt
G1 X133.928 Y6.968 E9.45497 ; skirt
G1 X134.854 Y7.152 E9.49879 ; skirt
G1 X135.642 Y7.673 E9.54261 ; skirt
G1 X136.175 Y8.458 E9.58661 ; skirt
G1 X136.370 Y9.382 E9.63044 ; skirt
G1 X136.389 Y136.597 E15.53228 ; skirt
G1 X136.207 Y137.512 E15.57557 ; skirt
G1 X135.697 Y138.290 E15.61869 ; skirt
G1 X134.917 Y138.829 E15.66269 ; skirt
G1 X133.987 Y139.031 E15.70686 ; skirt
G1 X93.943 Y139.032 E17.56463 ; skirt
G1 X8.035 Y138.928 E21.55010 ; skirt
G1 X7.128 Y138.744 E21.59305 ; skirt
G1 X6.351 Y138.234 E21.63617 ; skirt
G1 X5.803 Y137.432 E21.68122 ; skirt
G1 X5.611 Y136.484 E21.72610 ; skirt
G1 X5.611 Y9.447 E27.61966 ; skirt
G1 X5.793 Y8.532 E27.66295 ; skirt
G1 X6.303 Y7.755 E27.70607 ; skirt
G1 X7.035 Y7.252 E27.74729 ; skirt
G1 E24.19729 F3000.00000 ; retract
G92 E0 ; reset extrusion distance
G1 X8.754 Y97.178 F6000.000 ; move to first perimeter point
G1 E3.57000 F3000.00000 ; unretract
G1 F1800
G1 X47.361 Y97.178 E5.36109 ; perimeter
G1 X47.361 Y135.785 E7.15219 ; perimeter
G1 X8.754 Y135.785 E8.94328 ; perimeter
G1 X8.754 Y97.253 E10.73090 ; perimeter
G1 E7.18090 F3000.00000 ; retract
G92 E0 ; reset extrusion distance
G1 X8.307 Y96.731 F6000.000 ; move to first perimeter point
G1 E3.57000 F3000.00000 ; unretract
G1 F1620
G1 X47.807 Y96.731 E5.40251 ; perimeter
G1 X47.807 Y136.231 E7.23502 ; perimeter
G1 X8.307 Y136.231 E9.06753 ; perimeter
G1 X8.307 Y96.806 E10.89656 ; perimeter
G1 X8.790 Y96.861 F6000.000 ; move inwards before travel
G1 E7.34656 F3000.00000 ; retract
G92 E0 ; reset extrusion distance
G1 X8.932 Y134.702 F6000.000 ; move to first infill point
G1 E3.57000 F3000.00000 ; unretract
G1 F1800
G1 X9.636 Y135.406 E3.61632 ; infill
G1 X10.269 Y135.406 E3.64577 ; infill
G1 X9.133 Y134.269 E3.72051 ; infill
G1 X9.133 Y133.636 E3.74996 ; infill
G1 X10.902 Y135.406 E3.86635 ; infill
G1 X11.535 Y135.406 E3.89580 ; infill
G1 X9.133 Y133.003 E4.05383 ; infill
G1 X9.133 Y132.370 E4.08328 ; infill
G1 X12.168 Y135.406 E4.28295 ; infill
G1 X12.801 Y135.406 E4.31240 ; infill
G1 X9.133 Y131.738 E4.55372 ; infill
G1 X9.133 Y131.105 E4.58317 ; infill
G1 X13.434 Y135.406 E4.86613 ; infill
G1 X14.067 Y135.406 E4.89558 ; infill
G1 X9.133 Y130.472 E5.22018 ; infill
G1 X9.133 Y129.839 E5.24963 ; infill
G1 X14.700 Y135.406 E5.61588 ; infill
G1 X15.333 Y135.406 E5.64533 ; infill
G1 X9.133 Y129.206 E6.05322 ; infill
G1 X9.133 Y128.573 E6.08267 ; infill
G1 X15.966 Y135.406 E6.53220 ; infill
G1 X16.599 Y135.406 E6.56165 ; infill
G1 X9.133 Y127.940 E7.05283 ; infill
G1 X9.133 Y127.307 E7.08227 ; infill
G1 X17.232 Y135.406 E7.61510 ; infill
G1 X17.865 Y135.406 E7.64454 ; infill
G1 X9.133 Y126.674 E8.21901 ; infill
G1 X9.133 Y126.041 E8.24845 ; infill
G1 X18.498 Y135.406 E8.86456 ; infill
G1 X19.131 Y135.406 E8.89401 ; infill
G1 X9.133 Y125.408 E9.55176 ; infill
G1 X9.133 Y124.775 E9.58121 ; infill
G1 X19.764 Y135.406 E10.28060 ; infill
G1 X20.397 Y135.406 E10.31005 ; infill
G1 X9.133 Y124.142 E11.05109 ; infill
G1 X9.133 Y123.509 E11.08053 ; infill
G1 X21.030 Y135.406 E11.86321 ; infill
G1 X21.663 Y135.406 E11.89266 ; infill
G1 X9.133 Y122.876 E12.71698 ; infill
G1 X9.133 Y122.243 E12.74643 ; infill
G1 X22.296 Y135.406 E13.61240 ; infill
G1 X22.929 Y135.406 E13.64184 ; infill
G1 X9.133 Y121.610 E14.54946 ; infill
G1 X9.133 Y120.977 E14.57890 ; infill
G1 X23.562 Y135.406 E15.52816 ; infill
G1 X24.195 Y135.406 E15.55760 ; infill
G1 X9.133 Y120.344 E16.54850 ; infill
G1 X9.133 Y119.711 E16.57794 ; infill
G1 X24.828 Y135.406 E17.61048 ; infill
G1 X25.461 Y135.406 E17.63993 ; infill
G1 X9.133 Y119.078 E18.71411 ; infill
G1 X9.133 Y118.445 E18.74356 ; infill
G1 X26.094 Y135.406 E19.85939 ; infill
G1 X26.727 Y135.406 E19.88883 ; infill
G1 X9.133 Y117.812 E21.04630 ; infill
G1 X9.133 Y117.179 E21.07575 ; infill
G1 X27.360 Y135.406 E22.27486 ; infill
G1 X27.993 Y135.406 E22.30431 ; infill
G1 X9.133 Y116.546 E23.54506 ; infill
G1 X9.133 Y115.913 E23.57451 ; infill
G1 X28.625 Y135.406 E24.85691 ; infill
G1 X29.258 Y135.406 E24.88635 ; infill
G1 X9.133 Y115.280 E26.21040 ; infill
G1 X9.133 Y114.647 E26.23984 ; infill
G1 X29.891 Y135.406 E27.60553 ; infill
G1 X30.524 Y135.406 E27.63497 ; infill
G1 X9.133 Y114.014 E29.04230 ; infill
G1 X9.133 Y113.381 E29.07175 ; infill
G1 X31.157 Y135.406 E30.52072 ; infill
G1 X31.790 Y135.406 E30.55017 ; infill
G1 X9.133 Y112.748 E32.04078 ; infill
G1 X9.133 Y112.115 E32.07023 ; infill
G1 X32.423 Y135.406 E33.60248 ; infill
G1 X33.056 Y135.406 E33.63193 ; infill
G1 X9.133 Y111.482 E35.20583 ; infill
G1 X9.133 Y110.849 E35.23528 ; infill
G1 X33.689 Y135.406 E36.85082 ; infill
G1 X34.322 Y135.406 E36.88027 ; infill
G1 X9.133 Y110.216 E38.53746 ; infill
G1 X9.133 Y109.583 E38.56690 ; infill
G1 X34.955 Y135.406 E40.26573 ; infill
G1 X35.588 Y135.406 E40.29518 ; infill
G1 X9.133 Y108.951 E42.03565 ; infill
G1 X9.133 Y108.318 E42.06510 ; infill
G1 X36.221 Y135.406 E43.84721 ; infill
G1 X36.854 Y135.406 E43.87666 ; infill
G1 X9.133 Y107.685 E45.70042 ; infill
G1 X9.133 Y107.052 E45.72987 ; infill
G1 X37.487 Y135.406 E47.59527 ; infill
G1 X38.120 Y135.406 E47.62472 ; infill
G1 X9.133 Y106.419 E49.53176 ; infill
G1 X9.133 Y105.786 E49.56121 ; infill
G1 X38.753 Y135.406 E51.50990 ; infill
G1 X39.386 Y135.406 E51.53934 ; infill
G1 X9.133 Y105.153 E53.52968 ; infill
G1 X9.133 Y104.520 E53.55912 ; infill
G1 X40.019 Y135.406 E55.59110 ; infill
G1 X40.652 Y135.406 E55.62054 ; infill
G1 X9.133 Y103.887 E57.69416 ; infill
G1 X9.133 Y103.254 E57.72361 ; infill
G1 X41.285 Y135.406 E59.83887 ; infill
G1 X41.918 Y135.406 E59.86832 ; infill
G1 X9.133 Y102.621 E62.02522 ; infill
G1 X9.133 Y101.988 E62.05467 ; infill
G1 X42.551 Y135.406 E64.25322 ; infill
G1 X43.184 Y135.406 E64.28266 ; infill
G1 X9.133 Y101.355 E66.52285 ; infill
G1 X9.133 Y100.722 E66.55230 ; infill
G1 X43.817 Y135.406 E68.83413 ; infill
G1 X44.450 Y135.406 E68.86358 ; infill
G1 X9.133 Y100.089 E71.18706 ; infill
G1 X9.133 Y99.456 E71.21650 ; infill
G1 X45.083 Y135.406 E73.58162 ; infill
G1 X45.716 Y135.406 E73.61107 ; infill
G1 X9.133 Y98.823 E76.01783 ; infill
G1 X9.133 Y98.190 E76.04728 ; infill
G1 X46.349 Y135.406 E78.49569 ; infill
G1 X46.982 Y135.406 E78.52513 ; infill
G1 X9.133 Y97.557 E81.01518 ; infill
G1 X9.766 Y97.557 E81.04463 ; infill
G1 X46.982 Y134.773 E83.49303 ; infill
G1 X46.982 Y134.140 E83.52248 ; infill
G1 X10.399 Y97.557 E85.92924 ; infill
G1 X11.032 Y97.557 E85.95869 ; infill
G1 X46.982 Y133.507 E88.32381 ; infill
G1 X46.982 Y132.874 E88.35326 ; infill
G1 X11.665 Y97.557 E90.67673 ; infill
G1 X12.298 Y97.557 E90.70618 ; infill
G1 X46.982 Y132.241 E92.98801 ; infill
G1 X46.982 Y131.608 E93.01746 ; infill
G1 X12.931 Y97.557 E95.25765 ; infill
G1 X13.564 Y97.557 E95.28709 ; infill
G1 X46.982 Y130.975 E97.48564 ; infill
G1 X46.982 Y130.342 E97.51509 ; infill
G1 X14.197 Y97.557 E99.67199 ; infill
G1 X14.830 Y97.557 E99.70144 ; infill
G1 X46.982 Y129.709 E101.81670 ; infill
G1 X46.982 Y129.076 E101.84615 ; infill
G1 X15.463 Y97.557 E103.91976 ; infill
G1 X16.096 Y97.557 E103.94921 ; infill
G1 X46.982 Y128.443 E105.98118 ; infill
G1 X46.982 Y127.810 E106.01063 ; infill
G1 X16.729 Y97.557 E108.00096 ; infill
G1 X17.362 Y97.557 E108.03041 ; infill
G1 X46.982 Y127.177 E109.97910 ; infill
G1 X46.982 Y126.544 E110.00854 ; infill
G1 X17.995 Y97.557 E111.91559 ; infill
G1 X18.628 Y97.557 E111.94503 ; infill
G1 X46.982 Y125.911 E113.81044 ; infill
G1 X46.982 Y125.278 E113.83988 ; infill
G1 X19.261 Y97.557 E115.66364 ; infill
G1 X19.894 Y97.557 E115.69309 ; infill
G1 X46.982 Y124.645 E117.47520 ; infill
G1 X46.982 Y124.012 E117.50465 ; infill
G1 X20.527 Y97.557 E119.24512 ; infill
G1 X21.160 Y97.557 E119.27457 ; infill
G1 X46.982 Y123.379 E120.97340 ; infill
G1 X46.982 Y122.746 E121.00284 ; infill
G1 X21.793 Y97.557 E122.66003 ; infill
G1 X22.426 Y97.557 E122.68948 ; infill
G1 X46.982 Y122.113 E124.30502 ; infill
G1 X46.982 Y121.480 E124.33447 ; infill
G1 X23.059 Y97.557 E125.90837 ; infill
G1 X23.691 Y97.557 E125.93781 ; infill
G1 X46.982 Y120.847 E127.47007 ; infill
G1 X46.982 Y120.214 E127.49952 ; infill
G1 X24.324 Y97.557 E128.99013 ; infill
G1 X24.957 Y97.557 E129.01958 ; infill
G1 X46.982 Y119.581 E130.46855 ; infill
G1 X46.982 Y118.948 E130.49799 ; infill
G1 X25.590 Y97.557 E131.90532 ; infill
G1 X26.223 Y97.557 E131.93477 ; infill
G1 X46.982 Y118.315 E133.30045 ; infill
G1 X46.982 Y117.682 E133.32990 ; infill
G1 X26.856 Y97.557 E134.65394 ; infill
G1 X27.489 Y97.557 E134.68339 ; infill
G1 X46.982 Y117.049 E135.96578 ; infill
G1 X46.982 Y116.416 E135.99523 ; infill
G1 X28.122 Y97.557 E137.23599 ; infill
G1 X28.755 Y97.557 E137.26543 ; infill
G1 X46.982 Y115.783 E138.46454 ; infill
G1 X46.982 Y115.150 E138.49399 ; infill
G1 X29.388 Y97.557 E139.65146 ; infill
G1 X30.021 Y97.557 E139.68090 ; infill
G1 X46.982 Y114.517 E140.79673 ; infill
G1 X46.982 Y113.884 E140.82618 ; infill
G1 X30.654 Y97.557 E141.90036 ; infill
G1 X31.287 Y97.557 E141.92981 ; infill
G1 X46.982 Y113.252 E142.96234 ; infill
G1 X46.982 Y112.619 E142.99179 ; infill
G1 X31.920 Y97.557 E143.98269 ; infill
G1 X32.553 Y97.557 E144.01213 ; infill
G1 X46.982 Y111.986 E144.96139 ; infill
G1 X46.982 Y111.353 E144.99083 ; infill
G1 X33.186 Y97.557 E145.89844 ; infill
G1 X33.819 Y97.557 E145.92789 ; infill
G1 X46.982 Y110.720 E146.79386 ; infill
G1 X46.982 Y110.087 E146.82330 ; infill
G1 X34.452 Y97.557 E147.64763 ; infill
G1 X35.085 Y97.557 E147.67707 ; infill
G1 X46.982 Y109.454 E148.45975 ; infill
G1 X46.982 Y108.821 E148.48920 ; infill
G1 X35.718 Y97.557 E149.23024 ; infill
G1 X36.351 Y97.557 E149.25968 ; infill
G1 X46.982 Y108.188 E149.95908 ; infill
G1 X46.982 Y107.555 E149.98852 ; infill
G1 X36.984 Y97.557 E150.64627 ; infill
G1 X37.617 Y97.557 E150.67572 ; infill
G1 X46.982 Y106.922 E151.29183 ; infill
G1 X46.982 Y106.289 E151.32127 ; infill
G1 X38.250 Y97.557 E151.89574 ; infill
G1 X38.883 Y97.557 E151.92519 ; infill
G1 X46.982 Y105.656 E152.45801 ; infill
G1 X46.982 Y105.023 E152.48745 ; infill
G1 X39.516 Y97.557 E152.97863 ; infill
G1 X40.149 Y97.557 E153.00808 ; infill
G1 X46.982 Y104.390 E153.45761 ; infill
G1 X46.982 Y103.757 E153.48706 ; infill
G1 X40.782 Y97.557 E153.89495 ; infill
G1 X41.415 Y97.557 E153.92440 ; infill
G1 X46.982 Y103.124 E154.29065 ; infill
G1 X46.982 Y102.491 E154.32009 ; infill
G1 X42.048 Y97.557 E154.64470 ; infill
G1 X42.681 Y97.557 E154.67415 ; infill
G1 X46.982 Y101.858 E154.95711 ; infill
G1 X46.982 Y101.225 E154.98656 ; infill
G1 X43.314 Y97.557 E155.22788 ; infill
G1 X43.947 Y97.557 E155.25732 ; infill
G1 X46.982 Y100.592 E155.45700 ; infill
G1 X46.982 Y99.959 E155.48644 ; infill
G1 X44.580 Y97.557 E155.64448 ; infill
G1 X45.213 Y97.557 E155.67392 ; infill
G1 X46.982 Y99.326 E155.79032 ; infill
G1 X46.982 Y98.693 E155.81976 ; infill
G1 X45.846 Y97.557 E155.89451 ; infill
G1 X46.478 Y97.557 E155.92395 ; infill
G1 X47.183 Y98.261 E155.97027 ; infill
G1 E152.42027 F3000.00000 ; retract
G92 E0 ; reset extrusion distance
G1 X94.639 Y97.282 F6000.000 ; move to first perimeter point
G1 E3.57000 F3000.00000 ; unretract
G1 F1800
G1 X133.246 Y97.282 E5.36109 ; perimeter
G1 X133.246 Y135.889 E7.15219 ; perimeter
G1 X94.639 Y135.889 E8.94328 ; perimeter
G1 X94.639 Y97.357 E10.73090 ; perimeter
G1 E7.18090 F3000.00000 ; retract
G92 E0 ; reset extrusion distance
G1 X94.193 Y96.835 F6000.000 ; move to first perimeter point
G1 E3.57000 F3000.00000 ; unretract
G1 F1620
G1 X133.693 Y96.835 E5.40251 ; perimeter
G1 X133.693 Y136.335 E7.23502 ; perimeter
G1 X94.193 Y136.335 E9.06753 ; perimeter
G1 X94.193 Y96.910 E10.89656 ; perimeter
G1 X94.676 Y96.965 F6000.000 ; move inwards before travel
G1 E7.34656 F3000.00000 ; retract
G92 E0 ; reset extrusion distance
G1 X94.817 Y134.806 F6000.000 ; move to first infill point
G1 E3.57000 F3000.00000 ; unretract
G1 F1800
G1 X95.522 Y135.510 E3.61632 ; infill
G1 X96.154 Y135.510 E3.64577 ; infill
G1 X95.018 Y134.373 E3.72051 ; infill
G1 X95.018 Y133.741 E3.74996 ; infill
G1 X96.787 Y135.510 E3.86635 ; infill
G1 X97.420 Y135.510 E3.89580 ; infill
G1 X95.018 Y133.108 E4.05383 ; infill
G1 X95.018 Y132.475 E4.08328 ; infill
G1 X98.053 Y135.510 E4.28295 ; infill
G1 X98.686 Y135.510 E4.31240 ; infill
G1 X95.018 Y131.842 E4.55372 ; infill
G1 X95.018 Y131.209 E4.58317 ; infill
G1 X99.319 Y135.510 E4.86613 ; infill
G1 X99.952 Y135.510 E4.89558 ; infill
G1 X95.018 Y130.576 E5.22018 ; infill
G1 X95.018 Y129.943 E5.24963 ; infill
G1 X100.585 Y135.510 E5.61588 ; infill
G1 X101.218 Y135.510 E5.64533 ; infill
G1 X95.018 Y129.310 E6.05322 ; infill
G1 X95.018 Y128.677 E6.08267 ; infill
G1 X101.851 Y135.510 E6.53220 ; infill
G1 X102.484 Y135.510 E6.56165 ; infill
G1 X95.018 Y128.044 E7.05283 ; infill
G1 X95.018 Y127.411 E7.08227 ; infill
G1 X103.117 Y135.510 E7.61510 ; infill
G1 X103.750 Y135.510 E7.64454 ; infill
G1 X95.018 Y126.778 E8.21901 ; infill
G1 X95.018 Y126.145 E8.24845 ; infill
G1 X104.383 Y135.510 E8.86456 ; infill
G1 X105.016 Y135.510 E8.89401 ; infill
G1 X95.018 Y125.512 E9.55176 ; infill
G1 X95.018 Y124.879 E9.58121 ; infill
G1 X105.649 Y135.510 E10.28060 ; infill
G1 X106.282 Y135.510 E10.31005 ; infill
G1 X95.018 Y124.246 E11.05109 ; infill
G1 X95.018 Y123.613 E11.08053 ; infill
G1 X106.915 Y135.510 E11.86321 ; infill
G1 X107.548 Y135.510 E11.89266 ; infill
G1 X95.018 Y122.980 E12.71698 ; infill
G1 X95.018 Y122.347 E12.74643 ; infill
G1 X108.181 Y135.510 E13.61240 ; infill
