; generated by Slic3r 1.34.1-prusa3d-win64 on 2017-10-20 at 10:21:22

; Buse diamètre 0,4mm
; Debit : 3,2mm3/s

; external perimeters extrusion width = 0.32mm
; perimeters extrusion width = 0.40mm
; infill extrusion width = 0.40mm
; solid infill extrusion width = 0.40mm
; top infill extrusion width = 0.32mm

M107 ; disable fan
M190 S70 ; attente chauffe plateau
M104 S195 ; préchauffe tête
G92 Z0
G0 Z10 F1500
G28 Y ; prise d'origine en Y
G28 X ; prise d'origine en X
G1 X70 Y0 F6000 ; parking
M109 S195 ; attente chauffe T0
G21 ; set units to millimeters
G90 ; use absolute coordinates
M82 ; use absolute distances for extrusion
G92 E0 ; reset extrusion distance
G1 E-3.50000 F3000.00000 ; retract
G92 E0 ; reset extrusion distance
G1 Z0.200 F6000.000 ; move to next layer (0)
G1 X7.418 Y8.713 F6000.000 ; move to first skirt point
G1 E3.52000 F3000.00000 ; unretract
G1 F1200
G1 X7.975 Y7.854 E3.55039 ; skirt
G1 X8.386 Y7.503 E3.56644 ; skirt
G1 X8.862 Y7.239 E3.58260 ; skirt
G1 X9.378 Y7.077 E3.59865 ; skirt
G1 X9.915 Y7.019 E3.61470 ; skirt
G1 X132.071 Y6.975 E7.24166 ; skirt
G1 X132.596 Y7.027 E7.25734 ; skirt
G1 X133.098 Y7.178 E7.27291 ; skirt
G1 X133.562 Y7.424 E7.28847 ; skirt
G1 X133.972 Y7.756 E7.30416 ; skirt
G1 X134.308 Y8.158 E7.31972 ; skirt
G1 X134.562 Y8.622 E7.33541 ; skirt
G1 X134.722 Y9.125 E7.35109 ; skirt
G1 X134.781 Y9.650 E7.36678 ; skirt
G1 X134.736 Y134.329 E11.06864 ; skirt
G1 X134.537 Y135.333 E11.09904 ; skirt
G1 X133.980 Y136.191 E11.12943 ; skirt
G1 X133.565 Y136.544 E11.14559 ; skirt
G1 X133.088 Y136.807 E11.16176 ; skirt
G1 X132.568 Y136.970 E11.17793 ; skirt
G1 X132.022 Y137.025 E11.19423 ; skirt
G1 X9.916 Y136.981 E14.81973 ; skirt
G1 X8.912 Y136.781 E14.85012 ; skirt
G1 X8.053 Y136.224 E14.88051 ; skirt
G1 X7.700 Y135.809 E14.89668 ; skirt
G1 X7.437 Y135.333 E14.91285 ; skirt
G1 X7.275 Y134.813 E14.92901 ; skirt
G1 X7.219 Y134.267 E14.94532 ; skirt
G1 X7.219 Y9.717 E18.64335 ; skirt
G1 X7.407 Y8.772 E18.67196 ; skirt
G1 E15.17196 F3000.00000 ; retract
G92 E0 ; reset extrusion distance
G1 X9.003 Y7.568 F6000.000 ; move to first skirt point
G1 E3.52000 F3000.00000 ; unretract
G1 F1200
G1 X9.918 Y7.376 E3.54774 ; skirt
G1 X132.070 Y7.332 E7.17462 ; skirt
G1 X132.962 Y7.508 E7.20159 ; skirt
G1 X133.722 Y8.011 E7.22867 ; skirt
G1 X134.235 Y8.765 E7.25576 ; skirt
G1 X134.424 Y9.658 E7.28284 ; skirt
G1 X134.379 Y134.324 E10.98432 ; skirt
G1 X134.207 Y135.197 E11.01074 ; skirt
G1 X133.720 Y135.946 E11.03727 ; skirt
G1 X132.944 Y136.480 E11.06524 ; skirt
G1 X132.022 Y136.668 E11.09318 ; skirt
G1 X9.921 Y136.624 E14.71854 ; skirt
G1 X9.048 Y136.451 E14.74495 ; skirt
G1 X8.298 Y135.965 E14.77148 ; skirt
G1 X7.766 Y135.192 E14.79934 ; skirt
G1 X7.576 Y134.270 E14.82730 ; skirt
G1 X7.576 Y9.722 E18.52529 ; skirt
G1 X7.748 Y8.849 E18.55171 ; skirt
G1 X8.235 Y8.099 E18.57823 ; skirt
G1 X8.954 Y7.602 E18.60420 ; skirt
G1 E15.10420 F3000.00000 ; retract
G92 E0 ; reset extrusion distance
G1 X10.490 Y94.824 F6000.000 ; move to first perimeter point
G1 E3.52000 F3000.00000 ; unretract
G1 F1200
G1 X49.376 Y94.824 E4.67457 ; perimeter
G1 X49.376 Y133.710 E5.82914 ; perimeter
G1 X10.490 Y133.710 E6.98371 ; perimeter
G1 X10.490 Y94.884 E8.13650 ; perimeter
G1 E4.63650 F3000.00000 ; retract
G92 E0 ; reset extrusion distance
G1 X10.133 Y94.467 F6000.000 ; move to first perimeter point
G1 E3.52000 F3000.00000 ; unretract
G1 F1080
G1 X49.733 Y94.467 E4.69578 ; perimeter
G1 X49.733 Y134.067 E5.87155 ; perimeter
G1 X10.133 Y134.067 E7.04733 ; perimeter
G1 X10.133 Y94.527 E8.22132 ; perimeter
G1 X10.520 Y94.570 F6000.000 ; move inwards before travel
G1 E4.72132 F3000.00000 ; retract
G92 E0 ; reset extrusion distance
G1 X10.633 Y132.845 F6000.000 ; move to first infill point
G1 E3.52000 F3000.00000 ; unretract
G1 F1200
G1 X11.194 Y133.406 E3.54357 ; infill
G1 X11.700 Y133.406 E3.55857 ; infill
G1 X10.794 Y132.500 E3.59660 ; infill
G1 X10.794 Y131.995 E3.61159 ; infill
G1 X12.205 Y133.406 E3.67083 ; infill
G1 X12.710 Y133.406 E3.68583 ; infill
G1 X10.794 Y131.490 E3.76628 ; infill
G1 X10.794 Y130.985 E3.78127 ; infill
G1 X13.215 Y133.406 E3.88293 ; infill
G1 X13.720 Y133.406 E3.89793 ; infill
G1 X10.794 Y130.480 E4.02080 ; infill
G1 X10.794 Y129.975 E4.03579 ; infill
G1 X14.225 Y133.406 E4.17987 ; infill
G1 X14.730 Y133.406 E4.19487 ; infill
G1 X10.794 Y129.470 E4.36015 ; infill
G1 X10.794 Y128.965 E4.37515 ; infill
G1 X15.235 Y133.406 E4.56164 ; infill
G1 X15.740 Y133.406 E4.57664 ; infill
G1 X10.794 Y128.460 E4.78434 ; infill
G1 X10.794 Y127.955 E4.79934 ; infill
G1 X16.245 Y133.406 E5.02825 ; infill
G1 X16.750 Y133.406 E5.04325 ; infill
G1 X10.794 Y127.450 E5.29337 ; infill
G1 X10.794 Y126.945 E5.30837 ; infill
G1 X17.255 Y133.406 E5.57970 ; infill
G1 X17.760 Y133.406 E5.59469 ; infill
G1 X10.794 Y126.440 E5.88723 ; infill
G1 X10.794 Y125.935 E5.90223 ; infill
G1 X18.265 Y133.406 E6.21598 ; infill
G1 X18.770 Y133.406 E6.23098 ; infill
G1 X10.794 Y125.430 E6.56593 ; infill
G1 X10.794 Y124.925 E6.58093 ; infill
G1 X19.275 Y133.406 E6.93710 ; infill
G1 X19.780 Y133.406 E6.95209 ; infill
G1 X10.794 Y124.420 E7.32947 ; infill
G1 X10.794 Y123.915 E7.34447 ; infill
G1 X20.285 Y133.406 E7.74305 ; infill
G1 X20.790 Y133.406 E7.75805 ; infill
G1 X10.794 Y123.410 E8.17784 ; infill
G1 X10.794 Y122.905 E8.19284 ; infill
G1 X21.295 Y133.406 E8.63384 ; infill
G1 X21.800 Y133.406 E8.64884 ; infill
G1 X10.794 Y122.400 E9.11105 ; infill
G1 X10.794 Y121.895 E9.12605 ; infill
G1 X22.305 Y133.406 E9.60947 ; infill
G1 X22.810 Y133.406 E9.62447 ; infill
G1 X10.794 Y121.390 E10.12910 ; infill
G1 X10.794 Y120.884 E10.14410 ; infill
G1 X23.316 Y133.406 E10.66993 ; infill
G1 X23.821 Y133.406 E10.68493 ; infill
G1 X10.794 Y120.379 E11.23198 ; infill
G1 X10.794 Y119.874 E11.24698 ; infill
G1 X24.326 Y133.406 E11.81524 ; infill
G1 X24.831 Y133.406 E11.83023 ; infill
G1 X10.794 Y119.369 E12.41970 ; infill
G1 X10.794 Y118.864 E12.43470 ; infill
G1 X25.336 Y133.406 E13.04537 ; infill
G1 X25.841 Y133.406 E13.06037 ; infill
G1 X10.794 Y118.359 E13.69225 ; infill
G1 X10.794 Y117.854 E13.70725 ; infill
G1 X26.346 Y133.406 E14.36035 ; infill
G1 X26.851 Y133.406 E14.37534 ; infill
G1 X10.794 Y117.349 E15.04965 ; infill
G1 X10.794 Y116.844 E15.06464 ; infill
G1 X27.356 Y133.406 E15.76016 ; infill
G1 X27.861 Y133.406 E15.77515 ; infill
G1 X10.794 Y116.339 E16.49187 ; infill
G1 X10.794 Y115.834 E16.50687 ; infill
G1 X28.366 Y133.406 E17.24480 ; infill
G1 X28.871 Y133.406 E17.25980 ; infill
G1 X10.794 Y115.329 E18.01894 ; infill
G1 X10.794 Y114.824 E18.03394 ; infill
G1 X29.376 Y133.406 E18.81428 ; infill
G1 X29.881 Y133.406 E18.82928 ; infill
G1 X10.794 Y114.319 E19.63084 ; infill
G1 X10.794 Y113.814 E19.64584 ; infill
G1 X30.386 Y133.406 E20.46860 ; infill
G1 X30.891 Y133.406 E20.48360 ; infill
G1 X10.794 Y113.309 E21.32758 ; infill
G1 X10.794 Y112.804 E21.34257 ; infill
G1 X31.396 Y133.406 E22.20776 ; infill
G1 X31.901 Y133.406 E22.22276 ; infill
G1 X10.794 Y112.299 E23.10915 ; infill
G1 X10.794 Y111.794 E23.12415 ; infill
G1 X32.406 Y133.406 E24.03175 ; infill
G1 X32.911 Y133.406 E24.04675 ; infill
G1 X10.794 Y111.289 E24.97556 ; infill
G1 X10.794 Y110.784 E24.99056 ; infill
G1 X33.416 Y133.406 E25.94058 ; infill
G1 X33.921 Y133.406 E25.95558 ; infill
G1 X10.794 Y110.279 E26.92681 ; infill
G1 X10.794 Y109.774 E26.94181 ; infill
G1 X34.426 Y133.406 E27.93424 ; infill
G1 X34.932 Y133.406 E27.94924 ; infill
G1 X10.794 Y109.268 E28.96289 ; infill
G1 X10.794 Y108.763 E28.97789 ; infill
G1 X35.437 Y133.406 E30.01275 ; infill
G1 X35.942 Y133.406 E30.02774 ; infill
G1 X10.794 Y108.258 E31.08381 ; infill
G1 X10.794 Y107.753 E31.09881 ; infill
G1 X36.447 Y133.406 E32.17608 ; infill
G1 X36.952 Y133.406 E32.19108 ; infill
G1 X10.794 Y107.248 E33.28957 ; infill
G1 X10.794 Y106.743 E33.30456 ; infill
G1 X37.457 Y133.406 E34.42426 ; infill
G1 X37.962 Y133.406 E34.43926 ; infill
G1 X10.794 Y106.238 E35.58016 ; infill
G1 X10.794 Y105.733 E35.59516 ; infill
G1 X38.467 Y133.406 E36.75727 ; infill
G1 X38.972 Y133.406 E36.77227 ; infill
G1 X10.794 Y105.228 E37.95559 ; infill
G1 X10.794 Y104.723 E37.97058 ; infill
G1 X39.477 Y133.406 E39.17512 ; infill
G1 X39.982 Y133.406 E39.19011 ; infill
G1 X10.794 Y104.218 E40.41585 ; infill
G1 X10.794 Y103.713 E40.43085 ; infill
G1 X40.487 Y133.406 E41.67780 ; infill
G1 X40.992 Y133.406 E41.69280 ; infill
G1 X10.794 Y103.208 E42.96095 ; infill
G1 X10.794 Y102.703 E42.97595 ; infill
G1 X41.497 Y133.406 E44.26532 ; infill
G1 X42.002 Y133.406 E44.28032 ; infill
G1 X10.794 Y102.198 E45.59089 ; infill
G1 X10.794 Y101.693 E45.60589 ; infill
G1 X42.507 Y133.406 E46.93768 ; infill
G1 X43.012 Y133.406 E46.95267 ; infill
G1 X10.794 Y101.188 E48.30567 ; infill
G1 X10.794 Y100.683 E48.32066 ; infill
G1 X43.517 Y133.406 E49.69487 ; infill
G1 X44.022 Y133.406 E49.70987 ; infill
G1 X10.794 Y100.178 E51.10528 ; infill
G1 X10.794 Y99.673 E51.12028 ; infill
G1 X44.527 Y133.406 E52.53690 ; infill
G1 X45.032 Y133.406 E52.55189 ; infill
G1 X10.794 Y99.168 E53.98973 ; infill
G1 X10.794 Y98.663 E54.00472 ; infill
G1 X45.537 Y133.406 E55.46376 ; infill
G1 X46.042 Y133.406 E55.47876 ; infill
G1 X10.794 Y98.158 E56.95901 ; infill
G1 X10.794 Y97.652 E56.97401 ; infill
G1 X46.548 Y133.406 E58.47547 ; infill
G1 X47.053 Y133.406 E58.49046 ; infill
G1 X10.794 Y97.147 E60.01313 ; infill
G1 X10.794 Y96.642 E60.02813 ; infill
G1 X47.558 Y133.406 E61.57200 ; infill
G1 X48.063 Y133.406 E61.58700 ; infill
G1 X10.794 Y96.137 E63.15209 ; infill
G1 X10.794 Y95.632 E63.16708 ; infill
G1 X48.568 Y133.406 E64.75338 ; infill
G1 X49.073 Y133.406 E64.76838 ; infill
G1 X10.794 Y95.127 E66.37588 ; infill
G1 X11.299 Y95.127 E66.39088 ; infill
G1 X49.073 Y132.901 E67.97717 ; infill
G1 X49.073 Y132.396 E67.99217 ; infill
G1 X11.804 Y95.127 E69.55726 ; infill
G1 X12.309 Y95.127 E69.57225 ; infill
G1 X49.073 Y131.891 E71.11613 ; infill
G1 X49.073 Y131.386 E71.13113 ; infill
G1 X12.814 Y95.127 E72.65379 ; infill
G1 X13.319 Y95.127 E72.66879 ; infill
G1 X49.073 Y130.881 E74.17025 ; infill
G1 X49.073 Y130.376 E74.18525 ; infill
G1 X13.824 Y95.127 E75.66550 ; infill
G1 X14.329 Y95.127 E75.68049 ; infill
G1 X49.073 Y129.871 E77.13954 ; infill
G1 X49.073 Y129.366 E77.15453 ; infill
G1 X14.834 Y95.127 E78.59236 ; infill
G1 X15.339 Y95.127 E78.60736 ; infill
G1 X49.073 Y128.861 E80.02398 ; infill
G1 X49.073 Y128.356 E80.03898 ; infill
G1 X15.844 Y95.127 E81.43439 ; infill
G1 X16.349 Y95.127 E81.44939 ; infill
G1 X49.073 Y127.851 E82.82360 ; infill
G1 X49.073 Y127.346 E82.83859 ; infill
G1 X16.854 Y95.127 E84.19159 ; infill
G1 X17.359 Y95.127 E84.20658 ; infill
G1 X49.073 Y126.841 E85.53837 ; infill
G1 X49.073 Y126.335 E85.55337 ; infill
G1 X17.865 Y95.127 E86.86394 ; infill
G1 X18.370 Y95.127 E86.87894 ; infill
G1 X49.073 Y125.830 E88.16831 ; infill
G1 X49.073 Y125.325 E88.18331 ; infill
G1 X18.875 Y95.127 E89.45147 ; infill
G1 X19.380 Y95.127 E89.46646 ; infill
G1 X49.073 Y124.820 E90.71341 ; infill
G1 X49.073 Y124.315 E90.72841 ; infill
G1 X19.885 Y95.127 E91.95415 ; infill
G1 X20.390 Y95.127 E91.96915 ; infill
G1 X49.073 Y123.810 E93.17368 ; infill
G1 X49.073 Y123.305 E93.18867 ; infill
G1 X20.895 Y95.127 E94.37200 ; infill
G1 X21.400 Y95.127 E94.38699 ; infill
G1 X49.073 Y122.800 E95.54911 ; infill
G1 X49.073 Y122.295 E95.56410 ; infill
G1 X21.905 Y95.127 E96.70501 ; infill
G1 X22.410 Y95.127 E96.72001 ; infill
G1 X49.073 Y121.790 E97.83970 ; infill
G1 X49.073 Y121.285 E97.85470 ; infill
G1 X22.915 Y95.127 E98.95318 ; infill
G1 X23.420 Y95.127 E98.96818 ; infill
G1 X49.073 Y120.780 E100.04546 ; infill
G1 X49.073 Y120.275 E100.06045 ; infill
G1 X23.925 Y95.127 E101.11652 ; infill
G1 X24.430 Y95.127 E101.13152 ; infill
G1 X49.073 Y119.770 E102.16638 ; infill
G1 X49.073 Y119.265 E102.18137 ; infill
G1 X24.935 Y95.127 E103.19502 ; infill
G1 X25.440 Y95.127 E103.21002 ; infill
G1 X49.073 Y118.760 E104.20246 ; infill
G1 X49.073 Y118.255 E104.21746 ; infill
G1 X25.945 Y95.127 E105.18869 ; infill
G1 X26.450 Y95.127 E105.20369 ; infill
G1 X49.073 Y117.750 E106.15371 ; infill
G1 X49.073 Y117.245 E106.16871 ; infill
G1 X26.955 Y95.127 E107.09752 ; infill
G1 X27.460 Y95.127 E107.11252 ; infill
G1 X49.073 Y116.740 E108.02012 ; infill
G1 X49.073 Y116.235 E108.03512 ; infill
G1 X27.965 Y95.127 E108.92151 ; infill
G1 X28.470 Y95.127 E108.93651 ; infill
G1 X49.073 Y115.730 E109.80169 ; infill
G1 X49.073 Y115.225 E109.81669 ; infill
G1 X28.975 Y95.127 E110.66067 ; infill
G1 X29.481 Y95.127 E110.67566 ; infill
G1 X49.073 Y114.719 E111.49843 ; infill
G1 X49.073 Y114.214 E111.51343 ; infill
G1 X29.986 Y95.127 E112.31499 ; infill
G1 X30.491 Y95.127 E112.32998 ; infill
G1 X49.073 Y113.709 E113.11033 ; infill
G1 X49.073 Y113.204 E113.12533 ; infill
G1 X30.996 Y95.127 E113.88447 ; infill
G1 X31.501 Y95.127 E113.89947 ; infill
G1 X49.073 Y112.699 E114.63740 ; infill
G1 X49.073 Y112.194 E114.65240 ; infill
G1 X32.006 Y95.127 E115.36912 ; infill
G1 X32.511 Y95.127 E115.38412 ; infill
G1 X49.073 Y111.689 E116.07963 ; infill
G1 X49.073 Y111.184 E116.09463 ; infill
G1 X33.016 Y95.127 E116.76893 ; infill
G1 X33.521 Y95.127 E116.78393 ; infill
G1 X49.073 Y110.679 E117.43702 ; infill
G1 X49.073 Y110.174 E117.45202 ; infill
G1 X34.026 Y95.127 E118.08390 ; infill
G1 X34.531 Y95.127 E118.09890 ; infill
G1 X49.073 Y109.669 E118.70958 ; infill
G1 X49.073 Y109.164 E118.72457 ; infill
G1 X35.036 Y95.127 E119.31404 ; infill
G1 X35.541 Y95.127 E119.32904 ; infill
G1 X49.073 Y108.659 E119.89730 ; infill
G1 X49.073 Y108.154 E119.91229 ; infill
G1 X36.046 Y95.127 E120.45934 ; infill
G1 X36.551 Y95.127 E120.47434 ; infill
G1 X49.073 Y107.649 E121.00018 ; infill
G1 X49.073 Y107.144 E121.01518 ; infill
G1 X37.056 Y95.127 E121.51981 ; infill
G1 X37.561 Y95.127 E121.53480 ; infill
G1 X49.073 Y106.639 E122.01823 ; infill
G1 X49.073 Y106.134 E122.03322 ; infill
G1 X38.066 Y95.127 E122.49544 ; infill
G1 X38.571 Y95.127 E122.51043 ; infill
G1 X49.073 Y105.629 E122.95144 ; infill
G1 X49.073 Y105.124 E122.96643 ; infill
G1 X39.076 Y95.127 E123.38623 ; infill
G1 X39.581 Y95.127 E123.40122 ; infill
G1 X49.073 Y104.619 E123.79981 ; infill
G1 X49.073 Y104.114 E123.81481 ; infill
G1 X40.086 Y95.127 E124.19218 ; infill
G1 X40.591 Y95.127 E124.20718 ; infill
G1 X49.073 Y103.609 E124.56335 ; infill
G1 X49.073 Y103.103 E124.57834 ; infill
G1 X41.097 Y95.127 E124.91330 ; infill
G1 X41.602 Y95.127 E124.92830 ; infill
G1 X49.073 Y102.598 E125.24205 ; infill
G1 X49.073 Y102.093 E125.25705 ; infill
G1 X42.107 Y95.127 E125.54958 ; infill
G1 X42.612 Y95.127 E125.56458 ; infill
G1 X49.073 Y101.588 E125.83591 ; infill
G1 X49.073 Y101.083 E125.85091 ; infill
G1 X43.117 Y95.127 E126.10103 ; infill
G1 X43.622 Y95.127 E126.11603 ; infill
G1 X49.073 Y100.578 E126.34494 ; infill
G1 X49.073 Y100.073 E126.35994 ; infill
G1 X44.127 Y95.127 E126.56764 ; infill
G1 X44.632 Y95.127 E126.58264 ; infill
G1 X49.073 Y99.568 E126.76913 ; infill
G1 X49.073 Y99.063 E126.78413 ; infill
G1 X45.137 Y95.127 E126.94941 ; infill
G1 X45.642 Y95.127 E126.96441 ; infill
G1 X49.073 Y98.558 E127.10849 ; infill
G1 X49.073 Y98.053 E127.12348 ; infill
G1 X46.147 Y95.127 E127.24635 ; infill
G1 X46.652 Y95.127 E127.26135 ; infill
G1 X49.073 Y97.548 E127.36301 ; infill
G1 X49.073 Y97.043 E127.37800 ; infill
G1 X47.157 Y95.127 E127.45845 ; infill
G1 X47.662 Y95.127 E127.47345 ; infill
G1 X49.073 Y96.538 E127.53269 ; infill
G1 X49.073 Y96.033 E127.54769 ; infill
G1 X48.167 Y95.127 E127.58572 ; infill
G1 X48.672 Y95.127 E127.60071 ; infill
G1 X49.233 Y95.688 E127.62428 ; infill
G1 E124.12428 F3000.00000 ; retract
G92 E0 ; reset extrusion distance
G1 X92.579 Y94.868 F6000.000 ; move to first perimeter point
G1 E3.52000 F3000.00000 ; unretract
G1 F1200
G1 X131.465 Y94.868 E4.67457 ; perimeter
G1 X131.465 Y133.754 E5.82914 ; perimeter
G1 X92.579 Y133.754 E6.98371 ; perimeter
G1 X92.579 Y94.928 E8.13650 ; perimeter
G1 E4.63650 F3000.00000 ; retract
G92 E0 ; reset extrusion distance
G1 X92.222 Y94.511 F6000.000 ; move to first perimeter point
G1 E3.52000 F3000.00000 ; unretract
G1 F1080
