; generated by Slic3r 1.34.1-prusa3d-win64 on 2017-10-09 at 18:53:45

; Buse OEV5 - diamètre 0,5mm

; external perimeters extrusion width = 0.40mm
; perimeters extrusion width = 0.50mm
; infill extrusion width = 0.50mm
; solid infill extrusion width = 0.50mm
; top infill extrusion width = 0.40mm

M107 ; disable fan
M190 S70 ; attente chauffe plateau
M104 S195 ; préchauffe tête
G92 Z0
G1 Z10 F1500
G28 Y ; prise d'origine en Y
G28 X ; prise d'origine en X
G1 X70 Y0 F6000 ; parking
M109 S195 ; attente chauffe T0
G21 ; set units to millimeters
G90 ; use absolute coordinates
M82 ; use absolute distances for extrusion
G92 E0 ; reset extrusion distance
G1 E-3.60000 F3000.00000 ; retract
G92 E0 ; reset extrusion distance
G1 Z0.250 F6000.000 ; move to next layer (0)
G1 X8.932 Y9.978 F6000.000 ; move to first skirt point
G1 E3.64000 F3000.00000 ; unretract
G1 F1200
G1 X9.366 Y9.613 E3.66627 ; skirt
G1 X9.866 Y9.339 E3.69274 ; skirt
G1 X10.410 Y9.168 E3.71921 ; skirt
G1 X10.977 Y9.107 E3.74568 ; skirt
G1 X131.004 Y9.107 E9.31404 ; skirt
G1 X131.564 Y9.163 E9.34012 ; skirt
G1 X132.098 Y9.324 E9.36601 ; skirt
G1 X132.591 Y9.584 E9.39189 ; skirt
G1 X133.028 Y9.938 E9.41797 ; skirt
G1 X133.387 Y10.366 E9.44386 ; skirt
G1 X133.658 Y10.858 E9.46994 ; skirt
G1 X133.828 Y11.394 E9.49602 ; skirt
G1 X133.892 Y11.952 E9.52210 ; skirt
G1 X133.893 Y132.021 E15.09241 ; skirt
G1 X133.836 Y132.572 E15.11810 ; skirt
G1 X133.675 Y133.102 E15.14380 ; skirt
G1 X133.416 Y133.591 E15.16949 ; skirt
G1 X133.068 Y134.022 E15.19518 ; skirt
G1 X132.628 Y134.391 E15.22184 ; skirt
G1 X132.123 Y134.666 E15.24850 ; skirt
G1 X131.573 Y134.835 E15.27517 ; skirt
G1 X131.000 Y134.893 E15.30190 ; skirt
G1 X10.979 Y134.893 E20.87000 ; skirt
G1 X10.428 Y134.836 E20.89569 ; skirt
G1 X9.898 Y134.675 E20.92138 ; skirt
G1 X9.409 Y134.416 E20.94707 ; skirt
G1 X8.978 Y134.068 E20.97276 ; skirt
G1 X8.609 Y133.628 E20.99943 ; skirt
G1 X8.334 Y133.123 E21.02609 ; skirt
G1 X8.165 Y132.573 E21.05275 ; skirt
G1 X8.107 Y132.000 E21.07949 ; skirt
G1 X8.107 Y11.979 E26.64758 ; skirt
G1 X8.164 Y11.428 E26.67327 ; skirt
G1 X8.325 Y10.898 E26.69896 ; skirt
G1 X8.584 Y10.409 E26.72466 ; skirt
G1 X8.885 Y10.036 E26.74687 ; skirt
G1 X9.253 Y10.287 F6000.000 ; move to first skirt point
G1 F1200
G1 X10.047 Y9.747 E26.79139 ; skirt
G1 X10.987 Y9.554 E26.83592 ; skirt
G1 X131.004 Y9.554 E32.40384 ; skirt
G1 X131.930 Y9.737 E32.44766 ; skirt
G1 X132.718 Y10.259 E32.49148 ; skirt
G1 X133.250 Y11.039 E32.53531 ; skirt
G1 X133.446 Y11.963 E32.57913 ; skirt
G1 X133.446 Y132.015 E38.14866 ; skirt
G1 X133.263 Y132.930 E38.19195 ; skirt
G1 X132.747 Y133.713 E38.23542 ; skirt
G1 X131.946 Y134.256 E38.28030 ; skirt
G1 X131.000 Y134.446 E38.32508 ; skirt
G1 X10.988 Y134.446 E43.89274 ; skirt
G1 X10.070 Y134.263 E43.93621 ; skirt
G1 X9.287 Y133.747 E43.97968 ; skirt
G1 X8.744 Y132.946 E44.02456 ; skirt
G1 X8.554 Y132.000 E44.06934 ; skirt
G1 X8.554 Y11.988 E49.63700 ; skirt
G1 X8.737 Y11.070 E49.68047 ; skirt
G1 X9.212 Y10.350 E49.72046 ; skirt
G1 E46.12046 F3000.00000 ; retract
G92 E0 ; reset extrusion distance
G1 X11.696 Y12.696 F6000.000 ; move to first perimeter point
G1 E3.64000 F3000.00000 ; unretract
G1 F1200
G1 X130.304 Y12.696 E9.14251 ; perimeter
G1 X130.304 Y131.304 E14.64501 ; perimeter
G1 X11.696 Y131.304 E20.14752 ; perimeter
G1 X11.696 Y12.771 E25.64655 ; perimeter
G1 E22.04655 F3000.00000 ; retract
G92 E0 ; reset extrusion distance
G1 X11.250 Y12.250 F6000.000 ; move to first perimeter point
G1 E3.64000 F3000.00000 ; unretract
G1 F1080
G1 X130.750 Y12.250 E9.18392 ; perimeter
G1 X130.750 Y131.750 E14.72784 ; perimeter
G1 X11.250 Y131.750 E20.27176 ; perimeter
G1 X11.250 Y12.325 E25.81220 ; perimeter
G1 X11.733 Y12.379 F6000.000 ; move inwards before travel
G1 E22.21220 F3000.00000 ; retract
G92 E0 ; reset extrusion distance
G1 X12.779 Y131.125 F6000.000 ; move to first infill point
G1 E3.64000 F3000.00000 ; unretract
G1 F1200
G1 X12.076 Y130.421 E3.68627 ; infill
G1 X12.076 Y129.789 E3.71568 ; infill
G1 X13.211 Y130.924 E3.79034 ; infill
G1 X13.844 Y130.924 E3.81975 ; infill
G1 X12.076 Y129.156 E3.93601 ; infill
G1 X12.076 Y128.524 E3.96542 ; infill
G1 X14.476 Y130.924 E4.12326 ; infill
G1 X15.109 Y130.924 E4.15267 ; infill
G1 X12.076 Y127.891 E4.35211 ; infill
G1 X12.076 Y127.258 E4.38152 ; infill
G1 X15.742 Y130.924 E4.62256 ; infill
G1 X16.374 Y130.924 E4.65197 ; infill
G1 X12.076 Y126.626 E4.93459 ; infill
G1 X12.076 Y125.993 E4.96400 ; infill
G1 X17.007 Y130.924 E5.28822 ; infill
G1 X17.639 Y130.924 E5.31763 ; infill
G1 X12.076 Y125.361 E5.68344 ; infill
G1 X12.076 Y124.728 E5.71285 ; infill
G1 X18.272 Y130.924 E6.12026 ; infill
G1 X18.905 Y130.924 E6.14967 ; infill
G1 X12.076 Y124.095 E6.59866 ; infill
G1 X12.076 Y123.463 E6.62808 ; infill
G1 X19.537 Y130.924 E7.11867 ; infill
G1 X20.170 Y130.924 E7.14808 ; infill
G1 X12.076 Y122.830 E7.68026 ; infill
G1 X12.076 Y122.198 E7.70967 ; infill
G1 X20.802 Y130.924 E8.28345 ; infill
G1 X21.435 Y130.924 E8.31286 ; infill
G1 X12.076 Y121.565 E8.92823 ; infill
G1 X12.076 Y120.932 E8.95764 ; infill
G1 X22.068 Y130.924 E9.61460 ; infill
G1 X22.700 Y130.924 E9.64401 ; infill
G1 X12.076 Y120.300 E10.34257 ; infill
G1 X12.076 Y119.667 E10.37198 ; infill
G1 X23.333 Y130.924 E11.11213 ; infill
G1 X23.965 Y130.924 E11.14154 ; infill
G1 X12.076 Y119.035 E11.92328 ; infill
G1 X12.076 Y118.402 E11.95269 ; infill
G1 X24.598 Y130.924 E12.77603 ; infill
G1 X25.230 Y130.924 E12.80544 ; infill
G1 X12.076 Y117.770 E13.67037 ; infill
G1 X12.076 Y117.137 E13.69978 ; infill
G1 X25.863 Y130.924 E14.60630 ; infill
G1 X26.496 Y130.924 E14.63571 ; infill
G1 X12.076 Y116.504 E15.58382 ; infill
G1 X12.076 Y115.872 E15.61323 ; infill
G1 X27.128 Y130.924 E16.60294 ; infill
G1 X27.761 Y130.924 E16.63235 ; infill
G1 X12.076 Y115.239 E17.66365 ; infill
G1 X12.076 Y114.607 E17.69306 ; infill
G1 X28.393 Y130.924 E18.76596 ; infill
G1 X29.026 Y130.924 E18.79537 ; infill
G1 X12.076 Y113.974 E19.90986 ; infill
G1 X12.076 Y113.341 E19.93927 ; infill
G1 X29.659 Y130.924 E21.09535 ; infill
G1 X30.291 Y130.924 E21.12476 ; infill
G1 X12.076 Y112.709 E22.32243 ; infill
G1 X12.076 Y112.076 E22.35184 ; infill
G1 X30.924 Y130.924 E23.59111 ; infill
G1 X31.556 Y130.924 E23.62052 ; infill
G1 X12.076 Y111.444 E24.90138 ; infill
G1 X12.076 Y110.811 E24.93079 ; infill
G1 X32.189 Y130.924 E26.25324 ; infill
G1 X32.822 Y130.924 E26.28265 ; infill
G1 X12.076 Y110.178 E27.64670 ; infill
G1 X12.076 Y109.546 E27.67611 ; infill
G1 X33.454 Y130.924 E29.08175 ; infill
G1 X34.087 Y130.924 E29.11116 ; infill
G1 X12.076 Y108.913 E30.55839 ; infill
G1 X12.076 Y108.281 E30.58780 ; infill
G1 X34.719 Y130.924 E32.07662 ; infill
G1 X35.352 Y130.924 E32.10603 ; infill
G1 X12.076 Y107.648 E33.63645 ; infill
G1 X12.076 Y107.015 E33.66586 ; infill
G1 X35.985 Y130.924 E35.23787 ; infill
G1 X36.617 Y130.924 E35.26728 ; infill
G1 X12.076 Y106.383 E36.88089 ; infill
G1 X12.076 Y105.750 E36.91030 ; infill
G1 X37.250 Y130.924 E38.56550 ; infill
G1 X37.882 Y130.924 E38.59491 ; infill
G1 X12.076 Y105.118 E40.29170 ; infill
G1 X12.076 Y104.485 E40.32111 ; infill
G1 X38.515 Y130.924 E42.05949 ; infill
G1 X39.147 Y130.924 E42.08890 ; infill
G1 X12.076 Y103.853 E43.86888 ; infill
G1 X12.076 Y103.220 E43.89829 ; infill
G1 X39.780 Y130.924 E45.71986 ; infill
G1 X40.413 Y130.924 E45.74927 ; infill
G1 X12.076 Y102.587 E47.61243 ; infill
G1 X12.076 Y101.955 E47.64184 ; infill
G1 X41.045 Y130.924 E49.54660 ; infill
G1 X41.678 Y130.924 E49.57601 ; infill
G1 X12.076 Y101.322 E51.52236 ; infill
G1 X12.076 Y100.690 E51.55177 ; infill
G1 X42.310 Y130.924 E53.53971 ; infill
G1 X42.943 Y130.924 E53.56912 ; infill
G1 X12.076 Y100.057 E55.59866 ; infill
G1 X12.076 Y99.424 E55.62807 ; infill
G1 X43.576 Y130.924 E57.69919 ; infill
G1 X44.208 Y130.924 E57.72861 ; infill
G1 X12.076 Y98.792 E59.84133 ; infill
G1 X12.076 Y98.159 E59.87074 ; infill
G1 X44.841 Y130.924 E62.02505 ; infill
G1 X45.473 Y130.924 E62.05446 ; infill
G1 X12.076 Y97.527 E64.25037 ; infill
G1 X12.076 Y96.894 E64.27978 ; infill
G1 X46.106 Y130.924 E66.51728 ; infill
G1 X46.739 Y130.924 E66.54669 ; infill
G1 X12.076 Y96.261 E68.82579 ; infill
G1 X12.076 Y95.629 E68.85520 ; infill
G1 X47.371 Y130.924 E71.17588 ; infill
G1 X48.004 Y130.924 E71.20529 ; infill
G1 X12.076 Y94.996 E73.56757 ; infill
G1 X12.076 Y94.364 E73.59698 ; infill
G1 X48.636 Y130.924 E76.00086 ; infill
G1 X49.269 Y130.924 E76.03027 ; infill
G1 X12.076 Y93.731 E78.47573 ; infill
G1 X12.076 Y93.098 E78.50514 ; infill
G1 X49.902 Y130.924 E80.99220 ; infill
G1 X50.534 Y130.924 E81.02161 ; infill
G1 X12.076 Y92.466 E83.55027 ; infill
G1 X12.076 Y91.833 E83.57968 ; infill
G1 X51.167 Y130.924 E86.14992 ; infill
G1 X51.799 Y130.924 E86.17933 ; infill
G1 X12.076 Y91.201 E88.79117 ; infill
G1 X12.076 Y90.568 E88.82058 ; infill
G1 X52.432 Y130.924 E91.47401 ; infill
G1 X53.065 Y130.924 E91.50342 ; infill
G1 X12.076 Y89.935 E94.19845 ; infill
G1 X12.076 Y89.303 E94.22786 ; infill
G1 X53.697 Y130.924 E96.96448 ; infill
G1 X54.330 Y130.924 E96.99389 ; infill
G1 X12.076 Y88.670 E99.77210 ; infill
G1 X12.076 Y88.038 E99.80151 ; infill
G1 X54.962 Y130.924 E102.62131 ; infill
G1 X55.595 Y130.924 E102.65072 ; infill
G1 X12.076 Y87.405 E105.51212 ; infill
G1 X12.076 Y86.773 E105.54153 ; infill
G1 X56.227 Y130.924 E108.44452 ; infill
G1 X56.860 Y130.924 E108.47393 ; infill
G1 X12.076 Y86.140 E111.41852 ; infill
G1 X12.076 Y85.507 E111.44793 ; infill
G1 X57.493 Y130.924 E114.43410 ; infill
G1 X58.125 Y130.924 E114.46351 ; infill
G1 X12.076 Y84.875 E117.49128 ; infill
G1 X12.076 Y84.242 E117.52069 ; infill
G1 X58.758 Y130.924 E120.59006 ; infill
G1 X59.390 Y130.924 E120.61947 ; infill
G1 X12.076 Y83.610 E123.73042 ; infill
G1 X12.076 Y82.977 E123.75983 ; infill
G1 X60.023 Y130.924 E126.91238 ; infill
G1 X60.656 Y130.924 E126.94179 ; infill
G1 X12.076 Y82.344 E130.13593 ; infill
G1 X12.076 Y81.712 E130.16534 ; infill
G1 X61.288 Y130.924 E133.40108 ; infill
G1 X61.921 Y130.924 E133.43049 ; infill
G1 X12.076 Y81.079 E136.70782 ; infill
G1 X12.076 Y80.447 E136.73723 ; infill
G1 X62.553 Y130.924 E140.05615 ; infill
G1 X63.186 Y130.924 E140.08556 ; infill
G1 X12.076 Y79.814 E143.44607 ; infill
G1 X12.076 Y79.181 E143.47549 ; infill
G1 X63.819 Y130.924 E146.87759 ; infill
G1 X64.451 Y130.924 E146.90700 ; infill
G1 X12.076 Y78.549 E150.35070 ; infill
G1 X12.076 Y77.916 E150.38011 ; infill
G1 X65.084 Y130.924 E153.86541 ; infill
G1 X65.716 Y130.924 E153.89482 ; infill
G1 X12.076 Y77.284 E157.42170 ; infill
G1 X12.076 Y76.651 E157.45112 ; infill
G1 X66.349 Y130.924 E161.01960 ; infill
G1 X66.982 Y130.924 E161.04901 ; infill
G1 X12.076 Y76.018 E164.65908 ; infill
G1 X12.076 Y75.386 E164.68849 ; infill
G1 X67.614 Y130.924 E168.34016 ; infill
G1 X68.247 Y130.924 E168.36957 ; infill
G1 X12.076 Y74.753 E172.06282 ; infill
G1 X12.076 Y74.121 E172.09224 ; infill
G1 X68.879 Y130.924 E175.82709 ; infill
G1 X69.512 Y130.924 E175.85650 ; infill
G1 X12.076 Y73.488 E179.63294 ; infill
G1 X12.076 Y72.856 E179.66235 ; infill
G1 X70.144 Y130.924 E183.48039 ; infill
G1 X70.777 Y130.924 E183.50980 ; infill
G1 X12.076 Y72.223 E187.36943 ; infill
G1 X12.076 Y71.590 E187.39885 ; infill
G1 X71.410 Y130.924 E191.30007 ; infill
G1 X72.042 Y130.924 E191.32948 ; infill
G1 X12.076 Y70.958 E195.27230 ; infill
G1 X12.076 Y70.325 E195.30171 ; infill
G1 X72.675 Y130.924 E199.28612 ; infill
G1 X73.307 Y130.924 E199.31553 ; infill
G1 X12.076 Y69.693 E203.34153 ; infill
G1 X12.076 Y69.060 E203.37094 ; infill
G1 X73.940 Y130.924 E207.43854 ; infill
G1 X74.573 Y130.924 E207.46795 ; infill
G1 X12.076 Y68.427 E211.57714 ; infill
G1 X12.076 Y67.795 E211.60655 ; infill
G1 X75.205 Y130.924 E215.75734 ; infill
G1 X75.838 Y130.924 E215.78675 ; infill
G1 X12.076 Y67.162 E219.97912 ; infill
G1 X12.076 Y66.530 E220.00853 ; infill
G1 X76.470 Y130.924 E224.24250 ; infill
G1 X77.103 Y130.924 E224.27191 ; infill
G1 X12.076 Y65.897 E228.54747 ; infill
G1 X12.076 Y65.264 E228.57689 ; infill
G1 X77.736 Y130.924 E232.89404 ; infill
G1 X78.368 Y130.924 E232.92345 ; infill
G1 X12.076 Y64.632 E237.28220 ; infill
G1 X12.076 Y63.999 E237.31161 ; infill
G1 X79.001 Y130.924 E241.71195 ; infill
G1 X79.633 Y130.924 E241.74136 ; infill
G1 X12.076 Y63.367 E246.18330 ; infill
G1 X12.076 Y62.734 E246.21271 ; infill
G1 X80.266 Y130.924 E250.69624 ; infill
G1 X80.899 Y130.924 E250.72565 ; infill
G1 X12.076 Y62.101 E255.25077 ; infill
G1 X12.076 Y61.469 E255.28018 ; infill
G1 X81.531 Y130.924 E259.84689 ; infill
G1 X82.164 Y130.924 E259.87630 ; infill
G1 X12.076 Y60.836 E264.48461 ; infill
G1 X12.076 Y60.204 E264.51402 ; infill
G1 X82.796 Y130.924 E269.16392 ; infill
G1 X83.429 Y130.924 E269.19333 ; infill
G1 X12.076 Y59.571 E273.88483 ; infill
G1 X12.076 Y58.938 E273.91424 ; infill
G1 X84.062 Y130.924 E278.64732 ; infill
G1 X84.694 Y130.924 E278.67673 ; infill
G1 X12.076 Y58.306 E283.45141 ; infill
G1 X12.076 Y57.673 E283.48082 ; infill
G1 X85.327 Y130.924 E288.29710 ; infill
G1 X85.959 Y130.924 E288.32651 ; infill
G1 X12.076 Y57.041 E293.18437 ; infill
G1 X12.076 Y56.408 E293.21378 ; infill
G1 X86.592 Y130.924 E298.11324 ; infill
G1 X87.224 Y130.924 E298.14265 ; infill
G1 X12.076 Y55.776 E303.08370 ; infill
G1 X12.076 Y55.143 E303.11311 ; infill
G1 X87.857 Y130.924 E308.09576 ; infill
G1 X88.490 Y130.924 E308.12517 ; infill
G1 X12.076 Y54.510 E313.14941 ; infill
G1 X12.076 Y53.878 E313.17882 ; infill
G1 X89.122 Y130.924 E318.24465 ; infill
G1 X89.755 Y130.924 E318.27406 ; infill
G1 X12.076 Y53.245 E323.38149 ; infill
G1 X12.076 Y52.613 E323.41090 ; infill
G1 X90.387 Y130.924 E328.55991 ; infill
G1 X91.020 Y130.924 E328.58932 ; infill
G1 X12.076 Y51.980 E333.77993 ; infill
G1 X12.076 Y51.347 E333.80935 ; infill
G1 X91.653 Y130.924 E339.04155 ; infill
G1 X92.285 Y130.924 E339.07096 ; infill
G1 X12.076 Y50.715 E344.34476 ; infill
G1 X12.076 Y50.082 E344.37417 ; infill
G1 X92.918 Y130.924 E349.68956 ; infill
G1 X93.550 Y130.924 E349.71897 ; infill
G1 X12.076 Y49.450 E355.07595 ; infill
G1 X12.076 Y48.817 E355.10536 ; infill
G1 X94.183 Y130.924 E360.50394 ; infill
G1 X94.816 Y130.924 E360.53335 ; infill
G1 X12.076 Y48.184 E365.97352 ; infill
G1 X12.076 Y47.552 E366.00293 ; infill
G1 X95.448 Y130.924 E371.48469 ; infill
G1 X96.081 Y130.924 E371.51410 ; infill
G1 X12.076 Y46.919 E377.03745 ; infill
G1 X12.076 Y46.287 E377.06687 ; infill
G1 X96.713 Y130.924 E382.63181 ; infill
G1 X97.346 Y130.924 E382.66122 ; infill
G1 X12.076 Y45.654 E388.26777 ; infill
G1 X12.076 Y45.021 E388.29718 ; infill
G1 X97.979 Y130.924 E393.94531 ; infill
G1 X98.611 Y130.924 E393.97472 ; infill
G1 X12.076 Y44.389 E399.66445 ; infill
G1 X12.076 Y43.756 E399.69386 ; infill
G1 X99.244 Y130.924 E405.42518 ; infill
G1 X99.876 Y130.924 E405.45459 ; infill
G1 X12.076 Y43.124 E411.22751 ; infill
G1 X12.076 Y42.491 E411.25692 ; infill
G1 X100.509 Y130.924 E417.07142 ; infill
G1 X101.141 Y130.924 E417.10083 ; infill
G1 X12.076 Y41.859 E422.95693 ; infill
G1 X12.076 Y41.226 E422.98634 ; infill
G1 X101.774 Y130.924 E428.88404 ; infill
G1 X102.407 Y130.924 E428.91345 ; infill
G1 X12.076 Y40.593 E434.85273 ; infill
G1 X12.076 Y39.961 E434.88214 ; infill
G1 X103.039 Y130.924 E440.86302 ; infill
G1 X103.672 Y130.924 E440.89243 ; infill
G1 X12.076 Y39.328 E446.91491 ; infill
G1 X12.076 Y38.696 E446.94432 ; infill
G1 X104.304 Y130.924 E453.00838 ; infill
G1 X104.937 Y130.924 E453.03779 ; infill
G1 X12.076 Y38.063 E459.14345 ; infill
G1 X12.076 Y37.430 E459.17286 ; infill
G1 X105.570 Y130.924 E465.32011 ; infill
G1 X106.202 Y130.924 E465.34953 ; infill
G1 X12.076 Y36.798 E471.53837 ; infill
G1 X12.076 Y36.165 E471.56778 ; infill
G1 X106.835 Y130.924 E477.79822 ; infill
G1 X107.467 Y130.924 E477.82763 ; infill
G1 X12.076 Y35.533 E484.09966 ; infill
G1 X12.076 Y34.900 E484.12907 ; infill
G1 X108.100 Y130.924 E490.44269 ; infill
G1 X108.733 Y130.924 E490.47211 ; infill
G1 X12.076 Y34.267 E496.82732 ; infill
G1 X12.076 Y33.635 E496.85673 ; infill
G1 X109.365 Y130.924 E503.25354 ; infill
G1 X109.998 Y130.924 E503.28295 ; infill
