; generated by Slic3r 1.34.1-prusa3d-win64 on 2017-10-20 at 10:42:28

; Buse diamètre 0,4mm
; Debit : 3,2mm3/s

; external perimeters extrusion width = 0.32mm
; perimeters extrusion width = 0.40mm
; infill extrusion width = 0.40mm
; solid infill extrusion width = 0.40mm
; top infill extrusion width = 0.32mm

M107 ; disable fan
M190 S70 ; attente chauffe plateau
M104 S195 ; préchauffe tête
G92 Z0
G0 Z10 F1500
G28 Y ; prise d'origine en Y
G28 X ; prise d'origine en X
G0 X70 Y0 F6000 ; parking
M109 S195 ; attente chauffe T0
G21 ; set units to millimeters
G90 ; use absolute coordinates
M82 ; use absolute distances for extrusion
G92 E0 ; reset extrusion distance
G1 E-3.50000 F3000.00000 ; retract
G92 E0 ; reset extrusion distance
G1 Z0.200 F6000.000 ; move to next layer (0)
G1 X8.490 Y10.968 F6000.000 ; move to first skirt point
G1 E3.52000 F3000.00000 ; unretract
G1 F1200
G1 X9.059 Y10.103 E3.55075 ; skirt
G1 X9.466 Y9.761 E3.56655 ; skirt
G1 X9.937 Y9.503 E3.58248 ; skirt
G1 X10.448 Y9.342 E3.59840 ; skirt
G1 X10.982 Y9.286 E3.61433 ; skirt
G1 X131.004 Y9.286 E7.17795 ; skirt
G1 X131.530 Y9.338 E7.19363 ; skirt
G1 X132.032 Y9.490 E7.20920 ; skirt
G1 X132.495 Y9.735 E7.22476 ; skirt
G1 X132.906 Y10.067 E7.24045 ; skirt
G1 X133.242 Y10.470 E7.25601 ; skirt
G1 X133.496 Y10.933 E7.27170 ; skirt
G1 X133.654 Y11.432 E7.28726 ; skirt
G1 X133.714 Y11.957 E7.30295 ; skirt
G1 X133.714 Y132.016 E10.86765 ; skirt
G1 X133.510 Y133.032 E10.89840 ; skirt
G1 X132.941 Y133.897 E10.92915 ; skirt
G1 X132.527 Y134.244 E10.94520 ; skirt
G1 X132.052 Y134.502 E10.96124 ; skirt
G1 X131.536 Y134.661 E10.97729 ; skirt
G1 X131.000 Y134.714 E10.99327 ; skirt
G1 X10.984 Y134.714 E14.55671 ; skirt
G1 X9.968 Y134.510 E14.58746 ; skirt
G1 X9.103 Y133.941 E14.61820 ; skirt
G1 X8.756 Y133.527 E14.63425 ; skirt
G1 X8.498 Y133.052 E14.65030 ; skirt
G1 X8.339 Y132.536 E14.66634 ; skirt
G1 X8.286 Y132.000 E14.68233 ; skirt
G1 X8.286 Y11.984 E18.24577 ; skirt
G1 X8.478 Y11.027 E18.27473 ; skirt
G1 X8.819 Y11.105 F6000.000 ; move to first skirt point
G1 F1200
G1 X9.317 Y10.350 E18.30159 ; skirt
G1 X10.080 Y9.830 E18.32901 ; skirt
G1 X10.988 Y9.643 E18.35653 ; skirt
G1 X131.004 Y9.643 E21.91995 ; skirt
G1 X131.895 Y9.819 E21.94692 ; skirt
G1 X132.656 Y10.322 E21.97400 ; skirt
G1 X133.169 Y11.077 E22.00109 ; skirt
G1 X133.357 Y11.969 E22.02817 ; skirt
G1 X133.357 Y132.011 E25.59238 ; skirt
G1 X133.181 Y132.895 E25.61913 ; skirt
G1 X132.683 Y133.650 E25.64599 ; skirt
G1 X131.913 Y134.173 E25.67362 ; skirt
G1 X131.000 Y134.357 E25.70127 ; skirt
G1 X10.989 Y134.357 E29.26457 ; skirt
G1 X10.105 Y134.181 E29.29132 ; skirt
G1 X9.350 Y133.683 E29.31818 ; skirt
G1 X8.827 Y132.913 E29.34581 ; skirt
G1 X8.643 Y132.000 E29.37346 ; skirt
G1 X8.643 Y11.989 E32.93675 ; skirt
G1 X8.808 Y11.164 E32.96172 ; skirt
G1 E29.46172 F3000.00000 ; retract
G92 E0 ; reset extrusion distance
G1 X11.557 Y12.557 F6000.000 ; move to first perimeter point
G1 E3.52000 F3000.00000 ; unretract
G1 F1200
G1 X130.443 Y12.557 E7.04987 ; perimeter
G1 X130.443 Y131.443 E10.57975 ; perimeter
G1 X11.557 Y131.443 E14.10962 ; perimeter
G1 X11.557 Y12.617 E17.63772 ; perimeter
G1 E14.13772 F3000.00000 ; retract
G92 E0 ; reset extrusion distance
G1 X11.200 Y12.200 F6000.000 ; move to first perimeter point
G1 E3.52000 F3000.00000 ; unretract
G1 F1080
G1 X130.800 Y12.200 E7.07108 ; perimeter
G1 X130.800 Y131.800 E10.62216 ; perimeter
G1 X11.200 Y131.800 E14.17324 ; perimeter
G1 X11.200 Y12.260 E17.72253 ; perimeter
G1 X11.586 Y12.304 F6000.000 ; move inwards before travel
G1 E14.22253 F3000.00000 ; retract
G92 E0 ; reset extrusion distance
G1 X11.700 Y130.577 F6000.000 ; move to first infill point
G1 E3.52000 F3000.00000 ; unretract
G1 F1200
G1 X12.263 Y131.139 E3.54367 ; infill
G1 X12.769 Y131.139 E3.55872 ; infill
G1 X11.861 Y130.231 E3.59691 ; infill
G1 X11.861 Y129.726 E3.61196 ; infill
G1 X13.274 Y131.139 E3.67144 ; infill
G1 X13.780 Y131.139 E3.68649 ; infill
G1 X11.861 Y129.220 E3.76725 ; infill
G1 X11.861 Y128.714 E3.78229 ; infill
G1 X14.286 Y131.139 E3.88433 ; infill
G1 X14.792 Y131.139 E3.89938 ; infill
G1 X11.861 Y128.208 E4.02271 ; infill
G1 X11.861 Y127.702 E4.03775 ; infill
G1 X15.298 Y131.139 E4.18236 ; infill
G1 X15.804 Y131.139 E4.19741 ; infill
G1 X11.861 Y127.196 E4.36329 ; infill
G1 X11.861 Y126.690 E4.37834 ; infill
G1 X16.310 Y131.139 E4.56551 ; infill
G1 X16.816 Y131.139 E4.58056 ; infill
G1 X11.861 Y126.184 E4.78901 ; infill
G1 X11.861 Y125.678 E4.80405 ; infill
G1 X17.322 Y131.139 E5.03379 ; infill
G1 X17.828 Y131.139 E5.04883 ; infill
G1 X11.861 Y125.172 E5.29985 ; infill
G1 X11.861 Y124.666 E5.31490 ; infill
G1 X18.334 Y131.139 E5.58719 ; infill
G1 X18.839 Y131.139 E5.60224 ; infill
G1 X11.861 Y124.161 E5.89582 ; infill
G1 X11.861 Y123.655 E5.91086 ; infill
G1 X19.345 Y131.139 E6.22572 ; infill
G1 X19.851 Y131.139 E6.24077 ; infill
G1 X11.861 Y123.149 E6.57691 ; infill
G1 X11.861 Y122.643 E6.59196 ; infill
G1 X20.357 Y131.139 E6.94938 ; infill
G1 X20.863 Y131.139 E6.96443 ; infill
G1 X11.861 Y122.137 E7.34314 ; infill
G1 X11.861 Y121.631 E7.35818 ; infill
G1 X21.369 Y131.139 E7.75817 ; infill
G1 X21.875 Y131.139 E7.77322 ; infill
G1 X11.861 Y121.125 E8.19449 ; infill
G1 X11.861 Y120.619 E8.20954 ; infill
G1 X22.381 Y131.139 E8.65208 ; infill
G1 X22.887 Y131.139 E8.66713 ; infill
G1 X11.861 Y120.113 E9.13097 ; infill
G1 X11.861 Y119.607 E9.14601 ; infill
G1 X23.393 Y131.139 E9.63113 ; infill
G1 X23.899 Y131.139 E9.64618 ; infill
G1 X11.861 Y119.101 E10.15257 ; infill
G1 X11.861 Y118.596 E10.16762 ; infill
G1 X24.404 Y131.139 E10.69530 ; infill
G1 X24.910 Y131.139 E10.71035 ; infill
G1 X11.861 Y118.090 E11.25930 ; infill
G1 X11.861 Y117.584 E11.27435 ; infill
G1 X25.416 Y131.139 E11.84459 ; infill
G1 X25.922 Y131.139 E11.85964 ; infill
G1 X11.861 Y117.078 E12.45117 ; infill
G1 X11.861 Y116.572 E12.46621 ; infill
G1 X26.428 Y131.139 E13.07902 ; infill
G1 X26.934 Y131.139 E13.09407 ; infill
G1 X11.861 Y116.066 E13.72815 ; infill
G1 X11.861 Y115.560 E13.74320 ; infill
G1 X27.440 Y131.139 E14.39857 ; infill
G1 X27.946 Y131.139 E14.41362 ; infill
G1 X11.861 Y115.054 E15.09027 ; infill
G1 X11.861 Y114.548 E15.10532 ; infill
G1 X28.452 Y131.139 E15.80325 ; infill
G1 X28.958 Y131.139 E15.81830 ; infill
G1 X11.861 Y114.042 E16.53751 ; infill
G1 X11.861 Y113.536 E16.55256 ; infill
G1 X29.464 Y131.139 E17.29306 ; infill
G1 X29.969 Y131.139 E17.30811 ; infill
G1 X11.861 Y113.031 E18.06988 ; infill
G1 X11.861 Y112.525 E18.08493 ; infill
G1 X30.475 Y131.139 E18.86799 ; infill
G1 X30.981 Y131.139 E18.88304 ; infill
G1 X11.861 Y112.019 E19.68738 ; infill
G1 X11.861 Y111.513 E19.70243 ; infill
G1 X31.487 Y131.139 E20.52805 ; infill
G1 X31.993 Y131.139 E20.54310 ; infill
G1 X11.861 Y111.007 E21.39001 ; infill
G1 X11.861 Y110.501 E21.40506 ; infill
G1 X32.499 Y131.139 E22.27324 ; infill
G1 X33.005 Y131.139 E22.28829 ; infill
G1 X11.861 Y109.995 E23.17776 ; infill
G1 X11.861 Y109.489 E23.19281 ; infill
G1 X33.511 Y131.139 E24.10356 ; infill
G1 X34.017 Y131.139 E24.11861 ; infill
G1 X11.861 Y108.983 E25.05064 ; infill
G1 X11.861 Y108.477 E25.06569 ; infill
G1 X34.523 Y131.139 E26.01900 ; infill
G1 X35.029 Y131.139 E26.03405 ; infill
G1 X11.861 Y107.971 E27.00865 ; infill
G1 X11.861 Y107.466 E27.02370 ; infill
G1 X35.534 Y131.139 E28.01958 ; infill
G1 X36.040 Y131.139 E28.03462 ; infill
G1 X11.861 Y106.960 E29.05178 ; infill
G1 X11.861 Y106.454 E29.06683 ; infill
G1 X36.546 Y131.139 E30.10527 ; infill
G1 X37.052 Y131.139 E30.12032 ; infill
G1 X11.861 Y105.948 E31.18005 ; infill
G1 X11.861 Y105.442 E31.19510 ; infill
G1 X37.558 Y131.139 E32.27610 ; infill
G1 X38.064 Y131.139 E32.29115 ; infill
G1 X11.861 Y104.936 E33.39344 ; infill
G1 X11.861 Y104.430 E33.40849 ; infill
G1 X38.570 Y131.139 E34.53205 ; infill
G1 X39.076 Y131.139 E34.54710 ; infill
G1 X11.861 Y103.924 E35.69195 ; infill
G1 X11.861 Y103.418 E35.70700 ; infill
G1 X39.582 Y131.139 E36.87314 ; infill
G1 X40.088 Y131.139 E36.88818 ; infill
G1 X11.861 Y102.912 E38.07560 ; infill
G1 X11.861 Y102.406 E38.09065 ; infill
G1 X40.594 Y131.139 E39.29935 ; infill
G1 X41.099 Y131.139 E39.31439 ; infill
G1 X11.861 Y101.901 E40.54437 ; infill
G1 X11.861 Y101.395 E40.55942 ; infill
G1 X41.605 Y131.139 E41.81068 ; infill
G1 X42.111 Y131.139 E41.82573 ; infill
G1 X11.861 Y100.889 E43.09827 ; infill
G1 X11.861 Y100.383 E43.11332 ; infill
G1 X42.617 Y131.139 E44.40715 ; infill
G1 X43.123 Y131.139 E44.42219 ; infill
G1 X11.861 Y99.877 E45.73730 ; infill
G1 X11.861 Y99.371 E45.75235 ; infill
G1 X43.629 Y131.139 E47.08874 ; infill
G1 X44.135 Y131.139 E47.10378 ; infill
G1 X11.861 Y98.865 E48.46145 ; infill
G1 X11.861 Y98.359 E48.47650 ; infill
G1 X44.641 Y131.139 E49.85545 ; infill
G1 X45.147 Y131.139 E49.87050 ; infill
G1 X11.861 Y97.853 E51.27074 ; infill
G1 X11.861 Y97.347 E51.28579 ; infill
G1 X45.653 Y131.139 E52.70730 ; infill
G1 X46.159 Y131.139 E52.72235 ; infill
G1 X11.861 Y96.841 E54.16515 ; infill
G1 X11.861 Y96.336 E54.18020 ; infill
G1 X46.664 Y131.139 E55.64427 ; infill
G1 X47.170 Y131.139 E55.65932 ; infill
G1 X11.861 Y95.830 E57.14468 ; infill
G1 X11.861 Y95.324 E57.15973 ; infill
G1 X47.676 Y131.139 E58.66638 ; infill
G1 X48.182 Y131.139 E58.68142 ; infill
G1 X11.861 Y94.818 E60.20935 ; infill
G1 X11.861 Y94.312 E60.22440 ; infill
G1 X48.688 Y131.139 E61.77360 ; infill
G1 X49.194 Y131.139 E61.78865 ; infill
G1 X11.861 Y93.806 E63.35914 ; infill
G1 X11.861 Y93.300 E63.37419 ; infill
G1 X49.700 Y131.139 E64.96596 ; infill
G1 X50.206 Y131.139 E64.98101 ; infill
G1 X11.861 Y92.794 E66.59406 ; infill
G1 X11.861 Y92.288 E66.60911 ; infill
G1 X50.712 Y131.139 E68.24344 ; infill
G1 X51.218 Y131.139 E68.25849 ; infill
G1 X11.861 Y91.782 E69.91411 ; infill
G1 X11.861 Y91.276 E69.92916 ; infill
G1 X51.724 Y131.139 E71.60605 ; infill
G1 X52.229 Y131.139 E71.62110 ; infill
G1 X11.861 Y90.771 E73.31928 ; infill
G1 X11.861 Y90.265 E73.33433 ; infill
G1 X52.735 Y131.139 E75.05379 ; infill
G1 X53.241 Y131.139 E75.06884 ; infill
G1 X11.861 Y89.759 E76.80958 ; infill
G1 X11.861 Y89.253 E76.82463 ; infill
G1 X53.747 Y131.139 E78.58666 ; infill
G1 X54.253 Y131.139 E78.60171 ; infill
G1 X11.861 Y88.747 E80.38501 ; infill
G1 X11.861 Y88.241 E80.40006 ; infill
G1 X54.759 Y131.139 E82.20465 ; infill
G1 X55.265 Y131.139 E82.21970 ; infill
G1 X11.861 Y87.735 E84.04557 ; infill
G1 X11.861 Y87.229 E84.06062 ; infill
G1 X55.771 Y131.139 E85.90777 ; infill
G1 X56.277 Y131.139 E85.92282 ; infill
G1 X11.861 Y86.723 E87.79126 ; infill
G1 X11.861 Y86.217 E87.80630 ; infill
G1 X56.783 Y131.139 E89.69602 ; infill
G1 X57.289 Y131.139 E89.71107 ; infill
G1 X11.861 Y85.711 E91.62207 ; infill
G1 X11.861 Y85.206 E91.63712 ; infill
G1 X57.794 Y131.139 E93.56940 ; infill
G1 X58.300 Y131.139 E93.58444 ; infill
G1 X11.861 Y84.700 E95.53801 ; infill
G1 X11.861 Y84.194 E95.55306 ; infill
G1 X58.806 Y131.139 E97.52790 ; infill
G1 X59.312 Y131.139 E97.54295 ; infill
G1 X11.861 Y83.688 E99.53907 ; infill
G1 X11.861 Y83.182 E99.55412 ; infill
G1 X59.818 Y131.139 E101.57153 ; infill
G1 X60.324 Y131.139 E101.58658 ; infill
G1 X11.861 Y82.676 E103.62527 ; infill
G1 X11.861 Y82.170 E103.64032 ; infill
G1 X60.830 Y131.139 E105.70029 ; infill
G1 X61.336 Y131.139 E105.71534 ; infill
G1 X11.861 Y81.664 E107.79659 ; infill
G1 X11.861 Y81.158 E107.81164 ; infill
G1 X61.842 Y131.139 E109.91417 ; infill
G1 X62.348 Y131.139 E109.92922 ; infill
G1 X11.861 Y80.652 E112.05304 ; infill
G1 X11.861 Y80.146 E112.06809 ; infill
G1 X62.854 Y131.139 E114.21319 ; infill
G1 X63.359 Y131.139 E114.22823 ; infill
G1 X11.861 Y79.641 E116.39461 ; infill
G1 X11.861 Y79.135 E116.40966 ; infill
G1 X63.865 Y131.139 E118.59733 ; infill
G1 X64.371 Y131.139 E118.61237 ; infill
G1 X11.861 Y78.629 E120.82132 ; infill
G1 X11.861 Y78.123 E120.83637 ; infill
G1 X64.877 Y131.139 E123.06659 ; infill
G1 X65.383 Y131.139 E123.08164 ; infill
G1 X11.861 Y77.617 E125.33315 ; infill
G1 X11.861 Y77.111 E125.34820 ; infill
G1 X65.889 Y131.139 E127.62099 ; infill
G1 X66.395 Y131.139 E127.63604 ; infill
G1 X11.861 Y76.605 E129.93011 ; infill
G1 X11.861 Y76.099 E129.94516 ; infill
G1 X66.901 Y131.139 E132.26051 ; infill
G1 X67.407 Y131.139 E132.27556 ; infill
G1 X11.861 Y75.593 E134.61220 ; infill
G1 X11.861 Y75.087 E134.62724 ; infill
G1 X67.913 Y131.139 E136.98516 ; infill
G1 X68.419 Y131.139 E137.00021 ; infill
G1 X11.861 Y74.581 E139.37941 ; infill
G1 X11.861 Y74.076 E139.39446 ; infill
G1 X68.924 Y131.139 E141.79494 ; infill
G1 X69.430 Y131.139 E141.80999 ; infill
G1 X11.861 Y73.570 E144.23175 ; infill
G1 X11.861 Y73.064 E144.24680 ; infill
G1 X69.936 Y131.139 E146.68984 ; infill
G1 X70.442 Y131.139 E146.70489 ; infill
G1 X11.861 Y72.558 E149.16922 ; infill
G1 X11.861 Y72.052 E149.18427 ; infill
G1 X70.948 Y131.139 E151.66988 ; infill
G1 X71.454 Y131.139 E151.68492 ; infill
G1 X11.861 Y71.546 E154.19181 ; infill
G1 X11.861 Y71.040 E154.20686 ; infill
G1 X71.960 Y131.139 E156.73504 ; infill
G1 X72.466 Y131.139 E156.75008 ; infill
G1 X11.861 Y70.534 E159.29954 ; infill
G1 X11.861 Y70.028 E159.31459 ; infill
G1 X72.972 Y131.139 E161.88532 ; infill
G1 X73.478 Y131.139 E161.90037 ; infill
G1 X11.861 Y69.522 E164.49239 ; infill
G1 X11.861 Y69.016 E164.50744 ; infill
G1 X73.984 Y131.139 E167.12074 ; infill
G1 X74.489 Y131.139 E167.13579 ; infill
G1 X11.861 Y68.511 E169.77037 ; infill
G1 X11.861 Y68.005 E169.78542 ; infill
G1 X74.995 Y131.139 E172.44128 ; infill
G1 X75.501 Y131.139 E172.45633 ; infill
G1 X11.861 Y67.499 E175.13347 ; infill
G1 X11.861 Y66.993 E175.14852 ; infill
G1 X76.007 Y131.139 E177.84695 ; infill
G1 X76.513 Y131.139 E177.86200 ; infill
G1 X11.861 Y66.487 E180.58171 ; infill
G1 X11.861 Y65.981 E180.59676 ; infill
G1 X77.019 Y131.139 E183.33775 ; infill
G1 X77.525 Y131.139 E183.35279 ; infill
G1 X11.861 Y65.475 E186.11507 ; infill
G1 X11.861 Y64.969 E186.13012 ; infill
G1 X78.031 Y131.139 E188.91367 ; infill
G1 X78.537 Y131.139 E188.92872 ; infill
G1 X11.861 Y64.463 E191.73356 ; infill
G1 X11.861 Y63.957 E191.74860 ; infill
G1 X79.043 Y131.139 E194.57472 ; infill
G1 X79.549 Y131.139 E194.58977 ; infill
G1 X11.861 Y63.451 E197.43717 ; infill
G1 X11.861 Y62.946 E197.45222 ; infill
G1 X80.054 Y131.139 E200.32090 ; infill
G1 X80.560 Y131.139 E200.33595 ; infill
G1 X11.861 Y62.440 E203.22591 ; infill
G1 X11.861 Y61.934 E203.24096 ; infill
G1 X81.066 Y131.139 E206.15221 ; infill
G1 X81.572 Y131.139 E206.16726 ; infill
G1 X11.861 Y61.428 E209.09979 ; infill
G1 X11.861 Y60.922 E209.11483 ; infill
G1 X82.078 Y131.139 E212.06864 ; infill
G1 X82.584 Y131.139 E212.08369 ; infill
G1 X11.861 Y60.416 E215.05878 ; infill
G1 X11.861 Y59.910 E215.07383 ; infill
G1 X83.090 Y131.139 E218.07021 ; infill
G1 X83.596 Y131.139 E218.08525 ; infill
G1 X11.861 Y59.404 E221.10291 ; infill
G1 X11.861 Y58.898 E221.11796 ; infill
G1 X84.102 Y131.139 E224.15689 ; infill
G1 X84.608 Y131.139 E224.17194 ; infill
G1 X11.861 Y58.392 E227.23216 ; infill
G1 X11.861 Y57.886 E227.24721 ; infill
G1 X85.114 Y131.139 E230.32871 ; infill
G1 X85.619 Y131.139 E230.34376 ; infill
G1 X11.861 Y57.381 E233.44654 ; infill
G1 X11.861 Y56.875 E233.46159 ; infill
G1 X86.125 Y131.139 E236.58565 ; infill
G1 X86.631 Y131.139 E236.60070 ; infill
G1 X11.861 Y56.369 E239.74605 ; infill
G1 X11.861 Y55.863 E239.76110 ; infill
G1 X87.137 Y131.139 E242.92773 ; infill
G1 X87.643 Y131.139 E242.94277 ; infill
G1 X11.861 Y55.357 E246.13069 ; infill
G1 X11.861 Y54.851 E246.14573 ; infill
G1 X88.149 Y131.139 E249.35493 ; infill
G1 X88.655 Y131.139 E249.36997 ; infill
G1 X11.861 Y54.345 E252.60045 ; infill
G1 X11.861 Y53.839 E252.61550 ; infill
G1 X89.161 Y131.139 E255.86725 ; infill
G1 X89.667 Y131.139 E255.88230 ; infill
G1 X11.861 Y53.333 E259.15534 ; infill
G1 X11.861 Y52.827 E259.17039 ; infill
G1 X90.173 Y131.139 E262.46471 ; infill
G1 X90.679 Y131.139 E262.47975 ; infill
G1 X11.861 Y52.321 E265.79536 ; infill
G1 X11.861 Y51.816 E265.81040 ; infill
G1 X91.184 Y131.139 E269.14729 ; infill
G1 X91.690 Y131.139 E269.16234 ; infill
G1 X11.861 Y51.310 E272.52050 ; infill
