; generated by Slic3r 1.34.1-prusa3d-win64 on 2017-09-05 at 09:31:28

; Buse OEV5 - diamètre 0,5mm

; external perimeters extrusion width = 0.40mm
; perimeters extrusion width = 0.50mm
; infill extrusion width = 0.50mm
; solid infill extrusion width = 0.50mm
; top infill extrusion width = 0.40mm

M107 ; disable fan
M190 S70 ; attente chauffe plateau
M104 S195 ; préchauffe tête
G92 Z0
G1 Z5 F1200
G28 Y ; prise d'origine en Y
G28 X ; prise d'origine en X
G1 X70 Y70 F6000 ; parking
M109 S195 ; attente chauffe T0
G21 ; set units to millimeters
G90 ; use absolute coordinates
M82 ; use absolute distances for extrusion
G92 E0 ; reset extrusion distance
G1 E-3.50000 F3000.00000 ; retract
G92 E0 ; reset extrusion distance
G1 Z0.250 F7500.000 ; move to next layer (0)
G1 X48.319 Y50.914 F7500.000 ; move to first skirt point
G1 E3.50000 F3000.00000 ; unretract
G1 F1200
G1 X48.885 Y50.026 E3.54885 ; skirt
G1 X49.317 Y49.647 E3.57551 ; skirt
G1 X49.816 Y49.361 E3.60217 ; skirt
G1 X50.361 Y49.179 E3.62884 ; skirt
G1 X50.935 Y49.108 E3.65569 ; skirt
G1 X91.004 Y49.107 E5.51459 ; skirt
G1 X91.551 Y49.160 E5.54009 ; skirt
G1 X92.078 Y49.316 E5.56559 ; skirt
G1 X92.567 Y49.568 E5.59109 ; skirt
G1 X92.998 Y49.908 E5.61658 ; skirt
G1 X93.358 Y50.324 E5.64208 ; skirt
G1 X93.632 Y50.800 E5.66758 ; skirt
G1 X93.812 Y51.320 E5.69308 ; skirt
G1 X93.889 Y51.864 E5.71858 ; skirt
G1 X93.892 Y92.050 E7.58293 ; skirt
G1 X93.681 Y93.086 E7.63197 ; skirt
G1 X93.115 Y93.974 E7.68082 ; skirt
G1 X92.672 Y94.360 E7.70807 ; skirt
G1 X92.157 Y94.651 E7.73551 ; skirt
G1 X91.598 Y94.830 E7.76275 ; skirt
G1 X91.010 Y94.893 E7.79019 ; skirt
G1 X50.945 Y94.892 E9.64889 ; skirt
G1 X49.914 Y94.681 E9.69774 ; skirt
G1 X49.026 Y94.115 E9.74659 ; skirt
G1 X48.640 Y93.672 E9.77384 ; skirt
G1 X48.349 Y93.157 E9.80127 ; skirt
G1 X48.170 Y92.598 E9.82852 ; skirt
G1 X48.107 Y92.010 E9.85596 ; skirt
G1 X48.108 Y51.945 E11.71466 ; skirt
G1 X48.304 Y50.987 E11.76003 ; skirt
G1 E8.26003 F3000.00000 ; retract
G92 E0 ; reset extrusion distance
G1 X50.011 Y49.762 F7500.000 ; move to first skirt point
G1 E3.50000 F3000.00000 ; unretract
G1 F1200
G1 X50.956 Y49.554 E3.54488 ; skirt
G1 X91.004 Y49.554 E5.40282 ; skirt
G1 X91.916 Y49.732 E5.44594 ; skirt
G1 X92.696 Y50.237 E5.48906 ; skirt
G1 X93.231 Y50.997 E5.53217 ; skirt
G1 X93.444 Y51.902 E5.57529 ; skirt
G1 X93.446 Y92.039 E7.43735 ; skirt
G1 X93.267 Y92.920 E7.47906 ; skirt
G1 X92.782 Y93.676 E7.52077 ; skirt
G1 X92.409 Y94.000 E7.54368 ; skirt
G1 X91.975 Y94.244 E7.56677 ; skirt
G1 X91.501 Y94.395 E7.58985 ; skirt
G1 X91.006 Y94.446 E7.61294 ; skirt
G1 X50.961 Y94.446 E9.47070 ; skirt
G1 X50.080 Y94.267 E9.51241 ; skirt
G1 X49.321 Y93.779 E9.55429 ; skirt
G1 X48.995 Y93.402 E9.57738 ; skirt
G1 X48.755 Y92.971 E9.60029 ; skirt
G1 X48.605 Y92.501 E9.62319 ; skirt
G1 X48.554 Y92.006 E9.64628 ; skirt
G1 X48.554 Y51.961 E11.50404 ; skirt
G1 X48.733 Y51.080 E11.54575 ; skirt
G1 X49.218 Y50.324 E11.58746 ; skirt
G1 X49.950 Y49.806 E11.62903 ; skirt
G1 E8.12903 F3000.00000 ; retract
G92 E0 ; reset extrusion distance
G1 X90.304 Y91.304 F7500.000 ; move to first perimeter point
G1 E3.50000 F3000.00000 ; unretract
G1 F1200
G1 X51.696 Y91.304 E5.29109 ; perimeter
G1 X51.696 Y52.696 E7.08219 ; perimeter
G1 X90.304 Y52.696 E8.87328 ; perimeter
G1 X90.304 Y91.229 E10.66090 ; perimeter
G1 E7.16090 F3000.00000 ; retract
G92 E0 ; reset extrusion distance
G1 X90.750 Y91.750 F7500.000 ; move to first perimeter point
G1 E3.50000 F3000.00000 ; unretract
G1 F1080
G1 X51.250 Y91.750 E5.33251 ; perimeter
G1 X51.250 Y52.250 E7.16502 ; perimeter
G1 X90.750 Y52.250 E8.99753 ; perimeter
G1 X90.750 Y91.675 E10.82656 ; perimeter
G1 X90.267 Y91.621 F7500.000 ; move inwards before travel
G1 E7.32656 F3000.00000 ; retract
G92 E0 ; reset extrusion distance
G1 X90.125 Y53.780 F7500.000 ; move to first infill point
G1 E3.50000 F3000.00000 ; unretract
G1 F1200
G1 X89.421 Y53.076 E3.54632 ; infill
G1 X88.788 Y53.076 E3.57576 ; infill
G1 X89.924 Y54.212 E3.65051 ; infill
G1 X89.924 Y54.845 E3.67996 ; infill
G1 X88.155 Y53.076 E3.79635 ; infill
G1 X87.522 Y53.076 E3.82579 ; infill
G1 X89.924 Y55.478 E3.98383 ; infill
G1 X89.924 Y56.111 E4.01327 ; infill
G1 X86.889 Y53.076 E4.21295 ; infill
G1 X86.256 Y53.076 E4.24240 ; infill
G1 X89.924 Y56.744 E4.48372 ; infill
G1 X89.924 Y57.377 E4.51316 ; infill
G1 X85.623 Y53.076 E4.79613 ; infill
G1 X84.990 Y53.076 E4.82557 ; infill
G1 X89.924 Y58.010 E5.15018 ; infill
G1 X89.924 Y58.643 E5.17963 ; infill
G1 X84.357 Y53.076 E5.54587 ; infill
G1 X83.724 Y53.076 E5.57532 ; infill
G1 X89.924 Y59.276 E5.98321 ; infill
G1 X89.924 Y59.909 E6.01266 ; infill
G1 X83.091 Y53.076 E6.46219 ; infill
G1 X82.458 Y53.076 E6.49164 ; infill
G1 X89.924 Y60.542 E6.98282 ; infill
G1 X89.924 Y61.175 E7.01227 ; infill
G1 X81.825 Y53.076 E7.54509 ; infill
G1 X81.192 Y53.076 E7.57453 ; infill
G1 X89.924 Y61.808 E8.14900 ; infill
G1 X89.924 Y62.441 E8.17844 ; infill
G1 X80.559 Y53.076 E8.79455 ; infill
G1 X79.927 Y53.076 E8.82400 ; infill
G1 X89.924 Y63.073 E9.48175 ; infill
G1 X89.924 Y63.706 E9.51120 ; infill
G1 X79.294 Y53.076 E10.21059 ; infill
G1 X78.661 Y53.076 E10.24004 ; infill
G1 X89.924 Y64.339 E10.98107 ; infill
G1 X89.924 Y64.972 E11.01052 ; infill
G1 X78.028 Y53.076 E11.79320 ; infill
G1 X77.395 Y53.076 E11.82265 ; infill
G1 X89.924 Y65.605 E12.64697 ; infill
G1 X89.924 Y66.238 E12.67642 ; infill
G1 X76.762 Y53.076 E13.54238 ; infill
G1 X76.129 Y53.076 E13.57183 ; infill
G1 X89.924 Y66.871 E14.47944 ; infill
G1 X89.924 Y67.504 E14.50889 ; infill
G1 X75.496 Y53.076 E15.45814 ; infill
G1 X74.863 Y53.076 E15.48759 ; infill
G1 X89.924 Y68.137 E16.47848 ; infill
G1 X89.924 Y68.770 E16.50793 ; infill
G1 X74.230 Y53.076 E17.54047 ; infill
G1 X73.597 Y53.076 E17.56991 ; infill
G1 X89.924 Y69.403 E18.64410 ; infill
G1 X89.924 Y70.036 E18.67354 ; infill
G1 X72.964 Y53.076 E19.78937 ; infill
G1 X72.331 Y53.076 E19.81882 ; infill
G1 X89.924 Y70.669 E20.97628 ; infill
G1 X89.924 Y71.302 E21.00573 ; infill
G1 X71.698 Y53.076 E22.20484 ; infill
G1 X71.065 Y53.076 E22.23429 ; infill
G1 X89.924 Y71.935 E23.47504 ; infill
G1 X89.924 Y72.568 E23.50449 ; infill
G1 X70.432 Y53.076 E24.78689 ; infill
G1 X69.799 Y53.076 E24.81633 ; infill
G1 X89.924 Y73.201 E26.14038 ; infill
G1 X89.924 Y73.834 E26.16982 ; infill
G1 X69.166 Y53.076 E27.53551 ; infill
G1 X68.533 Y53.076 E27.56495 ; infill
G1 X89.924 Y74.467 E28.97228 ; infill
G1 X89.924 Y75.100 E29.00173 ; infill
G1 X67.900 Y53.076 E30.45070 ; infill
G1 X67.267 Y53.076 E30.48014 ; infill
G1 X89.924 Y75.733 E31.97076 ; infill
G1 X89.924 Y76.366 E32.00020 ; infill
G1 X66.634 Y53.076 E33.53246 ; infill
G1 X66.001 Y53.076 E33.56191 ; infill
G1 X89.924 Y76.999 E35.13581 ; infill
G1 X89.924 Y77.632 E35.16525 ; infill
G1 X65.368 Y53.076 E36.78080 ; infill
G1 X64.735 Y53.076 E36.81024 ; infill
G1 X89.924 Y78.265 E38.46743 ; infill
G1 X89.924 Y78.898 E38.49688 ; infill
G1 X64.102 Y53.076 E40.19570 ; infill
G1 X63.469 Y53.076 E40.22515 ; infill
G1 X89.924 Y79.531 E41.96562 ; infill
G1 X89.924 Y80.164 E41.99507 ; infill
G1 X62.836 Y53.076 E43.77719 ; infill
G1 X62.203 Y53.076 E43.80663 ; infill
G1 X89.924 Y80.797 E45.63039 ; infill
G1 X89.924 Y81.430 E45.65984 ; infill
G1 X61.570 Y53.076 E47.52524 ; infill
G1 X60.937 Y53.076 E47.55469 ; infill
G1 X89.924 Y82.063 E49.46173 ; infill
G1 X89.924 Y82.696 E49.49118 ; infill
G1 X60.304 Y53.076 E51.43987 ; infill
G1 X59.671 Y53.076 E51.46931 ; infill
G1 X89.924 Y83.329 E53.45964 ; infill
G1 X89.924 Y83.962 E53.48909 ; infill
G1 X59.038 Y53.076 E55.52106 ; infill
G1 X58.405 Y53.076 E55.55051 ; infill
G1 X89.924 Y84.595 E57.62413 ; infill
G1 X89.924 Y85.228 E57.65357 ; infill
G1 X57.772 Y53.076 E59.76884 ; infill
G1 X57.140 Y53.076 E59.79828 ; infill
G1 X89.924 Y85.860 E61.95519 ; infill
G1 X89.924 Y86.493 E61.98463 ; infill
G1 X56.507 Y53.076 E64.18318 ; infill
G1 X55.874 Y53.076 E64.21263 ; infill
G1 X89.924 Y87.126 E66.45282 ; infill
G1 X89.924 Y87.759 E66.48226 ; infill
G1 X55.241 Y53.076 E68.76410 ; infill
G1 X54.608 Y53.076 E68.79354 ; infill
G1 X89.924 Y88.392 E71.11702 ; infill
G1 X89.924 Y89.025 E71.14646 ; infill
G1 X53.975 Y53.076 E73.51158 ; infill
G1 X53.342 Y53.076 E73.54103 ; infill
G1 X89.924 Y89.658 E75.94779 ; infill
G1 X89.924 Y90.291 E75.97724 ; infill
G1 X52.709 Y53.076 E78.42565 ; infill
G1 X52.076 Y53.076 E78.45509 ; infill
G1 X89.924 Y90.924 E80.94514 ; infill
G1 X89.291 Y90.924 E80.97459 ; infill
G1 X52.076 Y53.709 E83.42299 ; infill
G1 X52.076 Y54.342 E83.45244 ; infill
G1 X88.658 Y90.924 E85.85920 ; infill
G1 X88.025 Y90.924 E85.88865 ; infill
G1 X52.076 Y54.975 E88.25377 ; infill
G1 X52.076 Y55.608 E88.28322 ; infill
G1 X87.392 Y90.924 E90.60669 ; infill
G1 X86.759 Y90.924 E90.63614 ; infill
G1 X52.076 Y56.241 E92.91797 ; infill
G1 X52.076 Y56.874 E92.94742 ; infill
G1 X86.126 Y90.924 E95.18761 ; infill
G1 X85.493 Y90.924 E95.21706 ; infill
G1 X52.076 Y57.507 E97.41561 ; infill
G1 X52.076 Y58.139 E97.44505 ; infill
G1 X84.861 Y90.924 E99.60196 ; infill
G1 X84.228 Y90.924 E99.63140 ; infill
G1 X52.076 Y58.772 E101.74666 ; infill
G1 X52.076 Y59.405 E101.77611 ; infill
G1 X83.595 Y90.924 E103.84973 ; infill
G1 X82.962 Y90.924 E103.87918 ; infill
G1 X52.076 Y60.038 E105.91115 ; infill
G1 X52.076 Y60.671 E105.94060 ; infill
G1 X82.329 Y90.924 E107.93093 ; infill
G1 X81.696 Y90.924 E107.96038 ; infill
G1 X52.076 Y61.304 E109.90907 ; infill
G1 X52.076 Y61.937 E109.93851 ; infill
G1 X81.063 Y90.924 E111.84556 ; infill
G1 X80.430 Y90.924 E111.87500 ; infill
G1 X52.076 Y62.570 E113.74041 ; infill
G1 X52.076 Y63.203 E113.76985 ; infill
G1 X79.797 Y90.924 E115.59361 ; infill
G1 X79.164 Y90.924 E115.62306 ; infill
G1 X52.076 Y63.836 E117.40518 ; infill
G1 X52.076 Y64.469 E117.43462 ; infill
G1 X78.531 Y90.924 E119.17509 ; infill
G1 X77.898 Y90.924 E119.20454 ; infill
G1 X52.076 Y65.102 E120.90337 ; infill
G1 X52.076 Y65.735 E120.93282 ; infill
G1 X77.265 Y90.924 E122.59000 ; infill
G1 X76.632 Y90.924 E122.61945 ; infill
G1 X52.076 Y66.368 E124.23500 ; infill
G1 X52.076 Y67.001 E124.26444 ; infill
G1 X75.999 Y90.924 E125.83834 ; infill
G1 X75.366 Y90.924 E125.86779 ; infill
G1 X52.076 Y67.634 E127.40005 ; infill
G1 X52.076 Y68.267 E127.42949 ; infill
G1 X74.733 Y90.924 E128.92011 ; infill
G1 X74.100 Y90.924 E128.94955 ; infill
G1 X52.076 Y68.900 E130.39852 ; infill
G1 X52.076 Y69.533 E130.42797 ; infill
G1 X73.467 Y90.924 E131.83530 ; infill
G1 X72.834 Y90.924 E131.86475 ; infill
G1 X52.076 Y70.166 E133.23043 ; infill
G1 X52.076 Y70.799 E133.25988 ; infill
G1 X72.201 Y90.924 E134.58392 ; infill
G1 X71.568 Y90.924 E134.61337 ; infill
G1 X52.076 Y71.432 E135.89576 ; infill
G1 X52.076 Y72.065 E135.92521 ; infill
G1 X70.935 Y90.924 E137.16597 ; infill
G1 X70.302 Y90.924 E137.19541 ; infill
G1 X52.076 Y72.698 E138.39453 ; infill
G1 X52.076 Y73.331 E138.42397 ; infill
G1 X69.669 Y90.924 E139.58144 ; infill
G1 X69.036 Y90.924 E139.61089 ; infill
G1 X52.076 Y73.964 E140.72671 ; infill
G1 X52.076 Y74.597 E140.75616 ; infill
G1 X68.403 Y90.924 E141.83034 ; infill
G1 X67.770 Y90.924 E141.85979 ; infill
G1 X52.076 Y75.230 E142.89233 ; infill
G1 X52.076 Y75.863 E142.92178 ; infill
G1 X67.137 Y90.924 E143.91267 ; infill
G1 X66.504 Y90.924 E143.94212 ; infill
G1 X52.076 Y76.496 E144.89137 ; infill
G1 X52.076 Y77.129 E144.92082 ; infill
G1 X65.871 Y90.924 E145.82843 ; infill
G1 X65.238 Y90.924 E145.85788 ; infill
G1 X52.076 Y77.762 E146.72384 ; infill
G1 X52.076 Y78.395 E146.75329 ; infill
G1 X64.605 Y90.924 E147.57761 ; infill
G1 X63.972 Y90.924 E147.60706 ; infill
G1 X52.076 Y79.028 E148.38974 ; infill
G1 X52.076 Y79.661 E148.41919 ; infill
G1 X63.339 Y90.924 E149.16023 ; infill
G1 X62.706 Y90.924 E149.18967 ; infill
G1 X52.076 Y80.294 E149.88907 ; infill
G1 X52.076 Y80.927 E149.91851 ; infill
G1 X62.073 Y90.924 E150.57626 ; infill
G1 X61.441 Y90.924 E150.60571 ; infill
G1 X52.076 Y81.559 E151.22182 ; infill
G1 X52.076 Y82.192 E151.25127 ; infill
G1 X60.808 Y90.924 E151.82573 ; infill
G1 X60.175 Y90.924 E151.85518 ; infill
G1 X52.076 Y82.825 E152.38800 ; infill
G1 X52.076 Y83.458 E152.41745 ; infill
G1 X59.542 Y90.924 E152.90863 ; infill
G1 X58.909 Y90.924 E152.93807 ; infill
G1 X52.076 Y84.091 E153.38761 ; infill
G1 X52.076 Y84.724 E153.41705 ; infill
G1 X58.276 Y90.924 E153.82495 ; infill
G1 X57.643 Y90.924 E153.85439 ; infill
G1 X52.076 Y85.357 E154.22064 ; infill
G1 X52.076 Y85.990 E154.25009 ; infill
G1 X57.010 Y90.924 E154.57470 ; infill
G1 X56.377 Y90.924 E154.60414 ; infill
G1 X52.076 Y86.623 E154.88711 ; infill
G1 X52.076 Y87.256 E154.91655 ; infill
G1 X55.744 Y90.924 E155.15787 ; infill
G1 X55.111 Y90.924 E155.18732 ; infill
G1 X52.076 Y87.889 E155.38700 ; infill
G1 X52.076 Y88.522 E155.41644 ; infill
G1 X54.478 Y90.924 E155.57448 ; infill
G1 X53.845 Y90.924 E155.60392 ; infill
G1 X52.076 Y89.155 E155.72031 ; infill
G1 X52.076 Y89.788 E155.74976 ; infill
G1 X53.212 Y90.924 E155.82451 ; infill
G1 X52.579 Y90.924 E155.85395 ; infill
G1 X51.875 Y90.220 E155.90027 ; infill
M104 S200 ; set temperature
M140 S65 ; set bed temperature
G1 E152.40027 F3000.00000 ; retract
G92 E0 ; reset extrusion distance
G1 Z0.500 F7500.000 ; move to next layer (1)
G1 X90.404 Y91.404 F7500.000 ; move to first perimeter point
G1 E3.50000 F3000.00000 ; unretract
G1 F2400
G1 X51.596 Y91.404 E5.30037 ; perimeter
G1 X51.596 Y52.596 E7.10075 ; perimeter
G1 X90.404 Y52.596 E8.90112 ; perimeter
G1 X90.404 Y91.329 E10.69801 ; perimeter
G1 E7.19801 F3000.00000 ; retract
G92 E0 ; reset extrusion distance
G1 X90.800 Y91.800 F7500.000 ; move to first perimeter point
G1 E3.50000 F3000.00000 ; unretract
G1 F2160
G1 X51.200 Y91.800 E4.92555 ; perimeter
G1 X51.200 Y52.200 E6.35111 ; perimeter
G1 X90.800 Y52.200 E7.77666 ; perimeter
G1 X90.800 Y91.725 E9.19952 ; perimeter
G1 X90.317 Y91.671 F7500.000 ; move inwards before travel
G1 E5.69952 F3000.00000 ; retract
G92 E0 ; reset extrusion distance
G1 X89.315 Y91.225 F7500.000 ; move to first infill point
G1 E3.50000 F3000.00000 ; unretract
G1 F2400
G1 X90.024 Y90.516 E3.54689 ; infill
G1 X90.024 Y89.880 E3.57664 ; infill
G1 X88.880 Y91.024 E3.65233 ; infill
G1 X88.244 Y91.024 E3.68208 ; infill
G1 X90.024 Y89.244 E3.79985 ; infill
G1 X90.024 Y88.607 E3.82960 ; infill
G1 X87.607 Y91.024 E3.98944 ; infill
G1 X86.971 Y91.024 E4.01920 ; infill
G1 X90.024 Y87.971 E4.22112 ; infill
G1 X90.024 Y87.335 E4.25088 ; infill
G1 X86.335 Y91.024 E4.49488 ; infill
G1 X85.698 Y91.024 E4.52463 ; infill
G1 X90.024 Y86.698 E4.81071 ; infill
G1 X90.024 Y86.062 E4.84047 ; infill
G1 X85.062 Y91.024 E5.16863 ; infill
G1 X84.426 Y91.024 E5.19838 ; infill
G1 X90.024 Y85.426 E5.56862 ; infill
G1 X90.024 Y84.790 E5.59838 ; infill
G1 X83.790 Y91.024 E6.01070 ; infill
G1 X83.153 Y91.024 E6.04045 ; infill
G1 X90.024 Y84.153 E6.49485 ; infill
G1 X90.024 Y83.517 E6.52460 ; infill
G1 X82.517 Y91.024 E7.02108 ; infill
G1 X81.881 Y91.024 E7.05084 ; infill
G1 X90.024 Y82.881 E7.58939 ; infill
G1 X90.024 Y82.245 E7.61915 ; infill
G1 X81.245 Y91.024 E8.19978 ; infill
G1 X80.608 Y91.024 E8.22954 ; infill
G1 X90.024 Y81.608 E8.85225 ; infill
G1 X90.024 Y80.972 E8.88201 ; infill
G1 X79.972 Y91.024 E9.54680 ; infill
G1 X79.336 Y91.024 E9.57656 ; infill
G1 X90.024 Y80.336 E10.28343 ; infill
G1 X90.024 Y79.699 E10.31319 ; infill
G1 X78.699 Y91.024 E11.06214 ; infill
G1 X78.063 Y91.024 E11.09190 ; infill
G1 X90.024 Y79.063 E11.88293 ; infill
G1 X90.024 Y78.427 E11.91268 ; infill
G1 X77.427 Y91.024 E12.74580 ; infill
G1 X76.791 Y91.024 E12.77555 ; infill
G1 X90.024 Y77.791 E13.65074 ; infill
G1 X90.024 Y77.154 E13.68050 ; infill
G1 X76.154 Y91.024 E14.59777 ; infill
G1 X75.518 Y91.024 E14.62752 ; infill
G1 X90.024 Y76.518 E15.58687 ; infill
G1 X90.024 Y75.882 E15.61663 ; infill
G1 X74.882 Y91.024 E16.61806 ; infill
G1 X74.245 Y91.024 E16.64781 ; infill
G1 X90.024 Y75.245 E17.69132 ; infill
G1 X90.024 Y74.609 E17.72108 ; infill
G1 X73.609 Y91.024 E18.80666 ; infill
G1 X72.973 Y91.024 E18.83642 ; infill
G1 X90.024 Y73.973 E19.96409 ; infill
G1 X90.024 Y73.337 E19.99384 ; infill
