; generated by Slic3r 1.34.1-prusa3d-win64 on 2017-08-25 at 17:17:01

; Buse OEV5 - diamètre 0,5mm

; external perimeters extrusion width = 0.40mm
; perimeters extrusion width = 0.50mm
; infill extrusion width = 0.50mm
; solid infill extrusion width = 0.50mm
; top infill extrusion width = 0.40mm

; external perimeters extrusion width = 0.40mm
; perimeters extrusion width = 0.50mm
; infill extrusion width = 0.50mm
; solid infill extrusion width = 0.50mm
; top infill extrusion width = 0.40mm

M107 ; disable fan
M190 S70 ; attente chauffe plateau
M104 S200 ; préchauffe tête
G92 Z0
G1 Z5 F1200
G28 Y ; prise d'origine en Y
G28 X ; prise d'origine en X
G1 X70 Y70 F6000 ; parking
M109 S200 ; attente chauffe T0
G21 ; set units to millimeters
G90 ; use absolute coordinates
M82 ; use absolute distances for extrusion
G92 E0 ; reset extrusion distance
G1 E-3.50000 F3000.00000 ; retract
G92 E0 ; reset extrusion distance
G1 Z0.250 F7500.000 ; move to next layer (0)
G1 X40.956 Y36.589 F7500.000 ; move to first skirt point
G1 E3.50000 F3000.00000 ; unretract
G1 F1800
G1 X42.480 Y34.882 E3.60616 ; skirt
G1 X43.997 Y33.609 E3.69803 ; skirt
G1 X45.625 Y32.564 E3.78777 ; skirt
G1 X47.378 Y31.730 E3.87786 ; skirt
G1 X48.927 Y31.205 E3.95372 ; skirt
G1 X49.891 Y30.965 E3.99982 ; skirt
G1 X51.848 Y30.677 E4.09159 ; skirt
G1 X87.205 Y30.629 E5.73187 ; skirt
G1 X89.128 Y30.789 E5.82141 ; skirt
G1 X91.067 Y31.203 E5.91340 ; skirt
G1 X93.436 Y32.085 E6.03066 ; skirt
G1 X95.171 Y33.039 E6.12252 ; skirt
G1 X96.735 Y34.181 E6.21235 ; skirt
G1 X98.553 Y35.969 E6.33066 ; skirt
G1 X99.760 Y37.568 E6.42360 ; skirt
G1 X100.698 Y39.207 E6.51122 ; skirt
G1 X101.431 Y40.959 E6.59932 ; skirt
G1 X112.107 Y73.829 E8.20268 ; skirt
G1 X112.523 Y75.650 E8.28934 ; skirt
G1 X112.651 Y76.623 E8.33483 ; skirt
G1 X112.728 Y78.260 E8.41091 ; skirt
G1 X112.596 Y80.183 E8.50033 ; skirt
G1 X112.240 Y82.005 E8.58645 ; skirt
G1 X111.423 Y84.347 E8.70150 ; skirt
G1 X110.413 Y86.274 E8.80243 ; skirt
G1 X109.282 Y87.860 E8.89281 ; skirt
G1 X108.146 Y89.110 E8.97118 ; skirt
G1 X107.395 Y89.803 E9.01857 ; skirt
G1 X106.631 Y90.422 E9.06419 ; skirt
G1 X78.715 Y110.702 E10.66498 ; skirt
G1 X77.161 Y111.639 E10.74915 ; skirt
G1 X75.639 Y112.333 E10.82676 ; skirt
G1 X74.514 Y112.729 E10.88208 ; skirt
G1 X72.768 Y113.157 E10.96549 ; skirt
G1 X70.936 Y113.379 E11.05110 ; skirt
G1 X69.156 Y113.384 E11.13370 ; skirt
G1 X68.064 Y113.285 E11.18454 ; skirt
G1 X66.297 Y112.956 E11.26792 ; skirt
G1 X64.839 Y112.511 E11.33863 ; skirt
G1 X63.682 Y112.052 E11.39639 ; skirt
G1 X62.113 Y111.232 E11.47854 ; skirt
G1 X61.255 Y110.682 E11.52580 ; skirt
G1 X33.361 Y90.416 E13.12538 ; skirt
G1 X31.894 Y89.150 E13.21527 ; skirt
G1 X30.650 Y87.778 E13.30119 ; skirt
G1 X29.508 Y86.143 E13.39373 ; skirt
G1 X28.368 Y83.862 E13.51202 ; skirt
G1 X27.785 Y82.099 E13.59819 ; skirt
G1 X27.407 Y80.203 E13.68786 ; skirt
G1 X27.272 Y78.345 E13.77428 ; skirt
G1 X27.361 Y76.483 E13.86077 ; skirt
G1 X27.686 Y74.601 E13.94936 ; skirt
G1 X38.899 Y40.093 E15.63269 ; skirt
G1 X39.749 Y38.366 E15.72199 ; skirt
G1 X40.841 Y36.717 E15.81372 ; skirt
G1 X40.906 Y36.645 E15.81824 ; skirt
G1 X41.238 Y36.942 F7500.000 ; move to first skirt point
G1 F1800
G1 X42.794 Y35.200 E15.92660 ; skirt
G1 X44.261 Y33.968 E16.01545 ; skirt
G1 X45.840 Y32.955 E16.10249 ; skirt
G1 X47.532 Y32.149 E16.18944 ; skirt
G1 X49.057 Y31.631 E16.26416 ; skirt
G1 X49.990 Y31.400 E16.30877 ; skirt
G1 X51.881 Y31.122 E16.39740 ; skirt
G1 X87.204 Y31.075 E18.03616 ; skirt
G1 X89.065 Y31.231 E18.12279 ; skirt
G1 X90.938 Y31.630 E18.21164 ; skirt
G1 X93.250 Y32.491 E18.32611 ; skirt
G1 X94.930 Y33.415 E18.41504 ; skirt
G1 X96.442 Y34.518 E18.50189 ; skirt
G1 X98.221 Y36.267 E18.61762 ; skirt
G1 X99.388 Y37.815 E18.70754 ; skirt
G1 X100.300 Y39.409 E18.79276 ; skirt
G1 X101.008 Y41.101 E18.87785 ; skirt
G1 X111.675 Y73.941 E20.47973 ; skirt
G1 X112.081 Y75.712 E20.56403 ; skirt
G1 X112.206 Y76.658 E20.60831 ; skirt
G1 X112.282 Y78.264 E20.68289 ; skirt
G1 X112.152 Y80.130 E20.76966 ; skirt
G1 X111.806 Y81.899 E20.85330 ; skirt
G1 X111.529 Y82.838 E20.89870 ; skirt
G1 X110.922 Y84.383 E20.97571 ; skirt
G1 X110.033 Y86.040 E21.06297 ; skirt
G1 X109.495 Y86.846 E21.10793 ; skirt
G1 X108.453 Y88.142 E21.18507 ; skirt
G1 X107.100 Y89.468 E21.27295 ; skirt
G1 X78.465 Y110.332 E22.91661 ; skirt
G1 X76.951 Y111.246 E22.99868 ; skirt
G1 X75.469 Y111.920 E23.07423 ; skirt
G1 X74.391 Y112.300 E23.12721 ; skirt
G1 X72.690 Y112.718 E23.20851 ; skirt
G1 X70.906 Y112.934 E23.29186 ; skirt
G1 X69.169 Y112.938 E23.37243 ; skirt
G1 X68.130 Y112.843 E23.42086 ; skirt
G1 X66.404 Y112.522 E23.50227 ; skirt
G1 X64.985 Y112.090 E23.57111 ; skirt
G1 X63.867 Y111.645 E23.62695 ; skirt
G1 X62.336 Y110.845 E23.70709 ; skirt
G1 X61.510 Y110.316 E23.75258 ; skirt
G1 X33.627 Y90.058 E25.35151 ; skirt
G1 X32.211 Y88.836 E25.43828 ; skirt
G1 X30.999 Y87.501 E25.52192 ; skirt
G1 X29.893 Y85.916 E25.61162 ; skirt
G1 X28.778 Y83.686 E25.72725 ; skirt
G1 X28.213 Y81.974 E25.81091 ; skirt
G1 X27.849 Y80.141 E25.89762 ; skirt
G1 X27.718 Y78.337 E25.98151 ; skirt
G1 X27.805 Y76.529 E26.06549 ; skirt
G1 X28.120 Y74.708 E26.15121 ; skirt
G1 X39.313 Y40.259 E27.83165 ; skirt
G1 X40.136 Y38.588 E27.91808 ; skirt
G1 X41.189 Y36.998 E28.00653 ; skirt
G1 E24.50653 F3000.00000 ; retract
G92 E0 ; reset extrusion distance
G1 X70.201 Y57.584 F7500.000 ; move to first perimeter point
G1 E3.50000 F3000.00000 ; unretract
G1 F1800
G1 X70.633 Y57.591 E3.52006 ; perimeter
G1 X71.474 Y57.668 E3.55921 ; perimeter
G1 X72.308 Y57.804 E3.59842 ; perimeter
G1 X73.129 Y58.002 E3.63760 ; perimeter
G1 X73.934 Y58.257 E3.67679 ; perimeter
G1 X74.719 Y58.569 E3.71598 ; perimeter
G1 X75.478 Y58.937 E3.75510 ; perimeter
G1 X76.210 Y59.358 E3.79426 ; perimeter
G1 X76.910 Y59.833 E3.83352 ; perimeter
G1 X77.571 Y60.356 E3.87263 ; perimeter
G1 X78.196 Y60.926 E3.91185 ; perimeter
G1 X78.777 Y61.539 E3.95106 ; perimeter
G1 X79.311 Y62.194 E3.99024 ; perimeter
G1 X79.798 Y62.882 E4.02936 ; perimeter
G1 X80.234 Y63.608 E4.06865 ; perimeter
G1 X80.614 Y64.361 E4.10777 ; perimeter
G1 X80.942 Y65.138 E4.14691 ; perimeter
G1 X81.212 Y65.939 E4.18610 ; perimeter
G1 X81.422 Y66.757 E4.22530 ; perimeter
G1 X81.576 Y67.587 E4.26445 ; perimeter
G1 X81.665 Y68.427 E4.30365 ; perimeter
G1 X81.697 Y69.271 E4.34284 ; perimeter
G1 X81.665 Y70.115 E4.38202 ; perimeter
G1 X81.576 Y70.955 E4.42122 ; perimeter
G1 X81.422 Y71.785 E4.46037 ; perimeter
G1 X81.212 Y72.603 E4.49957 ; perimeter
G1 X80.942 Y73.404 E4.53876 ; perimeter
G1 X80.615 Y74.181 E4.57789 ; perimeter
G1 X80.234 Y74.936 E4.61711 ; perimeter
G1 X79.798 Y75.660 E4.65632 ; perimeter
G1 X79.311 Y76.350 E4.69551 ; perimeter
G1 X78.777 Y77.004 E4.73465 ; perimeter
G1 X78.196 Y77.616 E4.77383 ; perimeter
G1 X77.571 Y78.186 E4.81305 ; perimeter
G1 X76.910 Y78.709 E4.85216 ; perimeter
G1 X76.210 Y79.184 E4.89141 ; perimeter
G1 X75.479 Y79.604 E4.93054 ; perimeter
G1 X74.720 Y79.974 E4.96970 ; perimeter
G1 X73.934 Y80.287 E5.00893 ; perimeter
G1 X73.128 Y80.542 E5.04816 ; perimeter
G1 X72.307 Y80.738 E5.08732 ; perimeter
G1 X71.474 Y80.874 E5.12649 ; perimeter
G1 X70.634 Y80.951 E5.16562 ; perimeter
G1 X69.790 Y80.966 E5.20478 ; perimeter
G1 X68.946 Y80.921 E5.24399 ; perimeter
G1 X68.107 Y80.815 E5.28323 ; perimeter
G1 X67.280 Y80.647 E5.32238 ; perimeter
G1 X66.465 Y80.421 E5.36158 ; perimeter
G1 X65.670 Y80.136 E5.40078 ; perimeter
G1 X64.898 Y79.796 E5.43991 ; perimeter
G1 X64.152 Y79.401 E5.47909 ; perimeter
G1 X63.435 Y78.952 E5.51831 ; perimeter
G1 X62.755 Y78.454 E5.55743 ; perimeter
G1 X62.110 Y77.907 E5.59666 ; perimeter
G1 X61.508 Y77.314 E5.63587 ; perimeter
G1 X60.949 Y76.681 E5.67506 ; perimeter
G1 X60.439 Y76.009 E5.71420 ; perimeter
G1 X59.977 Y75.302 E5.75335 ; perimeter
G1 X59.569 Y74.562 E5.79257 ; perimeter
G1 X59.213 Y73.797 E5.83172 ; perimeter
G1 X58.916 Y73.005 E5.87095 ; perimeter
G1 X58.676 Y72.198 E5.91002 ; perimeter
G1 X58.493 Y71.372 E5.94924 ; perimeter
G1 X58.371 Y70.536 E5.98843 ; perimeter
G1 X58.310 Y69.694 E6.02760 ; perimeter
G1 X58.310 Y68.850 E6.06680 ; perimeter
G1 X58.371 Y68.006 E6.10606 ; perimeter
G1 X58.493 Y67.169 E6.14526 ; perimeter
G1 X58.676 Y66.346 E6.18437 ; perimeter
G1 X58.916 Y65.537 E6.22353 ; perimeter
G1 X59.213 Y64.745 E6.26277 ; perimeter
G1 X59.569 Y63.980 E6.30194 ; perimeter
G1 X59.977 Y63.242 E6.34105 ; perimeter
G1 X60.438 Y62.534 E6.38026 ; perimeter
G1 X60.949 Y61.861 E6.41943 ; perimeter
G1 X61.508 Y61.228 E6.45862 ; perimeter
G1 X62.110 Y60.635 E6.49782 ; perimeter
G1 X62.755 Y60.088 E6.53706 ; perimeter
G1 X63.435 Y59.590 E6.57617 ; perimeter
G1 X64.141 Y59.148 E6.61478 ; perimeter
G1 X64.898 Y58.746 E6.65456 ; perimeter
G1 X65.670 Y58.406 E6.69370 ; perimeter
G1 X66.465 Y58.121 E6.73291 ; perimeter
G1 X67.280 Y57.895 E6.77214 ; perimeter
G1 X68.108 Y57.729 E6.81128 ; perimeter
G1 X68.945 Y57.623 E6.85043 ; perimeter
G1 X69.776 Y57.577 E6.88904 ; perimeter
G1 X70.126 Y57.583 E6.90529 ; perimeter
G1 X70.194 Y58.030 F7500.000 ; move to first perimeter point
G1 F1620
G1 X70.609 Y58.037 E6.92458 ; perimeter
G1 X71.418 Y58.111 E6.96223 ; perimeter
G1 X72.219 Y58.242 E6.99993 ; perimeter
G1 X73.009 Y58.432 E7.03761 ; perimeter
G1 X73.784 Y58.677 E7.07532 ; perimeter
G1 X74.539 Y58.978 E7.11301 ; perimeter
G1 X75.269 Y59.332 E7.15065 ; perimeter
G1 X75.973 Y59.737 E7.18832 ; perimeter
G1 X76.646 Y60.193 E7.22605 ; perimeter
G1 X77.282 Y60.696 E7.26367 ; perimeter
G1 X77.883 Y61.244 E7.30141 ; perimeter
G1 X78.442 Y61.834 E7.33909 ; perimeter
G1 X78.955 Y62.464 E7.37679 ; perimeter
G1 X79.423 Y63.126 E7.41443 ; perimeter
G1 X79.843 Y63.824 E7.45220 ; perimeter
G1 X80.209 Y64.548 E7.48983 ; perimeter
G1 X80.524 Y65.296 E7.52750 ; perimeter
G1 X80.784 Y66.066 E7.56518 ; perimeter
G1 X80.986 Y66.853 E7.60289 ; perimeter
G1 X81.134 Y67.651 E7.64054 ; perimeter
G1 X81.219 Y68.459 E7.67823 ; perimeter
G1 X81.250 Y69.271 E7.71593 ; perimeter
G1 X81.219 Y70.083 E7.75362 ; perimeter
G1 X81.134 Y70.891 E7.79132 ; perimeter
G1 X80.986 Y71.689 E7.82896 ; perimeter
G1 X80.784 Y72.476 E7.86668 ; perimeter
G1 X80.524 Y73.246 E7.90435 ; perimeter
G1 X80.209 Y73.994 E7.94202 ; perimeter
G1 X79.843 Y74.720 E7.97974 ; perimeter
G1 X79.423 Y75.416 E8.01743 ; perimeter
G1 X78.955 Y76.080 E8.05515 ; perimeter
G1 X78.442 Y76.708 E8.09278 ; perimeter
G1 X77.883 Y77.298 E8.13045 ; perimeter
G1 X77.282 Y77.846 E8.16819 ; perimeter
G1 X76.646 Y78.349 E8.20582 ; perimeter
G1 X75.973 Y78.805 E8.24355 ; perimeter
G1 X75.269 Y79.210 E8.28120 ; perimeter
G1 X74.539 Y79.566 E8.31888 ; perimeter
G1 X73.784 Y79.867 E8.35659 ; perimeter
G1 X73.009 Y80.112 E8.39431 ; perimeter
G1 X72.219 Y80.300 E8.43197 ; perimeter
G1 X71.418 Y80.431 E8.46966 ; perimeter
G1 X70.610 Y80.505 E8.50729 ; perimeter
G1 X69.798 Y80.519 E8.54497 ; perimeter
G1 X68.986 Y80.476 E8.58269 ; perimeter
G1 X68.179 Y80.374 E8.62040 ; perimeter
G1 X67.384 Y80.212 E8.65806 ; perimeter
G1 X66.600 Y79.995 E8.69577 ; perimeter
G1 X65.835 Y79.721 E8.73347 ; perimeter
G1 X65.093 Y79.394 E8.77111 ; perimeter
G1 X64.375 Y79.014 E8.80881 ; perimeter
G1 X63.686 Y78.582 E8.84653 ; perimeter
G1 X63.031 Y78.103 E8.88415 ; perimeter
G1 X62.411 Y77.578 E8.92187 ; perimeter
G1 X61.832 Y77.007 E8.95958 ; perimeter
G1 X61.294 Y76.398 E8.99729 ; perimeter
G1 X60.804 Y75.751 E9.03494 ; perimeter
G1 X60.360 Y75.072 E9.07258 ; perimeter
G1 X59.967 Y74.360 E9.11030 ; perimeter
G1 X59.625 Y73.624 E9.14796 ; perimeter
G1 X59.339 Y72.863 E9.18568 ; perimeter
G1 X59.108 Y72.086 E9.22329 ; perimeter
G1 X58.932 Y71.292 E9.26100 ; perimeter
G1 X58.815 Y70.488 E9.29869 ; perimeter
G1 X58.756 Y69.678 E9.33637 ; perimeter
G1 X58.756 Y68.866 E9.37405 ; perimeter
G1 X58.815 Y68.054 E9.41182 ; perimeter
G1 X58.932 Y67.250 E9.44951 ; perimeter
G1 X59.108 Y66.458 E9.48713 ; perimeter
G1 X59.339 Y65.679 E9.52483 ; perimeter
G1 X59.625 Y64.918 E9.56255 ; perimeter
G1 X59.967 Y64.182 E9.60022 ; perimeter
G1 X60.360 Y63.472 E9.63785 ; perimeter
G1 X60.803 Y62.791 E9.67556 ; perimeter
G1 X61.294 Y62.144 E9.71322 ; perimeter
G1 X61.832 Y61.535 E9.75093 ; perimeter
G1 X62.411 Y60.964 E9.78864 ; perimeter
G1 X63.031 Y60.439 E9.82636 ; perimeter
G1 X63.686 Y59.960 E9.86398 ; perimeter
G1 X64.364 Y59.535 E9.90111 ; perimeter
G1 X65.093 Y59.148 E9.93939 ; perimeter
G1 X65.835 Y58.821 E9.97704 ; perimeter
G1 X66.600 Y58.547 E10.01474 ; perimeter
G1 X67.384 Y58.330 E10.05246 ; perimeter
G1 X68.180 Y58.170 E10.09011 ; perimeter
G1 X68.985 Y58.068 E10.12778 ; perimeter
G1 X69.784 Y58.024 E10.16491 ; perimeter
G1 X70.119 Y58.029 E10.18042 ; perimeter
G1 X70.402 Y57.670 F7500.000 ; move inwards before travel
G1 E6.68042 F3000.00000 ; retract
G92 E0 ; reset extrusion distance
G1 X54.091 Y34.616 F7500.000 ; move to first perimeter point
G1 E3.50000 F3000.00000 ; unretract
G1 F1800
G1 X54.215 Y34.509 E3.50762 ; perimeter
G1 X54.318 Y34.640 E3.51534 ; perimeter
G1 X54.761 Y34.336 E3.54027 ; perimeter
G1 X55.645 Y34.493 E3.58192 ; perimeter
G1 X56.513 Y34.723 E3.62357 ; perimeter
G1 X56.791 Y35.190 E3.64879 ; perimeter
G1 X56.935 Y35.115 E3.65633 ; perimeter
G1 X57.001 Y35.266 E3.66395 ; perimeter
G1 X57.509 Y35.074 E3.68915 ; perimeter
G1 X58.329 Y35.437 E3.73072 ; perimeter
G1 X58.959 Y35.772 E3.76385 ; perimeter
G1 X59.119 Y35.871 E3.77257 ; perimeter
G1 X59.283 Y36.392 E3.79794 ; perimeter
G1 X59.431 Y36.355 E3.80505 ; perimeter
G1 X59.458 Y36.508 E3.81227 ; perimeter
G1 X59.998 Y36.446 E3.83747 ; perimeter
G1 X60.707 Y36.995 E3.87911 ; perimeter
G1 X61.239 Y37.472 E3.91223 ; perimeter
G1 X61.369 Y37.603 E3.92080 ; perimeter
G1 X61.396 Y38.144 E3.94591 ; perimeter
G1 X61.556 Y38.144 E3.95334 ; perimeter
G1 X61.544 Y38.305 E3.96081 ; perimeter
G1 X62.086 Y38.374 E3.98613 ; perimeter
G1 X62.644 Y39.077 E4.02780 ; perimeter
G1 X63.142 Y39.829 E4.06962 ; perimeter
G1 X63.044 Y40.361 E4.09472 ; perimeter
G1 X63.192 Y40.398 E4.10180 ; perimeter
G1 X63.143 Y40.547 E4.10911 ; perimeter
G1 X63.653 Y40.745 E4.13448 ; perimeter
G1 X64.028 Y41.564 E4.17626 ; perimeter
G1 X64.275 Y42.230 E4.20922 ; perimeter
G1 X64.331 Y42.412 E4.21802 ; perimeter
G1 X64.108 Y42.903 E4.24304 ; perimeter
G1 X64.244 Y42.975 E4.25019 ; perimeter
G1 X64.159 Y43.113 E4.25773 ; perimeter
G1 X64.607 Y43.425 E4.28305 ; perimeter
G1 X64.774 Y44.308 E4.32473 ; perimeter
G1 X64.866 Y45.200 E4.36634 ; perimeter
G1 X64.527 Y45.622 E4.39146 ; perimeter
G1 X64.649 Y45.732 E4.39909 ; perimeter
G1 X64.534 Y45.846 E4.40663 ; perimeter
G1 X64.891 Y46.253 E4.43177 ; perimeter
G1 X64.842 Y47.151 E4.47347 ; perimeter
G1 X64.719 Y48.039 E4.51505 ; perimeter
G1 X64.290 Y48.367 E4.54011 ; perimeter
G1 X64.382 Y48.504 E4.54777 ; perimeter
G1 X64.243 Y48.586 E4.55528 ; perimeter
G1 X64.491 Y49.067 E4.58036 ; perimeter
G1 X64.445 Y49.247 E4.58901 ; perimeter
G1 X64.229 Y49.927 E4.62211 ; perimeter
G1 X63.894 Y50.764 E4.66391 ; perimeter
G1 X63.402 Y50.985 E4.68893 ; perimeter
G1 X63.457 Y51.133 E4.69625 ; perimeter
G1 X63.301 Y51.180 E4.70381 ; perimeter
G1 X63.429 Y51.705 E4.72888 ; perimeter
G1 X63.231 Y52.079 E4.74849 ; perimeter
G1 X66.726 Y56.891 E5.02441 ; perimeter
G1 X67.571 Y56.701 E5.06458 ; perimeter
G1 X68.314 Y56.579 E5.09953 ; perimeter
G1 X69.061 Y56.502 E5.13437 ; perimeter
G1 X69.812 Y56.470 E5.16922 ; perimeter
G1 X70.563 Y56.481 E5.20409 ; perimeter
G1 X71.313 Y56.536 E5.23896 ; perimeter
G1 X72.058 Y56.635 E5.27382 ; perimeter
G1 X73.284 Y56.873 E5.33180 ; perimeter
G1 X76.770 Y52.079 E5.60677 ; perimeter
G1 X76.571 Y51.704 E5.62645 ; perimeter
G1 X76.696 Y51.180 E5.65145 ; perimeter
G1 X76.547 Y51.134 E5.65870 ; perimeter
G1 X76.604 Y50.985 E5.66612 ; perimeter
G1 X76.105 Y50.763 E5.69148 ; perimeter
G1 X75.771 Y49.927 E5.73324 ; perimeter
G1 X75.553 Y49.248 E5.76631 ; perimeter
G1 X75.508 Y49.068 E5.77491 ; perimeter
G1 X75.756 Y48.587 E5.80002 ; perimeter
G1 X75.616 Y48.504 E5.80758 ; perimeter
G1 X75.706 Y48.372 E5.81499 ; perimeter
G1 X75.282 Y48.042 E5.83991 ; perimeter
G1 X75.247 Y47.857 E5.84863 ; perimeter
G1 X75.156 Y47.150 E5.88169 ; perimeter
