; generated by Slic3r 1.34.1-prusa3d-win64 on 2017-09-08 at 18:37:54

; Buse OEV5 - diamètre 0,5mm

; external perimeters extrusion width = 0.40mm
; perimeters extrusion width = 0.50mm
; infill extrusion width = 0.50mm
; solid infill extrusion width = 0.50mm
; top infill extrusion width = 0.40mm

M107 ; disable fan
M190 S70 ; attente chauffe plateau
M104 S195 ; préchauffe tête
G92 Z0
G1 Z5 F1200
G28 Y ; prise d'origine en Y
G28 X ; prise d'origine en X
G1 X70 Y70 F6000 ; parking
M109 S195 ; attente chauffe T0
G21 ; set units to millimeters
G90 ; use absolute coordinates
M82 ; use absolute distances for extrusion
G92 E0 ; reset extrusion distance
G1 E-3.60000 F3000.00000 ; retract
G92 E0 ; reset extrusion distance
G1 Z0.250 F7500.000 ; move to next layer (0)
G1 X56.971 Y31.012 F7500.000 ; move to first skirt point
G1 E3.65000 F3000.00000 ; unretract
G1 F1800
G1 X57.381 Y30.472 E3.68149 ; skirt
G1 X57.893 Y30.043 E3.71245 ; skirt
G1 X58.475 Y29.743 E3.74286 ; skirt
G1 X69.632 Y26.158 E4.28652 ; skirt
G1 X70.387 Y25.989 E4.32241 ; skirt
G1 X71.449 Y25.902 E4.37184 ; skirt
G1 X72.511 Y25.990 E4.42127 ; skirt
G1 X73.262 Y26.157 E4.45699 ; skirt
G1 X84.426 Y29.744 E5.00097 ; skirt
G1 X85.017 Y30.052 E5.03189 ; skirt
G1 X85.535 Y30.492 E5.06344 ; skirt
G1 X85.945 Y31.042 E5.09527 ; skirt
G1 X86.211 Y31.635 E5.12542 ; skirt
G1 X86.350 Y32.386 E5.16083 ; skirt
G1 X88.937 Y80.922 E7.41576 ; skirt
G1 X88.062 Y90.152 E7.84587 ; skirt
G1 X86.185 Y101.568 E8.38262 ; skirt
G1 X85.122 Y105.899 E8.58950 ; skirt
G1 X84.522 Y107.716 E8.67825 ; skirt
G1 X83.551 Y110.080 E8.79681 ; skirt
G1 X82.842 Y111.518 E8.87121 ; skirt
G1 X81.496 Y113.808 E8.99442 ; skirt
G1 X80.251 Y115.544 E9.09353 ; skirt
G1 X79.303 Y116.665 E9.16167 ; skirt
G1 X78.796 Y117.105 E9.19280 ; skirt
G1 X78.142 Y117.455 E9.22721 ; skirt
G1 X77.463 Y117.637 E9.25981 ; skirt
G1 X72.115 Y118.099 E9.50887 ; skirt
G1 X71.536 Y118.050 E9.53583 ; skirt
G1 X70.939 Y117.882 E9.56459 ; skirt
G1 X68.585 Y116.703 E9.68675 ; skirt
G1 X66.420 Y115.313 E9.80608 ; skirt
G1 X64.657 Y113.897 E9.91097 ; skirt
G1 X63.446 Y112.713 E9.98956 ; skirt
G1 X61.776 Y110.688 E10.11136 ; skirt
G1 X60.362 Y108.579 E10.22911 ; skirt
G1 X59.256 Y106.545 E10.33655 ; skirt
G1 X58.142 Y103.947 E10.46768 ; skirt
G1 X57.356 Y101.606 E10.58223 ; skirt
G1 X56.623 Y98.994 E10.70808 ; skirt
G1 X54.555 Y90.500 E11.11366 ; skirt
G1 X53.116 Y81.367 E11.54259 ; skirt
G1 X53.063 Y80.660 E11.57548 ; skirt
G1 X53.461 Y71.959 E11.97956 ; skirt
G1 X56.553 Y32.309 E13.82464 ; skirt
G1 X56.703 Y31.590 E13.85868 ; skirt
G1 X56.939 Y31.080 E13.88477 ; skirt
G1 X57.342 Y31.266 F7500.000 ; move to first skirt point
G1 F1800
G1 X57.705 Y30.779 E13.91293 ; skirt
G1 X58.149 Y30.409 E13.93975 ; skirt
G1 X58.655 Y30.152 E13.96608 ; skirt
G1 X69.752 Y26.588 E14.50683 ; skirt
G1 X70.449 Y26.432 E14.53993 ; skirt
G1 X71.447 Y26.348 E14.58639 ; skirt
G1 X72.449 Y26.432 E14.63307 ; skirt
G1 X73.137 Y26.586 E14.66577 ; skirt
G1 X84.248 Y30.153 E15.20714 ; skirt
G1 X84.759 Y30.416 E15.23379 ; skirt
G1 X85.207 Y30.795 E15.26104 ; skirt
G1 X85.563 Y31.272 E15.28865 ; skirt
G1 X85.790 Y31.783 E15.31459 ; skirt
G1 X85.904 Y32.412 E15.34426 ; skirt
G1 X88.490 Y80.924 E17.59802 ; skirt
G1 X87.619 Y90.097 E18.02551 ; skirt
G1 X85.746 Y101.488 E18.56106 ; skirt
G1 X84.695 Y105.768 E18.76551 ; skirt
G1 X84.105 Y107.557 E18.85292 ; skirt
G1 X83.150 Y109.882 E18.96951 ; skirt
G1 X82.451 Y111.301 E19.04291 ; skirt
G1 X81.131 Y113.552 E19.16399 ; skirt
G1 X79.912 Y115.253 E19.26105 ; skirt
G1 X78.985 Y116.352 E19.32776 ; skirt
G1 X78.542 Y116.739 E19.35506 ; skirt
G1 X77.971 Y117.043 E19.38504 ; skirt
G1 X77.378 Y117.198 E19.41348 ; skirt
G1 X72.111 Y117.652 E19.65877 ; skirt
G1 X71.609 Y117.610 E19.68213 ; skirt
G1 X71.084 Y117.459 E19.70747 ; skirt
G1 X68.791 Y116.307 E19.82651 ; skirt
G1 X66.678 Y114.949 E19.94302 ; skirt
G1 X64.946 Y113.557 E20.04611 ; skirt
G1 X63.780 Y112.417 E20.12176 ; skirt
G1 X62.135 Y110.423 E20.24172 ; skirt
G1 X60.743 Y108.345 E20.35774 ; skirt
G1 X59.648 Y106.330 E20.46414 ; skirt
G1 X58.558 Y103.784 E20.59260 ; skirt
G1 X57.784 Y101.478 E20.70546 ; skirt
G1 X57.056 Y98.886 E20.83037 ; skirt
G1 X54.988 Y90.396 E21.23576 ; skirt
G1 X53.510 Y80.655 E21.69282 ; skirt
G1 X53.906 Y71.990 E22.09524 ; skirt
G1 X56.997 Y32.348 E23.93993 ; skirt
G1 X57.123 Y31.742 E23.96863 ; skirt
G1 X57.311 Y31.334 E23.98949 ; skirt
G1 E20.38949 F3000.00000 ; retract
G92 E0 ; reset extrusion distance
G1 X68.892 Y104.010 F7500.000 ; move to first perimeter point
G1 E3.65000 F3000.00000 ; unretract
G1 F900
G1 X69.252 Y104.494 E3.67798 ; perimeter
G1 X69.522 Y105.004 E3.70475 ; perimeter
G1 X69.717 Y105.570 E3.73252 ; perimeter
G1 X69.785 Y105.878 E3.74713 ; perimeter
G1 X69.823 Y106.192 E3.76184 ; perimeter
G1 X69.834 Y106.509 E3.77656 ; perimeter
G1 X69.815 Y106.825 E3.79121 ; perimeter
G1 X69.767 Y107.135 E3.80577 ; perimeter
G1 X69.688 Y107.437 E3.82028 ; perimeter
G1 X69.519 Y107.850 E3.84098 ; perimeter
G1 X69.371 Y108.106 E3.85468 ; perimeter
G1 X69.200 Y108.334 E3.86789 ; perimeter
G1 X69.014 Y108.536 E3.88063 ; perimeter
G1 X68.808 Y108.715 E3.89331 ; perimeter
G1 X68.387 Y108.970 E3.91616 ; perimeter
G1 X68.143 Y109.069 E3.92835 ; perimeter
G1 X67.888 Y109.140 E3.94063 ; perimeter
G1 X67.616 Y109.185 E3.95341 ; perimeter
G1 X67.333 Y109.198 E3.96655 ; perimeter
G1 X67.043 Y109.178 E3.98004 ; perimeter
G1 X66.746 Y109.125 E3.99407 ; perimeter
G1 X66.314 Y108.987 E4.01507 ; perimeter
G1 X66.029 Y108.853 E4.02968 ; perimeter
G1 X65.757 Y108.693 E4.04435 ; perimeter
G1 X65.501 Y108.507 E4.05903 ; perimeter
G1 X65.263 Y108.295 E4.07383 ; perimeter
G1 X64.859 Y107.838 E4.10209 ; perimeter
G1 X64.549 Y107.345 E4.12914 ; perimeter
G1 X64.420 Y107.077 E4.14292 ; perimeter
G1 X64.227 Y106.516 E4.17047 ; perimeter
G1 X64.159 Y106.206 E4.18517 ; perimeter
G1 X64.121 Y105.894 E4.19977 ; perimeter
G1 X64.110 Y105.577 E4.21445 ; perimeter
G1 X64.127 Y105.261 E4.22914 ; perimeter
G1 X64.177 Y104.950 E4.24376 ; perimeter
G1 X64.255 Y104.652 E4.25807 ; perimeter
G1 X64.363 Y104.367 E4.27220 ; perimeter
G1 X64.497 Y104.102 E4.28597 ; perimeter
G1 X64.655 Y103.863 E4.29923 ; perimeter
G1 X64.834 Y103.645 E4.31236 ; perimeter
G1 X65.129 Y103.377 E4.33082 ; perimeter
G1 X65.345 Y103.230 E4.34293 ; perimeter
G1 X65.675 Y103.063 E4.36014 ; perimeter
G1 X65.927 Y102.979 E4.37246 ; perimeter
G1 X66.190 Y102.921 E4.38496 ; perimeter
G1 X66.487 Y102.891 E4.39876 ; perimeter
G1 X66.900 Y102.907 E4.41796 ; perimeter
G1 X67.339 Y102.997 E4.43874 ; perimeter
G1 X67.633 Y103.100 E4.45321 ; perimeter
G1 X67.915 Y103.233 E4.46766 ; perimeter
G1 X68.185 Y103.393 E4.48223 ; perimeter
G1 X68.447 Y103.582 E4.49719 ; perimeter
G1 X68.838 Y103.958 E4.52240 ; perimeter
G1 X69.384 Y103.917 F7500.000 ; move inwards before travel
G1 E0.92240 F3000.00000 ; retract
G92 E0 ; reset extrusion distance
G1 X68.616 Y103.153 F7500.000 ; move to first perimeter point
G1 E3.65000 F3000.00000 ; unretract
G1 F900
G1 X68.430 Y103.019 E3.66062 ; perimeter
G1 X68.124 Y102.838 E3.67712 ; perimeter
G1 X67.803 Y102.687 E3.69360 ; perimeter
G1 X67.458 Y102.565 E3.71053 ; perimeter
G1 X66.954 Y102.462 E3.73443 ; perimeter
G1 X66.473 Y102.444 E3.75675 ; perimeter
G1 X66.120 Y102.479 E3.77321 ; perimeter
G1 X65.808 Y102.548 E3.78800 ; perimeter
G1 X65.503 Y102.650 E3.80294 ; perimeter
G1 X65.117 Y102.845 E3.82301 ; perimeter
G1 X64.852 Y103.026 E3.83792 ; perimeter
G1 X64.510 Y103.337 E3.85932 ; perimeter
G1 X64.295 Y103.598 E3.87504 ; perimeter
G1 X64.111 Y103.878 E3.89058 ; perimeter
G1 X63.954 Y104.187 E3.90664 ; perimeter
G1 X63.830 Y104.516 E3.92298 ; perimeter
G1 X63.740 Y104.858 E3.93938 ; perimeter
G1 X63.683 Y105.213 E3.95608 ; perimeter
G1 X63.663 Y105.573 E3.97278 ; perimeter
G1 X63.675 Y105.929 E3.98931 ; perimeter
G1 X63.719 Y106.281 E4.00579 ; perimeter
G1 X63.796 Y106.636 E4.02264 ; perimeter
G1 X63.953 Y107.092 E4.04501 ; perimeter
G1 X63.740 Y107.196 E4.05602 ; perimeter
G1 X63.428 Y106.712 E4.08274 ; perimeter
G1 X63.082 Y106.118 E4.11464 ; perimeter
G1 X62.460 Y104.927 E4.17697 ; perimeter
G1 X61.937 Y103.775 E4.23565 ; perimeter
G1 X61.494 Y102.663 E4.29117 ; perimeter
G1 X61.118 Y101.599 E4.34354 ; perimeter
G1 X60.798 Y100.589 E4.39268 ; perimeter
G1 X60.411 Y99.262 E4.45681 ; perimeter
G1 X60.104 Y98.117 E4.51184 ; perimeter
G1 X59.881 Y97.164 E4.55722 ; perimeter
G1 X61.734 Y97.502 E4.64459 ; perimeter
G1 X64.256 Y97.852 E4.76275 ; perimeter
G1 X66.754 Y98.094 E4.87914 ; perimeter
G1 X68.672 Y98.209 E4.96829 ; perimeter
G1 X68.674 Y102.708 E5.17706 ; perimeter
G1 X68.772 Y103.043 E5.19321 ; perimeter
G1 X68.677 Y103.110 E5.19862 ; perimeter
G1 X68.931 Y103.428 F7500.000 ; move to first perimeter point
G1 F1800
G1 X73.549 Y103.428 E5.41286 ; perimeter
G1 X74.038 Y103.199 E5.43791 ; perimeter
G1 X74.214 Y102.753 E5.46018 ; perimeter
G1 X74.214 Y98.211 E5.67088 ; perimeter
G1 X76.172 Y98.090 E5.76186 ; perimeter
G1 X77.440 Y97.979 E5.82092 ; perimeter
G1 X78.714 Y97.842 E5.88038 ; perimeter
G1 X79.993 Y97.676 E5.94020 ; perimeter
G1 X81.278 Y97.481 E6.00048 ; perimeter
G1 X83.249 Y97.124 E6.09345 ; perimeter
G1 X83.104 Y98.275 E6.14729 ; perimeter
G1 X82.913 Y99.506 E6.20508 ; perimeter
G1 X82.657 Y100.908 E6.27120 ; perimeter
G1 X82.328 Y102.433 E6.34360 ; perimeter
G1 X81.925 Y104.034 E6.42020 ; perimeter
G1 X81.435 Y105.660 E6.49896 ; perimeter
G1 X81.159 Y106.461 E6.53826 ; perimeter
G1 X80.860 Y107.249 E6.57737 ; perimeter
G1 X80.283 Y108.595 E6.64529 ; perimeter
G1 X79.691 Y109.800 E6.70757 ; perimeter
G1 X79.097 Y110.872 E6.76442 ; perimeter
G1 X78.516 Y111.808 E6.81553 ; perimeter
G1 X77.968 Y112.611 E6.86064 ; perimeter
G1 X77.345 Y113.442 E6.90882 ; perimeter
G1 X77.284 Y112.597 E6.94813 ; perimeter
G1 X76.569 Y112.460 E6.98191 ; perimeter
G1 X76.567 Y112.240 E6.99209 ; perimeter
G1 X77.269 Y112.093 E7.02536 ; perimeter
G1 X77.360 Y109.172 E7.16095 ; perimeter
G1 X77.165 Y109.103 E7.17053 ; perimeter
G1 X77.196 Y108.886 E7.18070 ; perimeter
G1 X77.380 Y108.875 E7.18926 ; perimeter
G1 X77.744 Y105.431 E7.34993 ; perimeter
G1 X78.262 Y102.009 E7.51049 ; perimeter
G1 X78.276 Y101.710 E7.52438 ; perimeter
G1 X78.239 Y101.395 E7.53909 ; perimeter
G1 X78.004 Y100.926 E7.56341 ; perimeter
G1 X77.332 Y100.754 E7.59560 ; perimeter
G1 X76.848 Y101.040 E7.62170 ; perimeter
G1 X76.564 Y101.351 E7.64123 ; perimeter
G1 X75.819 Y102.459 E7.70315 ; perimeter
G1 X75.219 Y103.401 E7.75499 ; perimeter
G1 X74.751 Y104.226 E7.79901 ; perimeter
G1 X73.852 Y106.085 E7.89482 ; perimeter
G1 X74.347 Y106.333 E7.92052 ; perimeter
G1 X74.290 Y106.545 E7.93070 ; perimeter
G1 X73.684 Y106.503 E7.95886 ; perimeter
G1 X73.138 Y107.995 E8.03256 ; perimeter
G1 X72.569 Y109.748 E8.11805 ; perimeter
G1 X73.459 Y110.095 E8.16237 ; perimeter
G1 X73.421 Y110.311 E8.17255 ; perimeter
G1 X72.413 Y110.335 E8.21932 ; perimeter
G1 X71.837 Y113.151 E8.35270 ; perimeter
G1 X72.896 Y113.512 E8.40460 ; perimeter
G1 X72.868 Y113.729 E8.41475 ; perimeter
G1 X71.758 Y113.810 E8.46639 ; perimeter
G1 X71.709 Y114.292 E8.48884 ; perimeter
G1 X71.142 Y114.010 E8.51823 ; perimeter
G1 X70.351 Y113.578 E8.56002 ; perimeter
G1 X69.460 Y113.040 E8.60833 ; perimeter
G1 X68.509 Y112.394 E8.66164 ; perimeter
G1 X67.529 Y111.635 E8.71918 ; perimeter
G1 X67.049 Y111.221 E8.74857 ; perimeter
G1 X66.572 Y110.777 E8.77880 ; perimeter
G1 X66.101 Y110.298 E8.80995 ; perimeter
G1 X65.660 Y109.806 E8.84063 ; perimeter
G1 X64.973 Y108.959 E8.89124 ; perimeter
G1 X65.135 Y108.792 E8.90200 ; perimeter
G1 X65.512 Y109.067 E8.92364 ; perimeter
G1 X65.821 Y109.249 E8.94029 ; perimeter
G1 X66.151 Y109.404 E8.95719 ; perimeter
G1 X66.638 Y109.559 E8.98091 ; perimeter
G1 X66.989 Y109.622 E8.99744 ; perimeter
G1 X67.329 Y109.645 E9.01325 ; perimeter
G1 X67.663 Y109.630 E9.02879 ; perimeter
G1 X67.985 Y109.577 E9.04392 ; perimeter
G1 X68.288 Y109.492 E9.05851 ; perimeter
G1 X68.587 Y109.370 E9.07351 ; perimeter
G1 X69.071 Y109.077 E9.09977 ; perimeter
G1 X69.325 Y108.857 E9.11536 ; perimeter
G1 X69.544 Y108.620 E9.13033 ; perimeter
G1 X69.744 Y108.352 E9.14583 ; perimeter
G1 X69.921 Y108.048 E9.16216 ; perimeter
G1 X70.112 Y107.579 E9.18564 ; perimeter
G1 X70.205 Y107.226 E9.20258 ; perimeter
G1 X70.259 Y106.873 E9.21916 ; perimeter
G1 X70.281 Y106.516 E9.23575 ; perimeter
G1 X70.269 Y106.157 E9.25238 ; perimeter
G1 X70.225 Y105.802 E9.26898 ; perimeter
G1 X70.147 Y105.449 E9.28575 ; perimeter
G1 X69.933 Y104.826 E9.31633 ; perimeter
G1 X69.631 Y104.255 E9.34629 ; perimeter
G1 X69.228 Y103.714 E9.37757 ; perimeter
G1 X68.985 Y103.480 E9.39322 ; perimeter
G1 E5.79322 F3000.00000 ; retract
G92 E0 ; reset extrusion distance
G1 X69.259 Y102.889 F7500.000 ; move to first perimeter point
G1 E3.65000 F3000.00000 ; unretract
G1 F1620
G1 X69.412 Y102.982 E3.65827 ; perimeter
G1 X73.450 Y102.982 E3.84561 ; perimeter
G1 X73.688 Y102.870 E3.85782 ; perimeter
G1 X73.768 Y102.668 E3.86792 ; perimeter
G1 X73.768 Y97.791 E4.09416 ; perimeter
G1 X76.139 Y97.645 E4.20434 ; perimeter
G1 X77.396 Y97.535 E4.26292 ; perimeter
G1 X78.662 Y97.398 E4.32195 ; perimeter
G1 X79.931 Y97.234 E4.38133 ; perimeter
G1 X81.206 Y97.041 E4.44117 ; perimeter
G1 X82.487 Y96.818 E4.50150 ; perimeter
G1 X83.769 Y96.567 E4.56211 ; perimeter
G1 X83.546 Y98.337 E4.64487 ; perimeter
G1 X83.353 Y99.580 E4.70324 ; perimeter
G1 X83.095 Y100.995 E4.76996 ; perimeter
G1 X82.763 Y102.535 E4.84305 ; perimeter
G1 X82.355 Y104.153 E4.92047 ; perimeter
G1 X81.860 Y105.797 E5.00011 ; perimeter
G1 X81.579 Y106.613 E5.04014 ; perimeter
G1 X81.274 Y107.416 E5.08001 ; perimeter
G1 X80.689 Y108.781 E5.14891 ; perimeter
G1 X80.086 Y110.006 E5.21223 ; perimeter
G1 X79.482 Y111.098 E5.27010 ; perimeter
G1 X78.890 Y112.052 E5.32218 ; perimeter
G1 X78.331 Y112.870 E5.36820 ; perimeter
G1 X77.818 Y113.554 E5.40785 ; perimeter
G1 X77.001 Y114.525 E5.46673 ; perimeter
G1 X76.928 Y113.867 E5.49746 ; perimeter
G1 X76.864 Y112.971 E5.53914 ; perimeter
G1 X75.227 Y112.657 E5.61645 ; perimeter
G1 X75.217 Y112.068 E5.64380 ; perimeter
G1 X76.834 Y111.728 E5.72045 ; perimeter
G1 X76.904 Y109.483 E5.82465 ; perimeter
G1 X75.805 Y109.094 E5.87874 ; perimeter
G1 X75.885 Y108.514 E5.90586 ; perimeter
G1 X76.976 Y108.451 E5.95655 ; perimeter
G1 X77.266 Y105.711 E6.08441 ; perimeter
G1 X76.619 Y105.426 E6.11719 ; perimeter
G1 X76.742 Y104.852 E6.14441 ; perimeter
G1 X77.381 Y104.861 E6.17405 ; perimeter
G1 X77.817 Y101.965 E6.30992 ; perimeter
G1 X77.829 Y101.725 E6.32104 ; perimeter
G1 X77.805 Y101.525 E6.33040 ; perimeter
G1 X77.697 Y101.308 E6.34166 ; perimeter
G1 X77.400 Y101.232 E6.35585 ; perimeter
G1 X77.132 Y101.390 E6.37026 ; perimeter
G1 X76.917 Y101.627 E6.38515 ; perimeter
G1 X76.193 Y102.703 E6.44530 ; perimeter
G1 X75.602 Y103.631 E6.49635 ; perimeter
G1 X75.146 Y104.434 E6.53916 ; perimeter
G1 X74.446 Y105.883 E6.61385 ; perimeter
G1 X75.697 Y106.509 E6.67879 ; perimeter
G1 X75.540 Y107.079 E6.70622 ; perimeter
G1 X73.988 Y106.972 E6.77838 ; perimeter
G1 X73.560 Y108.140 E6.83613 ; perimeter
G1 X73.123 Y109.485 E6.90171 ; perimeter
G1 X74.810 Y110.144 E6.98572 ; perimeter
G1 X74.711 Y110.729 E7.01322 ; perimeter
G1 X72.779 Y110.773 E7.10286 ; perimeter
G1 X72.353 Y112.856 E7.20150 ; perimeter
G1 X74.266 Y113.508 E7.29525 ; perimeter
G1 X74.191 Y114.080 E7.32205 ; perimeter
G1 X72.164 Y114.228 E7.41634 ; perimeter
G1 X72.091 Y114.957 E7.45033 ; perimeter
G1 X70.935 Y114.406 E7.50972 ; perimeter
G1 X70.129 Y113.965 E7.55237 ; perimeter
G1 X69.219 Y113.415 E7.60169 ; perimeter
G1 X68.247 Y112.756 E7.65619 ; perimeter
G1 X67.246 Y111.980 E7.71492 ; perimeter
G1 X66.751 Y111.554 E7.74525 ; perimeter
G1 X66.260 Y111.097 E7.77634 ; perimeter
G1 X65.776 Y110.604 E7.80842 ; perimeter
G1 X65.322 Y110.097 E7.83999 ; perimeter
G1 X64.795 Y109.460 E7.87831 ; perimeter
G1 X63.855 Y108.197 E7.95138 ; perimeter
G1 X63.047 Y106.945 E8.02049 ; perimeter
G1 X62.691 Y106.333 E8.05334 ; perimeter
G1 X62.059 Y105.122 E8.11671 ; perimeter
G1 X61.526 Y103.950 E8.17645 ; perimeter
