; generated by Slic3r 1.34.1-prusa3d-win64 on 2017-10-15 at 12:46:37

; Buse OEV5 - diamètre 0,4mm

; external perimeters extrusion width = 0.70mm
; perimeters extrusion width = 0.70mm
; infill extrusion width = 0.70mm
; solid infill extrusion width = 0.70mm
; top infill extrusion width = 0.70mm

M107 ; disable fan
M190 S70 ; attente chauffe plateau
M104 S195 ; préchauffe tête
G92 Z0
G1 Z5 F1200
G28 Y ; prise d'origine en Y
G28 X ; prise d'origine en X
G1 X70 Y70 F6000 ; parking
M109 S195 ; attente chauffe T0
G21 ; set units to millimeters
G90 ; use absolute coordinates
M82 ; use absolute distances for extrusion
G92 E0 ; reset extrusion distance
G1 E-3.50000 F3000.00000 ; retract
G92 E0 ; reset extrusion distance
G1 Z0.200 F6000.000 ; move to next layer (0)
G1 X54.158 Y53.995 F6000.000 ; move to first skirt point
G1 E3.52000 F3000.00000 ; unretract
G1 F900
G1 X55.844 Y52.548 E3.58596 ; skirt
G1 X57.513 Y51.356 E3.64686 ; skirt
G1 X59.272 Y50.308 E3.70765 ; skirt
G1 X61.217 Y49.367 E3.77183 ; skirt
G1 X62.985 Y48.680 E3.82813 ; skirt
G1 X64.620 Y48.189 E3.87882 ; skirt
G1 X66.812 Y47.701 E3.94550 ; skirt
G1 X68.950 Y47.426 E4.00951 ; skirt
G1 X71.005 Y47.341 E4.07056 ; skirt
G1 X73.050 Y47.426 E4.13135 ; skirt
G1 X75.198 Y47.703 E4.19565 ; skirt
G1 X77.053 Y48.095 E4.25196 ; skirt
G1 X78.877 Y48.635 E4.30841 ; skirt
G1 X80.897 Y49.414 E4.37271 ; skirt
G1 X82.745 Y50.317 E4.43376 ; skirt
G1 X84.596 Y51.430 E4.49790 ; skirt
G1 X86.256 Y52.629 E4.55870 ; skirt
G1 X87.702 Y53.858 E4.61505 ; skirt
G1 X89.044 Y55.197 E4.67133 ; skirt
G1 X90.452 Y56.844 E4.73565 ; skirt
G1 X91.644 Y58.513 E4.79655 ; skirt
G1 X92.691 Y60.272 E4.85734 ; skirt
G1 X93.632 Y62.215 E4.92143 ; skirt
G1 X94.366 Y64.128 E4.98228 ; skirt
G1 X94.905 Y65.947 E5.03860 ; skirt
G1 X95.298 Y67.808 E5.09508 ; skirt
G1 X95.574 Y69.950 E5.15922 ; skirt
G1 X95.659 Y72.000 E5.22013 ; skirt
G1 X95.574 Y74.046 E5.28091 ; skirt
G1 X95.298 Y76.190 E5.34512 ; skirt
G1 X94.908 Y78.040 E5.40126 ; skirt
G1 X94.377 Y79.837 E5.45690 ; skirt
G1 X93.633 Y81.784 E5.51877 ; skirt
G1 X92.699 Y83.714 E5.58242 ; skirt
G1 X91.644 Y85.486 E5.64366 ; skirt
G1 X90.452 Y87.155 E5.70456 ; skirt
G1 X89.044 Y88.803 E5.76892 ; skirt
G1 X87.701 Y90.142 E5.82523 ; skirt
G1 X86.284 Y91.347 E5.88047 ; skirt
G1 X84.597 Y92.569 E5.94232 ; skirt
G1 X82.744 Y93.683 E6.00649 ; skirt
G1 X80.897 Y94.586 E6.06754 ; skirt
G1 X78.885 Y95.362 E6.13158 ; skirt
G1 X77.058 Y95.904 E6.18817 ; skirt
G1 X75.274 Y96.281 E6.24228 ; skirt
G1 X73.054 Y96.573 E6.30876 ; skirt
G1 X71.000 Y96.659 E6.36982 ; skirt
G1 X68.954 Y96.574 E6.43061 ; skirt
G1 X66.802 Y96.297 E6.49504 ; skirt
G1 X64.947 Y95.905 E6.55135 ; skirt
G1 X63.119 Y95.364 E6.60794 ; skirt
G1 X61.103 Y94.586 E6.67211 ; skirt
G1 X59.255 Y93.683 E6.73316 ; skirt
G1 X57.404 Y92.570 E6.79729 ; skirt
G1 X55.744 Y91.370 E6.85810 ; skirt
G1 X54.298 Y90.141 E6.91446 ; skirt
G1 X52.956 Y88.803 E6.97072 ; skirt
G1 X51.549 Y87.156 E7.03504 ; skirt
G1 X50.356 Y85.487 E7.09594 ; skirt
G1 X49.309 Y83.728 E7.15673 ; skirt
G1 X48.368 Y81.785 E7.22083 ; skirt
G1 X47.634 Y79.872 E7.28168 ; skirt
G1 X47.095 Y78.053 E7.33799 ; skirt
G1 X46.702 Y76.191 E7.39449 ; skirt
G1 X46.426 Y74.045 E7.45874 ; skirt
G1 X46.341 Y72.000 E7.51952 ; skirt
G1 X46.426 Y69.954 E7.58031 ; skirt
G1 X46.703 Y67.802 E7.64474 ; skirt
G1 X47.093 Y65.955 E7.70078 ; skirt
G1 X47.636 Y64.119 E7.75763 ; skirt
G1 X48.414 Y62.102 E7.82182 ; skirt
G1 X49.312 Y60.266 E7.88250 ; skirt
G1 X50.430 Y58.404 E7.94698 ; skirt
G1 X51.630 Y56.744 E8.00780 ; skirt
G1 X52.859 Y55.298 E8.06416 ; skirt
G1 X54.115 Y54.037 E8.11700 ; skirt
G1 X54.368 Y54.290 F6000.000 ; move to first skirt point
G1 F900
G1 X56.062 Y52.831 E8.18338 ; skirt
G1 X57.706 Y51.656 E8.24337 ; skirt
G1 X59.440 Y50.623 E8.30328 ; skirt
G1 X61.345 Y49.700 E8.36613 ; skirt
G1 X63.230 Y48.976 E8.42610 ; skirt
G1 X65.033 Y48.442 E8.48193 ; skirt
G1 X66.880 Y48.052 E8.53799 ; skirt
G1 X68.983 Y47.782 E8.60094 ; skirt
G1 X71.003 Y47.698 E8.66096 ; skirt
G1 X73.019 Y47.782 E8.72086 ; skirt
G1 X75.125 Y48.053 E8.78391 ; skirt
G1 X76.964 Y48.441 E8.83973 ; skirt
G1 X78.774 Y48.977 E8.89579 ; skirt
G1 X80.753 Y49.741 E8.95875 ; skirt
G1 X82.573 Y50.630 E9.01890 ; skirt
G1 X84.390 Y51.722 E9.08183 ; skirt
G1 X86.047 Y52.920 E9.14255 ; skirt
G1 X87.459 Y54.120 E9.19757 ; skirt
G1 X88.792 Y55.449 E9.25345 ; skirt
G1 X90.172 Y57.066 E9.31656 ; skirt
G1 X91.344 Y58.707 E9.37644 ; skirt
G1 X92.377 Y60.440 E9.43634 ; skirt
G1 X93.300 Y62.346 E9.49924 ; skirt
G1 X94.024 Y64.230 E9.55915 ; skirt
G1 X94.558 Y66.033 E9.61499 ; skirt
G1 X94.948 Y67.881 E9.67107 ; skirt
G1 X95.218 Y69.983 E9.73400 ; skirt
G1 X95.302 Y71.999 E9.79389 ; skirt
G1 X95.219 Y74.014 E9.85378 ; skirt
G1 X94.948 Y76.119 E9.91679 ; skirt
G1 X94.561 Y77.956 E9.97252 ; skirt
G1 X94.024 Y79.770 E10.02871 ; skirt
G1 X93.300 Y81.654 E10.08862 ; skirt
G1 X92.383 Y83.547 E10.15108 ; skirt
G1 X91.344 Y85.293 E10.21142 ; skirt
G1 X90.172 Y86.934 E10.27129 ; skirt
G1 X88.792 Y88.551 E10.33441 ; skirt
G1 X87.460 Y89.879 E10.39024 ; skirt
G1 X86.053 Y91.074 E10.44507 ; skirt
G1 X84.390 Y92.278 E10.50603 ; skirt
G1 X82.575 Y93.368 E10.56888 ; skirt
G1 X80.755 Y94.258 E10.62903 ; skirt
G1 X78.781 Y95.021 E10.69187 ; skirt
G1 X76.971 Y95.557 E10.74792 ; skirt
G1 X75.201 Y95.931 E10.80163 ; skirt
G1 X73.026 Y96.218 E10.86679 ; skirt
G1 X71.001 Y96.302 E10.92694 ; skirt
G1 X68.986 Y96.219 E10.98684 ; skirt
G1 X66.882 Y95.949 E11.04981 ; skirt
G1 X65.044 Y95.561 E11.10558 ; skirt
G1 X63.512 Y95.108 E11.15303 ; skirt
G1 X61.347 Y94.301 E11.22162 ; skirt
G1 X59.442 Y93.378 E11.28446 ; skirt
G1 X57.707 Y92.344 E11.34444 ; skirt
G1 X56.066 Y91.172 E11.40432 ; skirt
G1 X54.449 Y89.792 E11.46743 ; skirt
G1 X53.121 Y88.460 E11.52326 ; skirt
G1 X51.923 Y87.050 E11.57822 ; skirt
G1 X50.722 Y85.390 E11.63904 ; skirt
G1 X49.632 Y83.575 E11.70190 ; skirt
G1 X48.741 Y81.754 E11.76210 ; skirt
G1 X47.978 Y79.777 E11.82503 ; skirt
G1 X47.442 Y77.967 E11.88106 ; skirt
G1 X47.060 Y76.160 E11.93590 ; skirt
G1 X46.782 Y74.021 E11.99995 ; skirt
G1 X46.698 Y72.001 E12.05997 ; skirt
G1 X46.781 Y69.986 E12.11986 ; skirt
G1 X47.053 Y67.875 E12.18304 ; skirt
G1 X47.439 Y66.044 E12.23860 ; skirt
G1 X47.977 Y64.226 E12.29491 ; skirt
G1 X48.741 Y62.247 E12.35790 ; skirt
G1 X49.625 Y60.438 E12.41768 ; skirt
G1 X50.722 Y58.610 E12.48096 ; skirt
G1 X51.899 Y56.978 E12.54071 ; skirt
G1 X53.120 Y55.541 E12.59671 ; skirt
G1 X54.326 Y54.332 E12.64740 ; skirt
G1 X54.578 Y54.584 F6000.000 ; move to first skirt point
G1 F900
G1 X54.702 Y54.461 E12.65258 ; skirt
G1 X56.284 Y53.110 E12.71435 ; skirt
G1 X57.901 Y51.956 E12.77333 ; skirt
G1 X59.609 Y50.938 E12.83235 ; skirt
G1 X61.477 Y50.032 E12.89401 ; skirt
G1 X63.332 Y49.318 E12.95302 ; skirt
G1 X65.120 Y48.788 E13.00839 ; skirt
G1 X66.953 Y48.401 E13.06403 ; skirt
G1 X69.016 Y48.137 E13.12578 ; skirt
G1 X71.006 Y48.055 E13.18490 ; skirt
G1 X73.085 Y48.148 E13.24668 ; skirt
G1 X74.939 Y48.381 E13.30218 ; skirt
G1 X76.769 Y48.762 E13.35767 ; skirt
G1 X78.765 Y49.349 E13.41946 ; skirt
G1 X80.613 Y50.069 E13.47834 ; skirt
G1 X82.402 Y50.944 E13.53746 ; skirt
G1 X84.184 Y52.014 E13.59919 ; skirt
G1 X85.816 Y53.193 E13.65896 ; skirt
G1 X87.216 Y54.382 E13.71351 ; skirt
G1 X88.539 Y55.702 E13.76899 ; skirt
G1 X89.892 Y57.288 E13.83088 ; skirt
G1 X91.047 Y58.904 E13.88987 ; skirt
G1 X92.062 Y60.608 E13.94876 ; skirt
G1 X92.969 Y62.478 E14.01047 ; skirt
G1 X93.682 Y64.332 E14.06943 ; skirt
G1 X94.213 Y66.124 E14.12492 ; skirt
G1 X94.599 Y67.954 E14.18046 ; skirt
G1 X94.863 Y70.016 E14.24220 ; skirt
G1 X94.945 Y72.002 E14.30120 ; skirt
G1 X94.863 Y73.983 E14.36008 ; skirt
G1 X94.598 Y76.051 E14.42199 ; skirt
G1 X94.214 Y77.871 E14.47720 ; skirt
G1 X93.681 Y79.672 E14.53297 ; skirt
G1 X92.930 Y81.614 E14.59477 ; skirt
G1 X92.062 Y83.391 E14.65351 ; skirt
G1 X90.986 Y85.184 E14.71560 ; skirt
G1 X89.825 Y86.794 E14.77454 ; skirt
G1 X88.618 Y88.217 E14.82993 ; skirt
G1 X87.298 Y89.539 E14.88540 ; skirt
G1 X85.712 Y90.892 E14.94730 ; skirt
G1 X84.099 Y92.045 E15.00617 ; skirt
G1 X82.391 Y93.062 E15.06518 ; skirt
G1 X80.523 Y93.968 E15.12683 ; skirt
G1 X78.668 Y94.682 E15.18584 ; skirt
G1 X76.880 Y95.212 E15.24122 ; skirt
G1 X75.047 Y95.599 E15.29685 ; skirt
G1 X72.984 Y95.863 E15.35861 ; skirt
G1 X70.998 Y95.945 E15.41761 ; skirt
G1 X69.017 Y95.863 E15.47650 ; skirt
G1 X66.949 Y95.598 E15.53840 ; skirt
G1 X65.120 Y95.212 E15.59388 ; skirt
G1 X63.328 Y94.681 E15.64939 ; skirt
G1 X61.387 Y93.931 E15.71116 ; skirt
G1 X59.598 Y93.056 E15.77028 ; skirt
G1 X57.816 Y91.986 E15.83201 ; skirt
G1 X56.207 Y90.827 E15.89088 ; skirt
G1 X54.783 Y89.618 E15.94635 ; skirt
G1 X53.461 Y88.298 E16.00181 ; skirt
G1 X52.108 Y86.712 E16.06370 ; skirt
G1 X50.953 Y85.096 E16.12269 ; skirt
G1 X49.938 Y83.392 E16.18159 ; skirt
G1 X49.031 Y81.522 E16.24329 ; skirt
G1 X48.318 Y79.668 E16.30226 ; skirt
G1 X47.787 Y77.876 E16.35774 ; skirt
G1 X47.401 Y76.046 E16.41329 ; skirt
G1 X47.137 Y73.984 E16.47502 ; skirt
G1 X47.055 Y71.998 E16.53402 ; skirt
G1 X47.137 Y70.017 E16.59290 ; skirt
G1 X47.402 Y67.949 E16.65481 ; skirt
G1 X47.786 Y66.129 E16.71003 ; skirt
G1 X48.319 Y64.328 E16.76580 ; skirt
G1 X49.069 Y62.387 E16.82759 ; skirt
G1 X49.938 Y60.609 E16.88634 ; skirt
G1 X51.014 Y58.816 E16.94842 ; skirt
G1 X52.173 Y57.207 E17.00729 ; skirt
G1 X53.382 Y55.783 E17.06276 ; skirt
G1 X54.536 Y54.627 E17.11127 ; skirt
G1 X54.789 Y54.879 F6000.000 ; move to first skirt point
G1 F900
G1 X54.954 Y54.713 E17.11822 ; skirt
G1 X56.507 Y53.390 E17.17879 ; skirt
G1 X58.099 Y52.253 E17.23688 ; skirt
G1 X59.778 Y51.253 E17.29490 ; skirt
G1 X61.610 Y50.363 E17.35537 ; skirt
G1 X63.335 Y49.692 E17.41033 ; skirt
G1 X64.926 Y49.216 E17.45963 ; skirt
G1 X67.026 Y48.751 E17.52351 ; skirt
G1 X69.046 Y48.493 E17.58396 ; skirt
G1 X71.005 Y48.412 E17.64218 ; skirt
G1 X73.040 Y48.502 E17.70265 ; skirt
G1 X74.884 Y48.734 E17.75784 ; skirt
G1 X76.696 Y49.112 E17.81279 ; skirt
G1 X78.653 Y49.688 E17.87338 ; skirt
G1 X80.469 Y50.396 E17.93126 ; skirt
G1 X82.231 Y51.257 E17.98948 ; skirt
G1 X83.976 Y52.304 E18.04990 ; skirt
G1 X85.585 Y53.465 E18.10882 ; skirt
G1 X86.977 Y54.647 E18.16303 ; skirt
G1 X88.287 Y55.954 E18.21796 ; skirt
G1 X89.610 Y57.507 E18.27854 ; skirt
G1 X90.745 Y59.096 E18.33652 ; skirt
G1 X91.747 Y60.778 E18.39465 ; skirt
G1 X92.636 Y62.608 E18.45505 ; skirt
G1 X93.340 Y64.434 E18.51316 ; skirt
G1 X93.867 Y66.211 E18.56819 ; skirt
G1 X94.249 Y68.027 E18.62329 ; skirt
G1 X94.507 Y70.046 E18.68373 ; skirt
G1 X94.588 Y72.001 E18.74184 ; skirt
G1 X94.507 Y73.953 E18.79983 ; skirt
G1 X94.248 Y75.978 E18.86045 ; skirt
G1 X93.868 Y77.783 E18.91521 ; skirt
G1 X93.339 Y79.570 E18.97056 ; skirt
G1 X92.603 Y81.470 E19.03104 ; skirt
G1 X91.743 Y83.231 E19.08925 ; skirt
G1 X90.696 Y84.976 E19.14967 ; skirt
G1 X89.553 Y86.564 E19.20775 ; skirt
G1 X88.355 Y87.974 E19.26269 ; skirt
G1 X87.046 Y89.287 E19.31773 ; skirt
G1 X85.493 Y90.610 E19.37831 ; skirt
G1 X83.901 Y91.747 E19.43641 ; skirt
G1 X82.222 Y92.747 E19.49442 ; skirt
G1 X80.390 Y93.637 E19.55489 ; skirt
G1 X78.665 Y94.308 E19.60985 ; skirt
G1 X77.074 Y94.784 E19.65915 ; skirt
G1 X74.974 Y95.249 E19.72303 ; skirt
G1 X72.954 Y95.507 E19.78348 ; skirt
G1 X70.999 Y95.588 E19.84159 ; skirt
G1 X69.047 Y95.507 E19.89959 ; skirt
G1 X67.022 Y95.248 E19.96021 ; skirt
G1 X65.208 Y94.866 E20.01523 ; skirt
G1 X63.430 Y94.338 E20.07031 ; skirt
G1 X61.531 Y93.604 E20.13078 ; skirt
G1 X59.769 Y92.743 E20.18900 ; skirt
G1 X58.024 Y91.696 E20.24942 ; skirt
G1 X56.436 Y90.553 E20.30750 ; skirt
G1 X55.025 Y89.355 E20.36245 ; skirt
G1 X53.713 Y88.046 E20.41749 ; skirt
G1 X52.390 Y86.493 E20.47806 ; skirt
G1 X51.253 Y84.901 E20.53616 ; skirt
G1 X50.253 Y83.222 E20.59417 ; skirt
G1 X49.364 Y81.392 E20.65457 ; skirt
G1 X48.660 Y79.566 E20.71268 ; skirt
G1 X48.134 Y77.789 E20.76771 ; skirt
G1 X47.751 Y75.973 E20.82282 ; skirt
G1 X47.493 Y73.954 E20.88325 ; skirt
G1 X47.412 Y71.999 E20.94136 ; skirt
G1 X47.493 Y70.047 E20.99936 ; skirt
G1 X47.752 Y68.022 E21.05998 ; skirt
G1 X48.132 Y66.217 E21.11474 ; skirt
G1 X48.661 Y64.430 E21.17008 ; skirt
G1 X49.396 Y62.530 E21.23056 ; skirt
G1 X50.257 Y60.769 E21.28877 ; skirt
G1 X51.306 Y59.021 E21.34930 ; skirt
G1 X52.447 Y57.436 E21.40727 ; skirt
G1 X53.645 Y56.026 E21.46222 ; skirt
G1 X54.746 Y54.921 E21.50853 ; skirt
G1 E18.00853 F3000.00000 ; retract
G92 E0 ; reset extrusion distance
G1 X79.563 Y88.875 F6000.000 ; move to first perimeter point
G1 E3.52000 F3000.00000 ; unretract
G1 F450
G1 X78.756 Y89.778 E3.55593 ; perimeter
G1 X77.691 Y90.475 E3.59373 ; perimeter
G1 X77.192 Y90.639 E3.60934 ; perimeter
G1 X77.117 Y90.462 E3.61505 ; perimeter
G1 X76.958 Y90.480 E3.61978 ; perimeter
G1 X75.878 Y90.727 E3.65269 ; perimeter
G1 X75.875 Y90.907 E3.65805 ; perimeter
G1 X75.211 Y90.944 E3.67782 ; perimeter
G1 X73.964 Y90.684 E3.71562 ; perimeter
G1 X73.011 Y90.203 E3.74734 ; perimeter
G1 X73.111 Y90.018 E3.75359 ; perimeter
G1 X72.998 Y89.905 E3.75831 ; perimeter
G1 X72.133 Y89.215 E3.79118 ; perimeter
G1 X71.945 Y89.364 E3.79830 ; perimeter
G1 X71.181 Y88.197 E3.83971 ; perimeter
G1 X70.783 Y86.988 E3.87751 ; perimeter
G1 X70.764 Y86.644 E3.88772 ; perimeter
G1 X70.961 Y86.609 E3.89366 ; perimeter
G1 X70.978 Y86.450 E3.89839 ; perimeter
G1 X70.978 Y85.342 E3.93131 ; perimeter
G1 X70.799 Y85.298 E3.93680 ; perimeter
G1 X70.972 Y84.470 E3.96192 ; perimeter
G1 X71.545 Y83.333 E3.99972 ; perimeter
G1 X72.136 Y82.672 E4.02606 ; perimeter
G1 X72.285 Y82.802 E4.03193 ; perimeter
G1 X72.420 Y82.717 E4.03666 ; perimeter
G1 X73.286 Y82.027 E4.06953 ; perimeter
G1 X73.203 Y81.854 E4.07523 ; perimeter
G1 X73.459 Y81.687 E4.08430 ; perimeter
G1 X74.668 Y81.289 E4.12211 ; perimeter
G1 X76.099 Y81.208 E4.16465 ; perimeter
G1 X76.087 Y81.465 E4.17227 ; perimeter
G1 X76.238 Y81.517 E4.17699 ; perimeter
G1 X77.318 Y81.764 E4.20990 ; perimeter
G1 X77.405 Y81.588 E4.21573 ; perimeter
G1 X78.323 Y82.051 E4.24623 ; perimeter
G1 X79.272 Y82.899 E4.28404 ; perimeter
G1 X79.659 Y83.490 E4.30501 ; perimeter
G1 X79.504 Y83.603 E4.31071 ; perimeter
G1 X79.556 Y83.753 E4.31543 ; perimeter
G1 X80.037 Y84.751 E4.34833 ; perimeter
G1 X80.215 Y84.712 E4.35376 ; perimeter
G1 X80.367 Y85.174 E4.36818 ; perimeter
G1 X80.439 Y86.445 E4.40599 ; perimeter
G1 X80.183 Y87.669 E4.44309 ; perimeter
G1 X79.962 Y87.607 E4.44992 ; perimeter
G1 X79.877 Y87.742 E4.45465 ; perimeter
G1 X79.396 Y88.740 E4.48754 ; perimeter
G1 X79.516 Y88.837 E4.49213 ; perimeter
G1 E0.99213 F3000.00000 ; retract
G92 E0 ; reset extrusion distance
G1 X86.328 Y67.154 F6000.000 ; move to first perimeter point
G1 E3.52000 F3000.00000 ; unretract
G1 F450
G1 X86.318 Y67.384 E3.52683 ; perimeter
G1 X86.468 Y67.436 E3.53156 ; perimeter
G1 X87.548 Y67.683 E3.56445 ; perimeter
G1 X87.642 Y67.490 E3.57082 ; perimeter
G1 X88.702 Y68.076 E3.60674 ; perimeter
G1 X89.619 Y68.959 E3.64455 ; perimeter
G1 X89.890 Y69.409 E3.66015 ; perimeter
G1 X89.734 Y69.522 E3.66587 ; perimeter
G1 X89.786 Y69.672 E3.67059 ; perimeter
G1 X90.267 Y70.671 E3.70351 ; perimeter
G1 X90.444 Y70.633 E3.70887 ; perimeter
G1 X90.600 Y71.176 E3.72564 ; perimeter
G1 X90.628 Y71.273 E3.72864 ; perimeter
G1 X90.652 Y72.546 E3.76644 ; perimeter
G1 X90.395 Y73.583 E3.79815 ; perimeter
G1 X90.192 Y73.527 E3.80440 ; perimeter
G1 X90.107 Y73.661 E3.80913 ; perimeter
G1 X89.627 Y74.659 E3.84200 ; perimeter
G1 X89.814 Y74.809 E3.84911 ; perimeter
G1 X88.846 Y75.813 E3.89052 ; perimeter
G1 X87.756 Y76.470 E3.92832 ; perimeter
G1 X87.425 Y76.565 E3.93853 ; perimeter
G1 X87.347 Y76.381 E3.94448 ; perimeter
G1 X87.189 Y76.399 E3.94920 ; perimeter
G1 X86.108 Y76.646 E3.98212 ; perimeter
G1 X86.105 Y76.831 E3.98761 ; perimeter
G1 X85.259 Y76.847 E4.01274 ; perimeter
G1 X84.024 Y76.540 E4.05054 ; perimeter
G1 X83.247 Y76.111 E4.07688 ; perimeter
G1 X83.341 Y75.937 E4.08275 ; perimeter
G1 X83.229 Y75.824 E4.08748 ; perimeter
G1 X82.363 Y75.134 E4.12035 ; perimeter
G1 X82.212 Y75.253 E4.12604 ; perimeter
G1 X81.992 Y75.041 E4.13512 ; perimeter
G1 X81.335 Y73.950 E4.17292 ; perimeter
