; generated by Slic3r 1.34.1-prusa3d-win64 on 2017-09-08 at 18:01:43

; Buse OEV5 - diamètre 0,4mm

; external perimeters extrusion width = 0.70mm
; perimeters extrusion width = 0.70mm
; infill extrusion width = 0.70mm
; solid infill extrusion width = 0.70mm
; top infill extrusion width = 0.70mm

M107 ; disable fan
M190 S70 ; attente chauffe plateau
M104 S195 ; préchauffe tête
G92 Z0
G1 Z5 F1200
G28 Y ; prise d'origine en Y
G28 X ; prise d'origine en X
G1 X70 Y70 F6000 ; parking
M109 S195 ; attente chauffe T0
G21 ; set units to millimeters
G90 ; use absolute coordinates
M82 ; use absolute distances for extrusion
G92 E0 ; reset extrusion distance
G1 E-3.60000 F3000.00000 ; retract
G92 E0 ; reset extrusion distance
G1 Z0.250 F7500.000 ; move to next layer (0)
G1 X54.200 Y54.036 F7500.000 ; move to first skirt point
G1 E3.65000 F3000.00000 ; unretract
G1 F1800
G1 X55.882 Y52.594 E3.75276 ; skirt
G1 X57.543 Y51.407 E3.84746 ; skirt
G1 X59.301 Y50.360 E3.94243 ; skirt
G1 X61.237 Y49.423 E4.04219 ; skirt
G1 X63.001 Y48.737 E4.13002 ; skirt
G1 X64.600 Y48.257 E4.20746 ; skirt
G1 X66.825 Y47.759 E4.31323 ; skirt
G1 X68.957 Y47.485 E4.41295 ; skirt
G1 X71.006 Y47.400 E4.50811 ; skirt
G1 X73.159 Y47.497 E4.60809 ; skirt
G1 X75.051 Y47.736 E4.69655 ; skirt
G1 X76.904 Y48.122 E4.78437 ; skirt
G1 X78.977 Y48.729 E4.88457 ; skirt
G1 X80.875 Y49.469 E4.97908 ; skirt
G1 X82.718 Y50.370 E5.07424 ; skirt
G1 X84.560 Y51.477 E5.17393 ; skirt
G1 X86.216 Y52.674 E5.26875 ; skirt
G1 X87.660 Y53.900 E5.35663 ; skirt
G1 X89.003 Y55.239 E5.44461 ; skirt
G1 X90.406 Y56.882 E5.54480 ; skirt
G1 X91.593 Y58.543 E5.63952 ; skirt
G1 X92.640 Y60.301 E5.73448 ; skirt
G1 X93.576 Y62.234 E5.83412 ; skirt
G1 X94.309 Y64.144 E5.92901 ; skirt
G1 X94.847 Y65.959 E6.01683 ; skirt
G1 X95.240 Y67.822 E6.10515 ; skirt
G1 X95.515 Y69.957 E6.20504 ; skirt
G1 X95.600 Y72.002 E6.29999 ; skirt
G1 X95.515 Y74.042 E6.39473 ; skirt
G1 X95.239 Y76.185 E6.49493 ; skirt
G1 X94.849 Y78.030 E6.58242 ; skirt
G1 X94.306 Y79.865 E6.67120 ; skirt
G1 X93.532 Y81.872 E6.77100 ; skirt
G1 X92.636 Y83.704 E6.86563 ; skirt
G1 X91.523 Y85.560 E6.96602 ; skirt
G1 X90.326 Y87.217 E7.06085 ; skirt
G1 X89.099 Y88.660 E7.14872 ; skirt
G1 X87.761 Y90.003 E7.23670 ; skirt
G1 X86.118 Y91.406 E7.33689 ; skirt
G1 X84.457 Y92.593 E7.43161 ; skirt
G1 X82.699 Y93.640 E7.52657 ; skirt
G1 X80.763 Y94.577 E7.62633 ; skirt
G1 X78.856 Y95.309 E7.72109 ; skirt
G1 X77.037 Y95.848 E7.80911 ; skirt
G1 X75.179 Y96.240 E7.89718 ; skirt
G1 X73.043 Y96.515 E7.99712 ; skirt
G1 X70.998 Y96.600 E8.09207 ; skirt
G1 X68.957 Y96.515 E8.18682 ; skirt
G1 X66.815 Y96.239 E8.28701 ; skirt
G1 X64.964 Y95.848 E8.37482 ; skirt
G1 X63.135 Y95.306 E8.46330 ; skirt
G1 X61.125 Y94.531 E8.56325 ; skirt
G1 X59.282 Y93.630 E8.65841 ; skirt
G1 X57.440 Y92.523 E8.75810 ; skirt
G1 X55.784 Y91.326 E8.85292 ; skirt
G1 X54.340 Y90.099 E8.94080 ; skirt
G1 X52.997 Y88.761 E9.02878 ; skirt
G1 X51.594 Y87.118 E9.12899 ; skirt
G1 X50.407 Y85.457 E9.22369 ; skirt
G1 X49.360 Y83.699 E9.31865 ; skirt
G1 X48.422 Y81.761 E9.41850 ; skirt
G1 X47.734 Y79.990 E9.50667 ; skirt
G1 X47.190 Y78.172 E9.59471 ; skirt
G1 X46.760 Y76.178 E9.68933 ; skirt
G1 X46.485 Y74.043 E9.78921 ; skirt
G1 X46.400 Y71.998 E9.88416 ; skirt
G1 X46.485 Y69.958 E9.97890 ; skirt
G1 X46.761 Y67.815 E10.07910 ; skirt
G1 X47.151 Y65.970 E10.16659 ; skirt
G1 X47.694 Y64.135 E10.25537 ; skirt
G1 X48.469 Y62.125 E10.35536 ; skirt
G1 X49.364 Y60.296 E10.44980 ; skirt
G1 X50.480 Y58.437 E10.55039 ; skirt
G1 X51.674 Y56.783 E10.64502 ; skirt
G1 X52.901 Y55.340 E10.73289 ; skirt
G1 X54.147 Y54.089 E10.81482 ; skirt
G1 X54.464 Y54.407 F7500.000 ; move to first skirt point
G1 F1800
G1 X54.640 Y54.231 E10.82635 ; skirt
G1 X56.045 Y53.038 E10.91187 ; skirt
G1 X57.697 Y51.842 E11.00647 ; skirt
G1 X59.499 Y50.761 E11.10397 ; skirt
G1 X61.304 Y49.878 E11.19717 ; skirt
G1 X63.263 Y49.121 E11.29464 ; skirt
G1 X65.069 Y48.586 E11.38200 ; skirt
G1 X66.821 Y48.216 E11.46509 ; skirt
G1 X68.991 Y47.930 E11.56662 ; skirt
G1 X71.002 Y47.847 E11.66001 ; skirt
G1 X73.001 Y47.930 E11.75283 ; skirt
G1 X75.093 Y48.198 E11.85066 ; skirt
G1 X76.927 Y48.585 E11.93764 ; skirt
G1 X78.733 Y49.120 E12.02501 ; skirt
G1 X80.697 Y49.878 E12.12267 ; skirt
G1 X82.501 Y50.761 E12.21586 ; skirt
G1 X84.302 Y51.841 E12.31327 ; skirt
G1 X85.928 Y53.015 E12.40631 ; skirt
G1 X87.358 Y54.229 E12.49335 ; skirt
G1 X88.687 Y55.555 E12.58046 ; skirt
G1 X90.054 Y57.156 E12.67812 ; skirt
G1 X91.219 Y58.787 E12.77110 ; skirt
G1 X92.245 Y60.510 E12.86413 ; skirt
G1 X93.161 Y62.398 E12.96148 ; skirt
G1 X93.881 Y64.271 E13.05458 ; skirt
G1 X94.414 Y66.069 E13.14158 ; skirt
G1 X94.803 Y67.913 E13.22899 ; skirt
G1 X95.070 Y69.995 E13.32640 ; skirt
G1 X95.153 Y71.998 E13.41939 ; skirt
G1 X95.070 Y74.001 E13.51240 ; skirt
G1 X94.803 Y76.086 E13.60992 ; skirt
G1 X94.376 Y78.066 E13.70386 ; skirt
G1 X93.844 Y79.845 E13.79002 ; skirt
G1 X93.163 Y81.596 E13.87721 ; skirt
G1 X92.247 Y83.487 E13.97466 ; skirt
G1 X91.220 Y85.211 E14.06778 ; skirt
G1 X90.055 Y86.843 E14.16078 ; skirt
G1 X88.687 Y88.445 E14.25851 ; skirt
G1 X87.360 Y89.769 E14.34549 ; skirt
G1 X85.955 Y90.962 E14.43101 ; skirt
G1 X84.303 Y92.158 E14.52562 ; skirt
G1 X82.501 Y93.239 E14.62311 ; skirt
G1 X80.696 Y94.122 E14.71631 ; skirt
G1 X78.736 Y94.879 E14.81378 ; skirt
G1 X76.931 Y95.414 E14.90114 ; skirt
G1 X75.179 Y95.784 E14.98423 ; skirt
G1 X73.009 Y96.070 E15.08576 ; skirt
G1 X70.998 Y96.153 E15.17915 ; skirt
G1 X68.999 Y96.070 E15.27196 ; skirt
G1 X66.911 Y95.803 E15.36963 ; skirt
G1 X65.073 Y95.415 E15.45678 ; skirt
G1 X63.267 Y94.880 E15.54415 ; skirt
G1 X61.315 Y94.127 E15.64122 ; skirt
G1 X59.499 Y93.239 E15.73500 ; skirt
G1 X57.705 Y92.163 E15.83202 ; skirt
G1 X56.079 Y90.991 E15.92500 ; skirt
G1 X54.648 Y89.776 E16.01210 ; skirt
G1 X53.456 Y88.588 E16.09021 ; skirt
G1 X51.956 Y86.857 E16.19647 ; skirt
G1 X50.788 Y85.223 E16.28963 ; skirt
G1 X49.755 Y83.490 E16.38324 ; skirt
G1 X48.844 Y81.614 E16.48002 ; skirt
G1 X48.119 Y79.729 E16.57370 ; skirt
G1 X47.586 Y77.931 E16.66068 ; skirt
G1 X47.197 Y76.087 E16.74811 ; skirt
G1 X46.930 Y74.005 E16.84551 ; skirt
G1 X46.847 Y72.002 E16.93851 ; skirt
G1 X46.930 Y69.999 E17.03151 ; skirt
G1 X47.197 Y67.914 E17.12903 ; skirt
G1 X47.583 Y66.084 E17.21581 ; skirt
G1 X48.109 Y64.305 E17.30186 ; skirt
G1 X48.838 Y62.400 E17.39650 ; skirt
G1 X49.753 Y60.513 E17.49378 ; skirt
G1 X50.780 Y58.789 E17.58689 ; skirt
G1 X51.945 Y57.158 E17.67988 ; skirt
G1 X53.313 Y55.555 E17.77762 ; skirt
G1 X54.411 Y54.459 E17.84959 ; skirt
G1 X54.726 Y54.773 F7500.000 ; move to first skirt point
G1 F1800
G1 X54.871 Y54.628 E17.85912 ; skirt
G1 X56.435 Y53.295 E17.95448 ; skirt
G1 X58.032 Y52.154 E18.04554 ; skirt
G1 X59.723 Y51.147 E18.13683 ; skirt
G1 X61.566 Y50.253 E18.23185 ; skirt
G1 X63.294 Y49.580 E18.31791 ; skirt
G1 X64.855 Y49.113 E18.39349 ; skirt
G1 X67.003 Y48.634 E18.49559 ; skirt
G1 X69.038 Y48.374 E18.59075 ; skirt
G1 X71.003 Y48.293 E18.68201 ; skirt
G1 X73.053 Y48.384 E18.77721 ; skirt
G1 X74.902 Y48.616 E18.86363 ; skirt
G1 X76.721 Y48.995 E18.94987 ; skirt
G1 X78.690 Y49.575 E19.04508 ; skirt
G1 X80.519 Y50.288 E19.13615 ; skirt
G1 X82.290 Y51.154 E19.22758 ; skirt
G1 X84.044 Y52.206 E19.32252 ; skirt
G1 X85.640 Y53.355 E19.41372 ; skirt
G1 X87.057 Y54.558 E19.49996 ; skirt
G1 X88.372 Y55.871 E19.58616 ; skirt
G1 X89.703 Y57.432 E19.68134 ; skirt
G1 X90.846 Y59.032 E19.77258 ; skirt
G1 X91.853 Y60.723 E19.86387 ; skirt
G1 X92.748 Y62.567 E19.95895 ; skirt
G1 X93.422 Y64.302 E20.04531 ; skirt
G1 X93.945 Y66.049 E20.12991 ; skirt
G1 X94.366 Y68.004 E20.22269 ; skirt
G1 X94.625 Y70.034 E20.31764 ; skirt
G1 X94.707 Y71.999 E20.40890 ; skirt
G1 X94.626 Y73.965 E20.50016 ; skirt
G1 X94.366 Y75.997 E20.59521 ; skirt
G1 X93.949 Y77.938 E20.68732 ; skirt
G1 X93.423 Y79.697 E20.77249 ; skirt
G1 X92.747 Y81.434 E20.85893 ; skirt
G1 X91.854 Y83.276 E20.95393 ; skirt
G1 X90.846 Y84.968 E21.04529 ; skirt
G1 X89.705 Y86.566 E21.13637 ; skirt
G1 X88.372 Y88.129 E21.23170 ; skirt
G1 X87.057 Y89.441 E21.31788 ; skirt
G1 X85.667 Y90.622 E21.40249 ; skirt
G1 X84.047 Y91.792 E21.49516 ; skirt
G1 X82.291 Y92.846 E21.59021 ; skirt
G1 X80.520 Y93.712 E21.68165 ; skirt
G1 X78.610 Y94.451 E21.77666 ; skirt
G1 X76.824 Y94.981 E21.86308 ; skirt
G1 X75.087 Y95.347 E21.94544 ; skirt
G1 X72.970 Y95.625 E22.04451 ; skirt
G1 X71.001 Y95.707 E22.13595 ; skirt
G1 X69.035 Y95.626 E22.22721 ; skirt
G1 X67.004 Y95.366 E22.32223 ; skirt
G1 X65.083 Y94.955 E22.41336 ; skirt
G1 X63.303 Y94.423 E22.49955 ; skirt
G1 X61.567 Y93.748 E22.58596 ; skirt
G1 X59.724 Y92.854 E22.68097 ; skirt
G1 X58.032 Y91.846 E22.77234 ; skirt
G1 X56.435 Y90.705 E22.86341 ; skirt
G1 X54.871 Y89.372 E22.95875 ; skirt
G1 X53.559 Y88.057 E23.04493 ; skirt
G1 X52.375 Y86.663 E23.12978 ; skirt
G1 X51.208 Y85.048 E23.22221 ; skirt
G1 X50.154 Y83.291 E23.31726 ; skirt
G1 X49.288 Y81.519 E23.40876 ; skirt
G1 X48.548 Y79.606 E23.50390 ; skirt
G1 X48.018 Y77.820 E23.59031 ; skirt
G1 X47.642 Y76.036 E23.67492 ; skirt
G1 X47.375 Y73.966 E23.77175 ; skirt
G1 X47.293 Y72.001 E23.86301 ; skirt
G1 X47.374 Y70.035 E23.95427 ; skirt
G1 X47.635 Y67.999 E24.04952 ; skirt
G1 X48.016 Y66.192 E24.13518 ; skirt
G1 X48.548 Y64.395 E24.22212 ; skirt
G1 X49.288 Y62.481 E24.31733 ; skirt
G1 X50.154 Y60.710 E24.40877 ; skirt
G1 X51.206 Y58.956 E24.50369 ; skirt
G1 X52.355 Y57.360 E24.59491 ; skirt
G1 X53.558 Y55.943 E24.68113 ; skirt
G1 X54.673 Y54.827 E24.75433 ; skirt
G1 E21.15433 F3000.00000 ; retract
G92 E0 ; reset extrusion distance
G1 X79.644 Y88.904 F7500.000 ; move to first perimeter point
G1 E3.65000 F3000.00000 ; unretract
G1 F450
G1 X78.809 Y89.838 E3.70817 ; perimeter
G1 X77.726 Y90.547 E3.76821 ; perimeter
G1 X77.157 Y90.735 E3.79602 ; perimeter
G1 X77.066 Y90.523 E3.80671 ; perimeter
G1 X76.884 Y90.543 E3.81520 ; perimeter
G1 X75.907 Y90.766 E3.86170 ; perimeter
G1 X75.904 Y90.985 E3.87186 ; perimeter
G1 X75.205 Y91.024 E3.90437 ; perimeter
G1 X73.938 Y90.760 E3.96441 ; perimeter
G1 X72.910 Y90.241 E4.01780 ; perimeter
G1 X73.032 Y90.016 E4.02968 ; perimeter
G1 X72.903 Y89.887 E4.03817 ; perimeter
G1 X72.120 Y89.263 E4.08461 ; perimeter
G1 X71.898 Y89.438 E4.09772 ; perimeter
G1 X71.109 Y88.232 E4.16459 ; perimeter
G1 X70.704 Y87.002 E4.22463 ; perimeter
G1 X70.681 Y86.588 E4.24389 ; perimeter
G1 X70.913 Y86.546 E4.25482 ; perimeter
G1 X70.933 Y86.364 E4.26331 ; perimeter
G1 X70.933 Y85.362 E4.30983 ; perimeter
G1 X70.715 Y85.309 E4.32023 ; perimeter
G1 X70.896 Y84.443 E4.36124 ; perimeter
G1 X71.479 Y83.288 E4.42128 ; perimeter
G1 X72.123 Y82.567 E4.46613 ; perimeter
G1 X72.304 Y82.726 E4.47730 ; perimeter
G1 X72.459 Y82.628 E4.48579 ; perimeter
G1 X73.242 Y82.004 E4.53222 ; perimeter
G1 X73.144 Y81.798 E4.54283 ; perimeter
G1 X73.424 Y81.614 E4.55838 ; perimeter
G1 X74.653 Y81.210 E4.61842 ; perimeter
G1 X76.173 Y81.124 E4.68903 ; perimeter
G1 X76.159 Y81.432 E4.70330 ; perimeter
G1 X76.332 Y81.492 E4.71179 ; perimeter
G1 X77.309 Y81.715 E4.75829 ; perimeter
G1 X77.414 Y81.503 E4.76927 ; perimeter
G1 X78.368 Y81.985 E4.81882 ; perimeter
G1 X79.333 Y82.847 E4.87886 ; perimeter
G1 X79.762 Y83.502 E4.91520 ; perimeter
G1 X79.574 Y83.639 E4.92597 ; perimeter
G1 X79.634 Y83.811 E4.93446 ; perimeter
G1 X80.069 Y84.714 E4.98093 ; perimeter
G1 X80.284 Y84.667 E4.99115 ; perimeter
G1 X80.446 Y85.159 E5.01519 ; perimeter
G1 X80.519 Y86.451 E5.07523 ; perimeter
G1 X80.246 Y87.759 E5.13719 ; perimeter
G1 X79.978 Y87.684 E5.15010 ; perimeter
G1 X79.880 Y87.839 E5.15860 ; perimeter
G1 X79.446 Y88.742 E5.20507 ; perimeter
G1 X79.586 Y88.856 E5.21347 ; perimeter
G1 E1.61347 F3000.00000 ; retract
G92 E0 ; reset extrusion distance
G1 X86.402 Y67.073 F7500.000 ; move to first perimeter point
G1 E3.65000 F3000.00000 ; unretract
G1 F450
G1 X86.389 Y67.351 E3.66291 ; perimeter
G1 X86.562 Y67.411 E3.67140 ; perimeter
G1 X87.539 Y67.634 E3.71788 ; perimeter
G1 X87.652 Y67.405 E3.72975 ; perimeter
G1 X88.749 Y68.011 E3.78792 ; perimeter
G1 X89.681 Y68.909 E3.84796 ; perimeter
G1 X89.991 Y69.423 E3.87578 ; perimeter
G1 X89.804 Y69.558 E3.88647 ; perimeter
G1 X89.865 Y69.731 E3.89495 ; perimeter
G1 X90.300 Y70.634 E3.94146 ; perimeter
G1 X90.514 Y70.588 E3.95161 ; perimeter
G1 X90.708 Y71.261 E3.98413 ; perimeter
G1 X90.732 Y72.555 E4.04417 ; perimeter
G1 X90.455 Y73.672 E4.09756 ; perimeter
G1 X90.208 Y73.604 E4.10943 ; perimeter
G1 X90.111 Y73.759 E4.11792 ; perimeter
G1 X89.676 Y74.661 E4.16436 ; perimeter
G1 X89.896 Y74.838 E4.17747 ; perimeter
G1 X88.896 Y75.876 E4.24434 ; perimeter
G1 X87.788 Y76.544 E4.30438 ; perimeter
G1 X87.389 Y76.659 E4.32364 ; perimeter
G1 X87.297 Y76.442 E4.33457 ; perimeter
G1 X87.115 Y76.463 E4.34306 ; perimeter
G1 X86.137 Y76.686 E4.38958 ; perimeter
G1 X86.134 Y76.910 E4.39998 ; perimeter
G1 X85.250 Y76.926 E4.44100 ; perimeter
G1 X83.994 Y76.615 E4.50104 ; perimeter
G1 X83.148 Y76.147 E4.54589 ; perimeter
G1 X83.262 Y75.935 E4.55705 ; perimeter
G1 X83.133 Y75.806 E4.56554 ; perimeter
G1 X82.350 Y75.182 E4.61197 ; perimeter
G1 X82.171 Y75.324 E4.62257 ; perimeter
G1 X81.929 Y75.091 E4.63813 ; perimeter
G1 X81.262 Y73.982 E4.69817 ; perimeter
G1 X80.840 Y72.520 E4.76878 ; perimeter
G1 X81.143 Y72.465 E4.78306 ; perimeter
G1 X81.163 Y72.283 E4.79155 ; perimeter
G1 X81.163 Y71.281 E4.83805 ; perimeter
G1 X80.933 Y71.226 E4.84903 ; perimeter
G1 X81.191 Y70.189 E4.89858 ; perimeter
G1 X81.817 Y69.056 E4.95862 ; perimeter
G1 X82.360 Y68.492 E4.99496 ; perimeter
G1 X82.535 Y68.645 E5.00573 ; perimeter
G1 X82.690 Y68.547 E5.01422 ; perimeter
G1 X83.473 Y67.923 E5.06069 ; perimeter
G1 X83.379 Y67.724 E5.07091 ; perimeter
G1 X83.823 Y67.456 E5.09495 ; perimeter
G1 X85.067 Y67.098 E5.15499 ; perimeter
G1 X86.327 Y67.074 E5.21348 ; perimeter
G1 E1.61348 F3000.00000 ; retract
G92 E0 ; reset extrusion distance
G1 X79.370 Y70.016 F7500.000 ; move to first perimeter point
G1 E3.65000 F3000.00000 ; unretract
G1 F810
G1 X79.602 Y72.000 E3.74266 ; perimeter
G1 X79.370 Y73.984 E3.83531 ; perimeter
G1 X78.687 Y75.860 E3.92797 ; perimeter
G1 X77.589 Y77.529 E4.02062 ; perimeter
G1 X76.137 Y78.900 E4.11328 ; perimeter
G1 X74.407 Y79.898 E4.20593 ; perimeter
G1 X72.494 Y80.471 E4.29859 ; perimeter
G1 X70.500 Y80.587 E4.39124 ; perimeter
G1 X68.533 Y80.240 E4.48389 ; perimeter
G1 X66.699 Y79.449 E4.57655 ; perimeter
G1 X65.118 Y78.272 E4.66800 ; perimeter
G1 X63.814 Y76.727 E4.76181 ; perimeter
G1 X62.917 Y74.942 E4.85448 ; perimeter
G1 X62.456 Y72.999 E4.94714 ; perimeter
G1 X62.456 Y71.001 E5.03979 ; perimeter
G1 X62.917 Y69.058 E5.13245 ; perimeter
G1 X63.813 Y67.273 E5.22510 ; perimeter
G1 X65.097 Y65.743 E5.31776 ; perimeter
G1 X66.699 Y64.551 E5.41041 ; perimeter
G1 X68.533 Y63.760 E5.50307 ; perimeter
G1 X70.500 Y63.413 E5.59572 ; perimeter
G1 X72.494 Y63.529 E5.68838 ; perimeter
G1 X74.407 Y64.102 E5.78103 ; perimeter
G1 X76.137 Y65.100 E5.87369 ; perimeter
G1 X77.589 Y66.471 E5.96634 ; perimeter
G1 X78.687 Y68.140 E6.05900 ; perimeter
G1 X79.344 Y69.946 E6.14817 ; perimeter
G1 E2.54817 F3000.00000 ; retract
G92 E0 ; reset extrusion distance
G1 X77.157 Y62.575 F7500.000 ; move to first perimeter point
G1 E3.65000 F3000.00000 ; unretract
G1 F450
G1 X77.066 Y62.361 E3.66077 ; perimeter
G1 X76.884 Y62.382 E3.66926 ; perimeter
G1 X75.908 Y62.605 E3.71573 ; perimeter
G1 X75.906 Y62.825 E3.72595 ; perimeter
G1 X75.390 Y62.873 E3.74999 ; perimeter
G1 X74.114 Y62.657 E3.81003 ; perimeter
G1 X72.900 Y62.100 E3.87200 ; perimeter
G1 X73.032 Y61.855 E3.88491 ; perimeter
G1 X72.903 Y61.725 E3.89340 ; perimeter
G1 X72.119 Y61.101 E3.93988 ; perimeter
G1 X71.918 Y61.258 E3.95175 ; perimeter
G1 X71.192 Y60.236 E4.00992 ; perimeter
G1 X70.742 Y59.022 E4.06996 ; perimeter
G1 X70.686 Y58.425 E4.09777 ; perimeter
G1 X70.913 Y58.385 E4.10846 ; perimeter
G1 X70.933 Y58.203 E4.11695 ; perimeter
G1 X70.933 Y57.200 E4.16346 ; perimeter
G1 X70.720 Y57.149 E4.17361 ; perimeter
G1 X70.838 Y56.458 E4.20613 ; perimeter
G1 X71.377 Y55.282 E4.26617 ; perimeter
G1 X72.112 Y54.395 E4.31956 ; perimeter
