; generated by Slic3r 1.34.1-prusa3d-win64 on 2017-09-04 at 21:22:19

; Buse OEV5 - diamètre 0,5mm

; external perimeters extrusion width = 0.40mm
; perimeters extrusion width = 0.50mm
; infill extrusion width = 0.50mm
; solid infill extrusion width = 0.50mm
; top infill extrusion width = 0.40mm

M107 ; disable fan
M190 S70 ; attente chauffe plateau
M104 S195 ; préchauffe tête
G92 Z0
G1 Z5 F1200
G28 Y ; prise d'origine en Y
G28 X ; prise d'origine en X
G1 X70 Y70 F6000 ; parking
M109 S195 ; attente chauffe T0
G21 ; set units to millimeters
G90 ; use absolute coordinates
M82 ; use absolute distances for extrusion
G92 E0 ; reset extrusion distance
G1 E-3.50000 F3000.00000 ; retract
G92 E0 ; reset extrusion distance
G1 Z0.250 F7500.000 ; move to next layer (0)
G1 X52.509 Y44.522 F7500.000 ; move to first skirt point
G1 E3.50000 F3000.00000 ; unretract
G1 F1800
G1 X53.317 Y44.285 E3.53904 ; skirt
G1 X88.302 Y44.277 E5.16210 ; skirt
G1 X89.294 Y44.453 E5.20884 ; skirt
G1 X90.169 Y44.961 E5.25577 ; skirt
G1 X95.017 Y49.795 E5.57342 ; skirt
G1 X95.400 Y50.279 E5.60202 ; skirt
G1 X101.420 Y64.725 E6.32810 ; skirt
G1 X101.602 Y65.371 E6.35922 ; skirt
G1 X101.638 Y72.434 E6.68688 ; skirt
G1 X101.532 Y73.185 E6.72206 ; skirt
G1 X95.604 Y87.526 E7.44200 ; skirt
G1 X95.261 Y88.127 E7.47409 ; skirt
G1 X90.308 Y93.126 E7.80057 ; skirt
G1 X89.701 Y93.581 E7.83576 ; skirt
G1 X75.368 Y99.530 E8.55571 ; skirt
G1 X74.626 Y99.722 E8.59128 ; skirt
G1 X67.663 Y99.743 E8.91430 ; skirt
G1 X66.916 Y99.636 E8.94928 ; skirt
G1 X52.579 Y93.709 E9.66904 ; skirt
G1 X51.978 Y93.366 E9.70112 ; skirt
G1 X46.979 Y88.412 E10.02761 ; skirt
G1 X46.524 Y87.806 E10.06279 ; skirt
G1 X40.577 Y73.477 E10.78255 ; skirt
G1 X40.383 Y72.730 E10.81831 ; skirt
G1 X40.362 Y65.768 E11.14133 ; skirt
G1 X40.469 Y65.021 E11.17632 ; skirt
G1 X46.397 Y50.685 E11.89604 ; skirt
G1 X46.739 Y50.083 E11.92812 ; skirt
G1 X51.804 Y44.981 E12.26166 ; skirt
G1 X52.446 Y44.563 E12.29722 ; skirt
G1 E8.79722 F3000.00000 ; retract
G92 E0 ; reset extrusion distance
G1 X52.865 Y44.857 F7500.000 ; move to first skirt point
G1 E3.50000 F3000.00000 ; unretract
G1 F1800
G1 X53.719 Y44.704 E3.54023 ; skirt
G1 X88.633 Y44.746 E5.15998 ; skirt
G1 X89.324 Y44.947 E5.19338 ; skirt
G1 X89.929 Y45.344 E5.22696 ; skirt
G1 X94.916 Y50.362 E5.55514 ; skirt
G1 X95.212 Y50.881 E5.58286 ; skirt
G1 X101.100 Y65.166 E6.29967 ; skirt
G1 X101.191 Y65.803 E6.32952 ; skirt
G1 X101.174 Y72.701 E6.64957 ; skirt
G1 X101.009 Y73.335 E6.67995 ; skirt
G1 X95.070 Y87.604 E7.39698 ; skirt
G1 X94.681 Y88.121 E7.42701 ; skirt
G1 X89.744 Y93.022 E7.74970 ; skirt
G1 X89.225 Y93.317 E7.77742 ; skirt
G1 X74.939 Y99.205 E8.49427 ; skirt
G1 X74.302 Y99.296 E8.52412 ; skirt
G1 X67.404 Y99.279 E8.84416 ; skirt
G1 X66.770 Y99.114 E8.87454 ; skirt
G1 X52.501 Y93.174 E9.59157 ; skirt
G1 X51.984 Y92.786 E9.62159 ; skirt
G1 X47.086 Y87.852 E9.94411 ; skirt
G1 X46.788 Y87.330 E9.97200 ; skirt
G1 X40.899 Y73.040 E10.68903 ; skirt
G1 X40.809 Y72.403 E10.71888 ; skirt
G1 X40.837 Y65.432 E11.04230 ; skirt
G1 X40.994 Y64.867 E11.06948 ; skirt
G1 X46.986 Y50.514 E11.79108 ; skirt
G1 X47.320 Y50.089 E11.81613 ; skirt
G1 X52.118 Y45.299 E12.13067 ; skirt
G1 X52.801 Y44.895 E12.16749 ; skirt
G1 E8.66749 F3000.00000 ; retract
G92 E0 ; reset extrusion distance
G1 X60.161 Y52.302 F7500.000 ; move to first perimeter point
G1 E3.50000 F3000.00000 ; unretract
G1 F1800
G1 X61.336 Y51.619 E3.56304 ; perimeter
G1 X62.304 Y51.117 E3.61366 ; perimeter
G1 X63.317 Y50.668 E3.66505 ; perimeter
G1 X65.902 Y61.360 E4.17538 ; perimeter
G1 X65.371 Y61.737 E4.20558 ; perimeter
G1 X64.976 Y62.053 E4.22905 ; perimeter
G1 X64.585 Y62.406 E4.25351 ; perimeter
G1 X64.180 Y62.814 E4.28018 ; perimeter
G1 X63.819 Y63.227 E4.30560 ; perimeter
G1 X63.475 Y63.670 E4.33163 ; perimeter
G1 X63.187 Y64.089 E4.35525 ; perimeter
G1 X62.871 Y64.611 E4.38353 ; perimeter
G1 X62.616 Y65.100 E4.40913 ; perimeter
G1 X62.381 Y65.628 E4.43591 ; perimeter
G1 X62.202 Y66.101 E4.45940 ; perimeter
G1 X62.043 Y66.607 E4.48401 ; perimeter
G1 X61.893 Y67.210 E4.51282 ; perimeter
G1 X61.791 Y67.784 E4.53988 ; perimeter
G1 X61.729 Y68.299 E4.56395 ; perimeter
G1 X61.695 Y68.868 E4.59040 ; perimeter
G1 X61.694 Y69.412 E4.61562 ; perimeter
G1 X61.723 Y69.938 E4.64008 ; perimeter
G1 X61.790 Y70.522 E4.66735 ; perimeter
G1 X61.884 Y71.054 E4.69239 ; perimeter
G1 X62.025 Y71.634 E4.72010 ; perimeter
G1 X62.176 Y72.129 E4.74411 ; perimeter
G1 X62.355 Y72.616 E4.76816 ; perimeter
G1 X62.601 Y73.175 E4.79649 ; perimeter
G1 X62.855 Y73.667 E4.82217 ; perimeter
G1 X63.129 Y74.129 E4.84712 ; perimeter
G1 X63.445 Y74.597 E4.87332 ; perimeter
G1 X63.746 Y74.992 E4.89635 ; perimeter
G1 X64.144 Y75.455 E4.92465 ; perimeter
G1 X64.564 Y75.882 E4.95246 ; perimeter
G1 X64.949 Y76.232 E4.97661 ; perimeter
G1 X65.347 Y76.554 E5.00037 ; perimeter
G1 X65.838 Y76.906 E5.02838 ; perimeter
G1 X66.310 Y77.201 E5.05420 ; perimeter
G1 X66.742 Y77.439 E5.07706 ; perimeter
G1 X67.290 Y77.700 E5.10525 ; perimeter
G1 X67.813 Y77.909 E5.13136 ; perimeter
G1 X68.302 Y78.071 E5.15527 ; perimeter
G1 X68.870 Y78.224 E5.18257 ; perimeter
G1 X69.385 Y78.330 E5.20696 ; perimeter
G1 X69.975 Y78.414 E5.23462 ; perimeter
G1 X70.526 Y78.459 E5.26026 ; perimeter
G1 X71.042 Y78.471 E5.28420 ; perimeter
G1 X71.643 Y78.450 E5.31209 ; perimeter
G1 X72.183 Y78.398 E5.33726 ; perimeter
G1 X72.700 Y78.318 E5.36151 ; perimeter
G1 X73.269 Y78.195 E5.38852 ; perimeter
G1 X73.840 Y78.033 E5.41606 ; perimeter
G1 X74.321 Y77.865 E5.43973 ; perimeter
G1 X74.845 Y77.647 E5.46604 ; perimeter
G1 X75.340 Y77.405 E5.49160 ; perimeter
G1 X75.790 Y77.152 E5.51552 ; perimeter
G1 X76.298 Y76.825 E5.54357 ; perimeter
G1 X76.745 Y76.497 E5.56928 ; perimeter
G1 X77.129 Y76.179 E5.59245 ; perimeter
G1 X77.576 Y75.763 E5.62076 ; perimeter
G1 X77.982 Y75.333 E5.64819 ; perimeter
G1 X78.320 Y74.931 E5.67256 ; perimeter
G1 X78.649 Y74.488 E5.69814 ; perimeter
G1 X78.953 Y74.025 E5.72386 ; perimeter
G1 X79.207 Y73.585 E5.74741 ; perimeter
G1 X79.471 Y73.058 E5.77475 ; perimeter
G1 X79.689 Y72.548 E5.80049 ; perimeter
G1 X79.882 Y72.004 E5.82728 ; perimeter
G1 X80.027 Y71.503 E5.85147 ; perimeter
G1 X80.161 Y70.908 E5.87978 ; perimeter
G1 X80.242 Y70.419 E5.90275 ; perimeter
G1 X80.300 Y69.861 E5.92881 ; perimeter
G1 X80.326 Y69.251 E5.95710 ; perimeter
G1 X80.317 Y68.721 E5.98170 ; perimeter
G1 X80.280 Y68.217 E6.00515 ; perimeter
G1 X80.206 Y67.647 E6.03183 ; perimeter
G1 X80.087 Y67.046 E6.06025 ; perimeter
G1 X79.954 Y66.537 E6.08465 ; perimeter
G1 X79.777 Y65.992 E6.11122 ; perimeter
G1 X79.573 Y65.476 E6.13698 ; perimeter
G1 X79.326 Y64.949 E6.16397 ; perimeter
G1 X79.087 Y64.508 E6.18725 ; perimeter
G1 X78.807 Y64.053 E6.21201 ; perimeter
G1 X78.462 Y63.561 E6.23994 ; perimeter
G1 X78.121 Y63.134 E6.26527 ; perimeter
G1 X77.749 Y62.721 E6.29104 ; perimeter
G1 X77.377 Y62.353 E6.31535 ; perimeter
G1 X76.939 Y61.967 E6.34241 ; perimeter
G1 X76.461 Y61.597 E6.37047 ; perimeter
G1 X76.026 Y61.318 E6.39443 ; perimeter
G1 X78.611 Y50.624 E6.90485 ; perimeter
G1 X79.742 Y51.127 E6.96225 ; perimeter
G1 X80.674 Y51.614 E7.01101 ; perimeter
G1 X81.871 Y52.310 E7.07529 ; perimeter
G1 X88.212 Y48.066 E7.42926 ; perimeter
G1 X92.057 Y51.911 E7.68151 ; perimeter
G1 X87.819 Y58.244 E8.03506 ; perimeter
G1 X88.424 Y59.267 E8.09017 ; perimeter
G1 X88.776 Y59.921 E8.12465 ; perimeter
G1 X89.193 Y60.758 E8.16806 ; perimeter
G1 X89.502 Y61.460 E8.20364 ; perimeter
G1 X89.787 Y62.182 E8.23962 ; perimeter
G1 X90.063 Y62.976 E8.27865 ; perimeter
G1 X90.311 Y63.805 E8.31876 ; perimeter
G1 X90.601 Y64.923 E8.37235 ; perimeter
G1 X98.049 Y66.399 E8.72459 ; perimeter
G1 X98.049 Y71.836 E8.97686 ; perimeter
G1 X90.611 Y73.309 E9.32860 ; perimeter
G1 X90.310 Y74.483 E9.38481 ; perimeter
G1 X90.094 Y75.203 E9.41970 ; perimeter
G1 X89.818 Y76.028 E9.46008 ; perimeter
G1 X89.508 Y76.826 E9.49977 ; perimeter
G1 X89.191 Y77.548 E9.53634 ; perimeter
G1 X88.862 Y78.227 E9.57134 ; perimeter
G1 X88.432 Y79.025 E9.61344 ; perimeter
G1 X87.836 Y80.036 E9.66786 ; perimeter
G1 X92.040 Y86.318 E10.01854 ; perimeter
G1 X88.195 Y90.163 E10.27080 ; perimeter
G1 X81.920 Y85.962 E10.62113 ; perimeter
G1 X80.890 Y86.571 E10.67659 ; perimeter
G1 X80.229 Y86.926 E10.71142 ; perimeter
G1 X79.383 Y87.345 E10.75522 ; perimeter
G1 X78.672 Y87.656 E10.79120 ; perimeter
G1 X77.942 Y87.941 E10.82757 ; perimeter
G1 X77.139 Y88.217 E10.86697 ; perimeter
G1 X76.300 Y88.465 E10.90756 ; perimeter
G1 X75.172 Y88.754 E10.96159 ; perimeter
G1 X73.706 Y96.154 E11.31156 ; perimeter
G1 X68.268 Y96.154 E11.56383 ; perimeter
G1 X66.801 Y88.745 E11.91421 ; perimeter
G1 X65.627 Y88.441 E11.97045 ; perimeter
G1 X64.906 Y88.222 E12.00542 ; perimeter
G1 X64.079 Y87.943 E12.04590 ; perimeter
G1 X63.281 Y87.629 E12.08569 ; perimeter
G1 X62.558 Y87.310 E12.12236 ; perimeter
G1 X61.879 Y86.977 E12.15745 ; perimeter
G1 X61.079 Y86.543 E12.19966 ; perimeter
G1 X60.068 Y85.942 E12.25425 ; perimeter
G1 X53.787 Y90.145 E12.60485 ; perimeter
G1 X49.942 Y86.300 E12.85710 ; perimeter
G1 X54.158 Y80.002 E13.20870 ; perimeter
G1 X53.557 Y78.977 E13.26383 ; perimeter
G1 X53.206 Y78.319 E13.29842 ; perimeter
G1 X52.793 Y77.477 E13.34192 ; perimeter
G1 X52.486 Y76.770 E13.37766 ; perimeter
G1 X52.205 Y76.044 E13.41379 ; perimeter
G1 X51.932 Y75.246 E13.45292 ; perimeter
G1 X51.687 Y74.412 E13.49324 ; perimeter
G1 X51.402 Y73.287 E13.54707 ; perimeter
G1 X43.951 Y71.811 E13.89945 ; perimeter
G1 X43.951 Y66.373 E14.15171 ; perimeter
G1 X51.421 Y64.894 E14.50500 ; perimeter
G1 X51.726 Y63.731 E14.56074 ; perimeter
G1 X51.944 Y63.019 E14.59529 ; perimeter
G1 X52.222 Y62.205 E14.63522 ; perimeter
G1 X52.534 Y61.415 E14.67461 ; perimeter
G1 X52.851 Y60.701 E14.71083 ; perimeter
G1 X53.189 Y60.012 E14.74644 ; perimeter
G1 X53.610 Y59.240 E14.78725 ; perimeter
G1 X54.206 Y58.235 E14.84146 ; perimeter
G1 X49.960 Y51.893 E15.19552 ; perimeter
G1 X53.806 Y48.047 E15.44782 ; perimeter
G1 X60.098 Y52.260 E15.79915 ; perimeter
G1 X60.177 Y51.776 F7500.000 ; move to first perimeter point
G1 F1620
G1 X61.121 Y51.228 E15.84976 ; perimeter
G1 X62.111 Y50.714 E15.90150 ; perimeter
G1 X63.629 Y50.058 E15.97822 ; perimeter
G1 X66.412 Y61.570 E16.52770 ; perimeter
G1 X66.148 Y61.733 E16.54209 ; perimeter
G1 X65.640 Y62.093 E16.57100 ; perimeter
G1 X65.265 Y62.393 E16.59327 ; perimeter
G1 X64.893 Y62.729 E16.61653 ; perimeter
G1 X64.507 Y63.119 E16.64197 ; perimeter
G1 X64.164 Y63.511 E16.66615 ; perimeter
G1 X63.835 Y63.933 E16.69097 ; perimeter
G1 X63.562 Y64.331 E16.71338 ; perimeter
G1 X63.261 Y64.830 E16.74040 ; perimeter
G1 X63.018 Y65.294 E16.76471 ; perimeter
G1 X62.794 Y65.798 E16.79026 ; perimeter
G1 X62.624 Y66.247 E16.81256 ; perimeter
G1 X62.473 Y66.728 E16.83595 ; perimeter
G1 X62.330 Y67.303 E16.86344 ; perimeter
G1 X62.232 Y67.850 E16.88921 ; perimeter
G1 X62.174 Y68.339 E16.91207 ; perimeter
G1 X62.141 Y68.882 E16.93730 ; perimeter
G1 X62.140 Y69.400 E16.96132 ; perimeter
G1 X62.168 Y69.900 E16.98458 ; perimeter
G1 X62.232 Y70.458 E17.01061 ; perimeter
G1 X62.322 Y70.962 E17.03438 ; perimeter
G1 X62.456 Y71.517 E17.06083 ; perimeter
G1 X62.599 Y71.987 E17.08364 ; perimeter
G1 X62.770 Y72.449 E17.10648 ; perimeter
G1 X63.004 Y72.983 E17.13353 ; perimeter
G1 X63.245 Y73.450 E17.15795 ; perimeter
G1 X63.506 Y73.890 E17.18168 ; perimeter
G1 X63.808 Y74.337 E17.20667 ; perimeter
G1 X64.093 Y74.711 E17.22851 ; perimeter
G1 X64.473 Y75.153 E17.25553 ; perimeter
G1 X64.873 Y75.561 E17.28205 ; perimeter
G1 X65.240 Y75.893 E17.30501 ; perimeter
G1 X65.618 Y76.199 E17.32758 ; perimeter
G1 X66.087 Y76.535 E17.35434 ; perimeter
G1 X66.536 Y76.816 E17.37892 ; perimeter
G1 X66.945 Y77.041 E17.40059 ; perimeter
G1 X67.469 Y77.290 E17.42751 ; perimeter
G1 X67.967 Y77.489 E17.45235 ; perimeter
G1 X68.431 Y77.644 E17.47505 ; perimeter
G1 X68.973 Y77.790 E17.50112 ; perimeter
G1 X69.462 Y77.890 E17.52425 ; perimeter
G1 X70.025 Y77.971 E17.55064 ; perimeter
G1 X70.549 Y78.013 E17.57506 ; perimeter
G1 X71.040 Y78.024 E17.59780 ; perimeter
G1 X71.614 Y78.004 E17.62446 ; perimeter
G1 X72.127 Y77.955 E17.64840 ; perimeter
G1 X72.618 Y77.879 E17.67145 ; perimeter
G1 X73.161 Y77.762 E17.69718 ; perimeter
G1 X73.705 Y77.607 E17.72344 ; perimeter
G1 X74.162 Y77.448 E17.74590 ; perimeter
G1 X74.661 Y77.240 E17.77097 ; perimeter
G1 X75.133 Y77.010 E17.79531 ; perimeter
G1 X75.559 Y76.770 E17.81802 ; perimeter
G1 X76.045 Y76.457 E17.84481 ; perimeter
G1 X76.470 Y76.145 E17.86928 ; perimeter
G1 X76.835 Y75.843 E17.89127 ; perimeter
G1 X77.262 Y75.446 E17.91829 ; perimeter
G1 X77.649 Y75.036 E17.94445 ; perimeter
G1 X77.969 Y74.654 E17.96761 ; perimeter
G1 X78.283 Y74.232 E17.99197 ; perimeter
G1 X78.573 Y73.791 E18.01648 ; perimeter
G1 X78.814 Y73.373 E18.03884 ; perimeter
G1 X79.066 Y72.871 E18.06494 ; perimeter
G1 X79.273 Y72.386 E18.08940 ; perimeter
G1 X79.457 Y71.867 E18.11493 ; perimeter
G1 X79.595 Y71.392 E18.13787 ; perimeter
G1 X79.723 Y70.823 E18.16494 ; perimeter
G1 X79.799 Y70.360 E18.18671 ; perimeter
G1 X79.855 Y69.828 E18.21152 ; perimeter
G1 X79.880 Y69.246 E18.23855 ; perimeter
G1 X79.871 Y68.741 E18.26195 ; perimeter
G1 X79.836 Y68.262 E18.28424 ; perimeter
G1 X79.765 Y67.719 E18.30965 ; perimeter
G1 X79.652 Y67.146 E18.33678 ; perimeter
G1 X79.526 Y66.663 E18.35993 ; perimeter
G1 X79.357 Y66.144 E18.38525 ; perimeter
G1 X79.163 Y65.653 E18.40974 ; perimeter
G1 X78.927 Y65.150 E18.43549 ; perimeter
G1 X78.701 Y64.731 E18.45759 ; perimeter
G1 X78.434 Y64.299 E18.48114 ; perimeter
G1 X78.104 Y63.828 E18.50781 ; perimeter
G1 X77.780 Y63.423 E18.53189 ; perimeter
G1 X77.426 Y63.029 E18.55645 ; perimeter
G1 X77.072 Y62.679 E18.57956 ; perimeter
G1 X76.655 Y62.311 E18.60536 ; perimeter
G1 X76.203 Y61.962 E18.63184 ; perimeter
G1 X75.517 Y61.523 E18.66964 ; perimeter
G1 X78.298 Y50.021 E19.21861 ; perimeter
G1 X78.959 Y50.282 E19.25157 ; perimeter
G1 X79.938 Y50.726 E19.30143 ; perimeter
G1 X80.889 Y51.223 E19.35122 ; perimeter
G1 X81.855 Y51.784 E19.40305 ; perimeter
G1 X88.269 Y47.491 E19.76110 ; perimeter
G1 X92.632 Y51.855 E20.04737 ; perimeter
G1 X88.346 Y58.259 E20.40487 ; perimeter
G1 X88.812 Y59.047 E20.44736 ; perimeter
G1 X89.173 Y59.715 E20.48259 ; perimeter
G1 X89.598 Y60.569 E20.52682 ; perimeter
G1 X89.914 Y61.289 E20.56330 ; perimeter
G1 X90.205 Y62.027 E20.60010 ; perimeter
G1 X90.488 Y62.839 E20.64001 ; perimeter
G1 X90.741 Y63.685 E20.68096 ; perimeter
G1 X90.963 Y64.540 E20.72193 ; perimeter
G1 X98.495 Y66.032 E21.07818 ; perimeter
G1 X98.495 Y72.203 E21.36446 ; perimeter
G1 X90.974 Y73.692 E21.72017 ; perimeter
G1 X90.740 Y74.603 E21.76376 ; perimeter
G1 X90.519 Y75.338 E21.79939 ; perimeter
G1 X90.238 Y76.180 E21.84059 ; perimeter
G1 X89.920 Y76.996 E21.88121 ; perimeter
G1 X89.597 Y77.735 E21.91861 ; perimeter
G1 X89.259 Y78.430 E21.95446 ; perimeter
G1 X88.820 Y79.245 E21.99740 ; perimeter
G1 X88.363 Y80.021 E22.03920 ; perimeter
G1 X92.615 Y86.374 E22.39387 ; perimeter
G1 X88.251 Y90.738 E22.68014 ; perimeter
G1 X81.905 Y86.490 E23.03444 ; perimeter
G1 X81.110 Y86.959 E23.07729 ; perimeter
G1 X80.434 Y87.323 E23.11289 ; perimeter
G1 X79.572 Y87.750 E23.15752 ; perimeter
G1 X78.843 Y88.068 E23.19441 ; perimeter
G1 X78.096 Y88.360 E23.23161 ; perimeter
G1 X77.275 Y88.643 E23.27189 ; perimeter
G1 X76.419 Y88.896 E23.31333 ; perimeter
G1 X75.555 Y89.117 E23.35468 ; perimeter
G1 X74.073 Y96.600 E23.70861 ; perimeter
G1 X67.902 Y96.600 E23.99489 ; perimeter
G1 X66.417 Y89.107 E24.34927 ; perimeter
G1 X65.506 Y88.870 E24.39294 ; perimeter
G1 X64.770 Y88.647 E24.42866 ; perimeter
G1 X63.926 Y88.362 E24.46996 ; perimeter
G1 X63.109 Y88.041 E24.51068 ; perimeter
G1 X62.370 Y87.714 E24.54819 ; perimeter
G1 X61.674 Y87.374 E24.58413 ; perimeter
G1 X60.859 Y86.931 E24.62717 ; perimeter
G1 X60.082 Y86.469 E24.66909 ; perimeter
G1 X53.731 Y90.720 E25.02363 ; perimeter
G1 X49.367 Y86.356 E25.30990 ; perimeter
G1 X53.631 Y79.986 E25.66552 ; perimeter
G1 X53.167 Y79.194 E25.70809 ; perimeter
G1 X52.809 Y78.522 E25.74344 ; perimeter
