; generated by Slic3r 1.34.1-prusa3d-win64 on 2017-09-16 at 13:22:49

; Buse OEV5 - diamètre 0,5mm

; external perimeters extrusion width = 0.40mm
; perimeters extrusion width = 0.50mm
; infill extrusion width = 0.50mm
; solid infill extrusion width = 0.50mm
; top infill extrusion width = 0.40mm

M107 ; disable fan
M190 S70 ; attente chauffe plateau
M104 S195 ; préchauffe tête
G92 Z0
G1 Z5 F1200
G28 Y ; prise d'origine en Y
G28 X ; prise d'origine en X
G1 X70 Y70 F6000 ; parking
M109 S195 ; attente chauffe T0
G21 ; set units to millimeters
G90 ; use absolute coordinates
M82 ; use absolute distances for extrusion
G92 E0 ; reset extrusion distance
G1 E-3.60000 F3000.00000 ; retract
G92 E0 ; reset extrusion distance
G1 Z0.250 F7500.000 ; move to next layer (0)
G1 X36.430 Y54.497 F7500.000 ; move to first skirt point
G1 E3.60000 F3000.00000 ; unretract
G1 F1200
G1 X37.266 Y53.844 E3.64923 ; skirt
G1 X37.853 Y53.617 E3.67842 ; skirt
G1 X75.152 Y43.728 E5.46861 ; skirt
G1 X103.407 Y43.695 E6.77941 ; skirt
G1 X104.255 Y43.823 E6.81923 ; skirt
G1 X105.032 Y44.198 E6.85923 ; skirt
G1 X105.664 Y44.784 E6.89924 ; skirt
G1 X106.095 Y45.531 E6.93925 ; skirt
G1 X114.752 Y71.046 E8.18924 ; skirt
G1 X114.888 Y71.860 E8.22751 ; skirt
G1 X114.789 Y72.683 E8.26597 ; skirt
G1 X114.379 Y73.567 E8.31118 ; skirt
G1 X113.700 Y74.266 E8.35638 ; skirt
G1 X90.829 Y90.155 E9.64836 ; skirt
G1 X90.242 Y90.382 E9.67754 ; skirt
G1 X53.238 Y100.210 E11.45379 ; skirt
G1 X52.184 Y100.287 E11.50283 ; skirt
G1 X51.487 Y100.120 E11.53608 ; skirt
G1 X50.851 Y99.787 E11.56938 ; skirt
G1 X28.324 Y84.107 E12.84272 ; skirt
G1 X27.818 Y83.648 E12.87442 ; skirt
G1 X27.435 Y83.082 E12.90612 ; skirt
G1 X27.221 Y82.544 E12.93297 ; skirt
G1 X27.119 Y81.974 E12.95983 ; skirt
G1 X27.133 Y81.395 E12.98668 ; skirt
G1 X27.262 Y80.831 E13.01354 ; skirt
G1 X35.885 Y55.408 E14.25897 ; skirt
G1 X36.391 Y54.562 E14.30473 ; skirt
G1 X36.764 Y54.793 F7500.000 ; move to first skirt point
G1 F1200
G1 X37.483 Y54.235 E14.34696 ; skirt
G1 X37.966 Y54.049 E14.37094 ; skirt
G1 X75.219 Y44.170 E16.15899 ; skirt
G1 X103.406 Y44.141 E17.46665 ; skirt
G1 X104.129 Y44.252 E17.50058 ; skirt
G1 X104.787 Y44.571 E17.53452 ; skirt
G1 X105.324 Y45.074 E17.56863 ; skirt
G1 X105.686 Y45.709 E17.60256 ; skirt
G1 X114.324 Y71.175 E18.85009 ; skirt
G1 X114.442 Y71.877 E18.88314 ; skirt
G1 X114.352 Y72.588 E18.91636 ; skirt
G1 X114.004 Y73.325 E18.95419 ; skirt
G1 X113.430 Y73.910 E18.99219 ; skirt
G1 X90.612 Y89.764 E20.28123 ; skirt
G1 X90.127 Y89.951 E20.30538 ; skirt
G1 X53.124 Y99.779 E22.08153 ; skirt
G1 X52.235 Y99.844 E22.12289 ; skirt
G1 X51.646 Y99.704 E22.15096 ; skirt
G1 X51.106 Y99.420 E22.17926 ; skirt
G1 X28.587 Y83.747 E23.45211 ; skirt
G1 X28.154 Y83.353 E23.47930 ; skirt
G1 X27.826 Y82.867 E23.50648 ; skirt
G1 X27.564 Y81.932 E23.55153 ; skirt
G1 X27.685 Y80.972 E23.59641 ; skirt
G1 X36.300 Y55.572 E24.84073 ; skirt
G1 X36.726 Y54.857 E24.87931 ; skirt
G1 E21.27931 F3000.00000 ; retract
G92 E0 ; reset extrusion distance
G1 X53.530 Y90.390 F7500.000 ; move to first perimeter point
G1 E3.60000 F3000.00000 ; unretract
G1 F600
G1 X53.035 Y90.595 E3.62485 ; perimeter
G1 X52.504 Y90.665 E3.64971 ; perimeter
G1 X51.973 Y90.595 E3.67456 ; perimeter
G1 X51.478 Y90.390 E3.69941 ; perimeter
G1 X51.051 Y90.063 E3.72433 ; perimeter
G1 X50.718 Y89.617 E3.75016 ; perimeter
G1 X50.521 Y89.144 E3.77394 ; perimeter
G1 X50.451 Y88.612 E3.79880 ; perimeter
G1 X50.521 Y88.081 E3.82365 ; perimeter
G1 X50.726 Y87.586 E3.84850 ; perimeter
G1 X51.053 Y87.161 E3.87336 ; perimeter
G1 X51.478 Y86.835 E3.89821 ; perimeter
G1 X51.973 Y86.630 E3.92306 ; perimeter
G1 X52.487 Y86.562 E3.94714 ; perimeter
G1 X53.034 Y86.630 E3.97270 ; perimeter
G1 X53.530 Y86.835 E3.99760 ; perimeter
G1 X53.956 Y87.162 E4.02252 ; perimeter
G1 X54.289 Y87.606 E4.04829 ; perimeter
G1 X54.486 Y88.081 E4.07213 ; perimeter
G1 X54.556 Y88.612 E4.09698 ; perimeter
G1 X54.486 Y89.144 E4.12184 ; perimeter
G1 X54.281 Y89.638 E4.14669 ; perimeter
G1 X53.955 Y90.064 E4.17154 ; perimeter
G1 X53.589 Y90.344 E4.19292 ; perimeter
G1 X53.530 Y90.890 F7500.000 ; move inwards before travel
G1 E0.59292 F3000.00000 ; retract
G92 E0 ; reset extrusion distance
G1 X54.198 Y90.440 F7500.000 ; move to first perimeter point
G1 E3.60000 F3000.00000 ; unretract
G1 F600
G1 X54.360 Y90.560 E3.60939 ; perimeter
G1 X52.504 Y95.450 E3.85204 ; perimeter
G1 X50.647 Y90.560 E4.09470 ; perimeter
G1 X50.810 Y90.440 E4.10409 ; perimeter
G1 X51.252 Y90.780 E4.12998 ; perimeter
G1 X51.856 Y91.029 E4.16029 ; perimeter
G1 X52.504 Y91.115 E4.19060 ; perimeter
G1 X53.151 Y91.029 E4.22090 ; perimeter
G1 X53.755 Y90.780 E4.25121 ; perimeter
G1 X54.138 Y90.485 E4.27363 ; perimeter
G1 E0.67363 F3000.00000 ; retract
G92 E0 ; reset extrusion distance
G1 X54.974 Y88.372 F7500.000 ; move to first perimeter point
G1 E3.60000 F3000.00000 ; unretract
G1 F1200
G1 X54.921 Y87.965 E3.61906 ; perimeter
G1 X54.680 Y87.384 E3.64824 ; perimeter
G1 X54.276 Y86.845 E3.67946 ; perimeter
G1 X53.755 Y86.445 E3.70995 ; perimeter
G1 X53.149 Y86.194 E3.74039 ; perimeter
G1 X52.485 Y86.112 E3.77140 ; perimeter
G1 X51.856 Y86.195 E3.80084 ; perimeter
G1 X51.252 Y86.445 E3.83115 ; perimeter
G1 X50.734 Y86.843 E3.86145 ; perimeter
G1 X50.337 Y87.361 E3.89176 ; perimeter
G1 X50.087 Y87.965 E3.92207 ; perimeter
G1 X50.033 Y88.372 E3.94113 ; perimeter
G1 X49.826 Y88.396 E3.95081 ; perimeter
G1 X47.256 Y81.628 E4.28668 ; perimeter
G1 X32.295 Y81.132 E4.98115 ; perimeter
G1 X32.238 Y80.951 E4.98996 ; perimeter
G1 X44.033 Y72.127 E5.67336 ; perimeter
G1 X39.807 Y58.024 E6.35636 ; perimeter
G1 X52.504 Y66.233 E7.05776 ; perimeter
G1 X65.200 Y58.024 E7.75916 ; perimeter
G1 X61.759 Y69.506 E8.31526 ; perimeter
G1 X61.543 Y69.488 E8.32533 ; perimeter
G1 X61.502 Y69.170 E8.34024 ; perimeter
G1 X60.416 Y67.863 E8.41908 ; perimeter
G1 X60.196 Y67.682 E8.43229 ; perimeter
G1 X59.824 Y67.578 E8.45022 ; perimeter
G1 X59.388 Y67.679 E8.47097 ; perimeter
G1 X57.149 Y69.662 E8.60973 ; perimeter
G1 X56.515 Y69.241 E8.64501 ; perimeter
G1 X55.961 Y68.927 E8.67453 ; perimeter
G1 X55.639 Y68.773 E8.69111 ; perimeter
G1 X54.998 Y68.535 E8.72283 ; perimeter
G1 X54.645 Y68.441 E8.73977 ; perimeter
G1 X54.005 Y68.323 E8.76996 ; perimeter
G1 X52.802 Y68.207 E8.82603 ; perimeter
G1 X51.695 Y68.304 E8.87760 ; perimeter
G1 X51.097 Y68.410 E8.90580 ; perimeter
G1 X50.670 Y68.523 E8.92628 ; perimeter
G1 X50.145 Y68.718 E8.95227 ; perimeter
G1 X48.056 Y65.163 E9.14359 ; perimeter
G1 X47.777 Y64.871 E9.16230 ; perimeter
G1 X47.206 Y64.777 E9.18913 ; perimeter
G1 X46.849 Y64.964 E9.20784 ; perimeter
G1 X44.783 Y66.751 E9.33454 ; perimeter
G1 X44.570 Y67.051 E9.35162 ; perimeter
G1 X44.533 Y67.512 E9.37307 ; perimeter
G1 X44.695 Y67.842 E9.39015 ; perimeter
G1 X48.784 Y72.732 E9.68587 ; perimeter
G1 X49.982 Y72.060 E9.74959 ; perimeter
G1 X50.466 Y71.867 E9.77375 ; perimeter
G1 X50.789 Y71.788 E9.78918 ; perimeter
G1 X51.134 Y71.736 E9.80539 ; perimeter
G1 X51.863 Y71.680 E9.83933 ; perimeter
G1 X52.807 Y71.795 E9.88344 ; perimeter
G1 X53.325 Y71.937 E9.90832 ; perimeter
G1 X53.635 Y72.075 E9.92408 ; perimeter
G1 X54.104 Y72.341 E9.94909 ; perimeter
G1 X52.578 Y73.686 E10.04344 ; perimeter
G1 X52.109 Y73.129 E10.07719 ; perimeter
G1 X51.933 Y72.969 E10.08823 ; perimeter
G1 X51.552 Y72.831 E10.10704 ; perimeter
G1 X51.153 Y72.902 E10.12585 ; perimeter
G1 X50.951 Y73.031 E10.13696 ; perimeter
G1 X49.612 Y74.169 E10.21846 ; perimeter
G1 X49.483 Y74.750 E10.24608 ; perimeter
G1 X49.668 Y75.129 E10.26562 ; perimeter
G1 X51.567 Y77.404 E10.40312 ; perimeter
G1 X51.870 Y77.627 E10.42056 ; perimeter
G1 X52.245 Y77.656 E10.43800 ; perimeter
G1 X55.455 Y77.128 E10.58895 ; perimeter
G1 X54.279 Y75.731 E10.67366 ; perimeter
G1 X55.826 Y74.494 E10.76555 ; perimeter
G1 X55.962 Y75.088 E10.79381 ; perimeter
G1 X56.033 Y75.832 E10.82848 ; perimeter
G1 X55.934 Y76.673 E10.86777 ; perimeter
G1 X55.852 Y77.062 E10.88622 ; perimeter
G1 X55.875 Y77.059 E10.88734 ; perimeter
G1 X55.734 Y77.459 E10.90703 ; perimeter
G1 X55.716 Y77.438 E10.90829 ; perimeter
G1 X55.649 Y77.598 E10.91633 ; perimeter
G1 X55.454 Y77.930 E10.93422 ; perimeter
G1 X55.067 Y78.451 E10.96431 ; perimeter
G1 X54.810 Y78.760 E10.98300 ; perimeter
G1 X54.493 Y79.022 E11.00205 ; perimeter
G1 X53.977 Y79.406 E11.03190 ; perimeter
G1 X53.643 Y79.602 E11.04987 ; perimeter
G1 X53.283 Y79.752 E11.06796 ; perimeter
G1 X53.118 Y79.801 E11.07591 ; perimeter
G1 X52.715 Y79.886 E11.09505 ; perimeter
G1 X51.859 Y79.986 E11.13503 ; perimeter
G1 X51.054 Y79.950 E11.17241 ; perimeter
G1 X50.679 Y79.889 E11.19004 ; perimeter
G1 X50.218 Y79.766 E11.21217 ; perimeter
G1 X49.847 Y79.744 E11.22943 ; perimeter
G1 X49.424 Y79.998 E11.25228 ; perimeter
G1 X49.051 Y80.624 E11.28613 ; perimeter
G1 X48.944 Y80.915 E11.30052 ; perimeter
G1 X49.012 Y81.389 E11.32271 ; perimeter
G1 X49.291 Y81.696 E11.34199 ; perimeter
G1 X49.913 Y82.064 E11.37554 ; perimeter
G1 X50.339 Y82.275 E11.39755 ; perimeter
G1 X50.806 Y82.456 E11.42079 ; perimeter
G1 X51.285 Y82.588 E11.44383 ; perimeter
G1 X51.750 Y82.673 E11.46579 ; perimeter
G1 X52.802 Y82.780 E11.51482 ; perimeter
G1 X53.808 Y82.676 E11.56178 ; perimeter
G1 X54.503 Y82.562 E11.59445 ; perimeter
G1 X55.216 Y82.373 E11.62866 ; perimeter
G1 X55.595 Y82.231 E11.64744 ; perimeter
G1 X55.953 Y82.066 E11.66573 ; perimeter
G1 X56.295 Y81.878 E11.68384 ; perimeter
G1 X56.895 Y81.480 E11.71724 ; perimeter
G1 X57.946 Y80.637 E11.77972 ; perimeter
G1 X58.588 Y79.856 E11.82661 ; perimeter
G1 X59.001 Y79.288 E11.85922 ; perimeter
G1 X59.377 Y78.648 E11.89364 ; perimeter
G1 X59.549 Y78.277 E11.91259 ; perimeter
G1 X59.789 Y77.566 E11.94742 ; perimeter
G1 X59.877 Y77.188 E11.96542 ; perimeter
G1 X59.989 Y76.504 E11.99758 ; perimeter
G1 X60.094 Y75.503 E12.04429 ; perimeter
G1 X60.004 Y74.502 E12.09091 ; perimeter
G1 X59.868 Y73.716 E12.12792 ; perimeter
G1 X59.709 Y73.163 E12.15460 ; perimeter
G1 X59.599 Y72.870 E12.16910 ; perimeter
G1 X59.254 Y72.150 E12.20615 ; perimeter
G1 X59.099 Y71.886 E12.22036 ; perimeter
G1 X61.396 Y70.065 E12.35637 ; perimeter
G1 X61.559 Y70.176 E12.36548 ; perimeter
G1 X60.974 Y72.127 E12.45997 ; perimeter
G1 X72.769 Y80.951 E13.14337 ; perimeter
G1 X72.712 Y81.132 E13.15218 ; perimeter
G1 X57.751 Y81.628 E13.84665 ; perimeter
G1 X55.182 Y88.396 E14.18252 ; perimeter
G1 X55.049 Y88.381 E14.18872 ; perimeter
G1 E10.58872 F3000.00000 ; retract
G92 E0 ; reset extrusion distance
G1 X59.813 Y68.038 F7500.000 ; move to first perimeter point
G1 E3.60000 F3000.00000 ; unretract
G1 F1080
G1 X59.985 Y68.087 E3.60829 ; perimeter
G1 X60.100 Y68.181 E3.61518 ; perimeter
G1 X61.076 Y69.355 E3.68601 ; perimeter
G1 X61.110 Y69.623 E3.69852 ; perimeter
G1 X60.974 Y69.830 E3.71005 ; perimeter
G1 X58.516 Y71.778 E3.85553 ; perimeter
G1 X58.860 Y72.360 E3.88689 ; perimeter
G1 X59.188 Y73.045 E3.92213 ; perimeter
G1 X59.285 Y73.303 E3.93490 ; perimeter
G1 X59.432 Y73.816 E3.95964 ; perimeter
G1 X59.561 Y74.560 E3.99469 ; perimeter
G1 X59.646 Y75.500 E4.03845 ; perimeter
G1 X59.547 Y76.445 E4.08254 ; perimeter
G1 X59.439 Y77.101 E4.11339 ; perimeter
G1 X59.359 Y77.443 E4.12970 ; perimeter
G1 X59.134 Y78.112 E4.16241 ; perimeter
G1 X58.981 Y78.440 E4.17923 ; perimeter
G1 X58.627 Y79.043 E4.21165 ; perimeter
G1 X58.234 Y79.583 E4.24263 ; perimeter
G1 X57.630 Y80.318 E4.28676 ; perimeter
G1 X56.632 Y81.119 E4.34615 ; perimeter
G1 X56.064 Y81.496 E4.37775 ; perimeter
G1 X55.423 Y81.819 E4.41105 ; perimeter
G1 X55.081 Y81.947 E4.42803 ; perimeter
G1 X54.410 Y82.125 E4.46022 ; perimeter
G1 X53.749 Y82.233 E4.49127 ; perimeter
G1 X52.801 Y82.331 E4.53549 ; perimeter
G1 X51.813 Y82.231 E4.58157 ; perimeter
G1 X51.384 Y82.152 E4.60179 ; perimeter
G1 X50.946 Y82.032 E4.62289 ; perimeter
G1 X50.519 Y81.866 E4.64414 ; perimeter
G1 X50.126 Y81.672 E4.66446 ; perimeter
G1 X49.576 Y81.347 E4.69411 ; perimeter
G1 X49.434 Y81.190 E4.70392 ; perimeter
G1 X49.401 Y80.963 E4.71453 ; perimeter
G1 X49.455 Y80.817 E4.72176 ; perimeter
G1 X49.750 Y80.322 E4.74848 ; perimeter
G1 X49.958 Y80.198 E4.75972 ; perimeter
G1 X50.147 Y80.209 E4.76850 ; perimeter
G1 X50.585 Y80.326 E4.78955 ; perimeter
G1 X51.008 Y80.395 E4.80941 ; perimeter
G1 X51.875 Y80.434 E4.84968 ; perimeter
G1 X52.787 Y80.327 E4.89229 ; perimeter
G1 X53.229 Y80.234 E4.91323 ; perimeter
G1 X53.433 Y80.173 E4.92311 ; perimeter
G1 X53.842 Y80.002 E4.94369 ; perimeter
G1 X54.223 Y79.779 E4.96418 ; perimeter
G1 X54.769 Y79.374 E4.99572 ; perimeter
G1 X55.127 Y79.078 E5.01725 ; perimeter
G1 X55.418 Y78.727 E5.03842 ; perimeter
G1 X55.827 Y78.177 E5.07019 ; perimeter
G1 X56.050 Y77.798 E5.09060 ; perimeter
G1 X56.221 Y77.390 E5.11112 ; perimeter
G1 X56.282 Y77.186 E5.12097 ; perimeter
G1 X56.375 Y76.746 E5.14186 ; perimeter
G1 X56.482 Y75.837 E5.18432 ; perimeter
G1 X56.403 Y75.017 E5.22254 ; perimeter
G1 X56.282 Y74.485 E5.24786 ; perimeter
G1 X56.194 Y74.238 E5.26002 ; perimeter
G1 X55.987 Y73.794 E5.28272 ; perimeter
G1 X53.643 Y75.668 E5.42198 ; perimeter
G1 X54.608 Y76.815 E5.49151 ; perimeter
G1 X52.225 Y77.207 E5.60353 ; perimeter
G1 X52.032 Y77.192 E5.61255 ; perimeter
G1 X51.875 Y77.076 E5.62157 ; perimeter
G1 X50.045 Y74.884 E5.75404 ; perimeter
G1 X49.953 Y74.695 E5.76383 ; perimeter
G1 X50.016 Y74.412 E5.77728 ; perimeter
G1 X51.217 Y73.391 E5.85041 ; perimeter
G1 X51.318 Y73.326 E5.85600 ; perimeter
G1 X51.513 Y73.291 E5.86515 ; perimeter
G1 X51.698 Y73.358 E5.87430 ; perimeter
G1 X51.786 Y73.439 E5.87986 ; perimeter
G1 X52.530 Y74.322 E5.93343 ; perimeter
G1 X54.817 Y72.308 E6.07481 ; perimeter
G1 X54.187 Y71.875 E6.11025 ; perimeter
G1 X53.837 Y71.676 E6.12896 ; perimeter
G1 X53.475 Y71.515 E6.14732 ; perimeter
G1 X52.894 Y71.356 E6.17528 ; perimeter
G1 X51.874 Y71.232 E6.22295 ; perimeter
G1 X51.084 Y71.292 E6.25970 ; perimeter
G1 X50.702 Y71.350 E6.27759 ; perimeter
G1 X50.329 Y71.441 E6.29540 ; perimeter
G1 X49.789 Y71.656 E6.32239 ; perimeter
G1 X48.889 Y72.162 E6.37029 ; perimeter
G1 X45.072 Y67.597 E6.64631 ; perimeter
G1 X44.988 Y67.425 E6.65519 ; perimeter
G1 X45.005 Y67.209 E6.66526 ; perimeter
G1 X45.116 Y67.053 E6.67415 ; perimeter
G1 X47.101 Y65.335 E6.79592 ; perimeter
G1 X47.280 Y65.242 E6.80531 ; perimeter
G1 X47.558 Y65.288 E6.81834 ; perimeter
G1 X47.697 Y65.434 E6.82772 ; perimeter
G1 X49.962 Y69.289 E7.03515 ; perimeter
G1 X50.261 Y69.151 E7.05040 ; perimeter
G1 X50.805 Y68.949 E7.07734 ; perimeter
G1 X51.193 Y68.846 E7.09595 ; perimeter
G1 X51.754 Y68.747 E7.12237 ; perimeter
G1 X52.801 Y68.655 E7.17112 ; perimeter
G1 X53.943 Y68.765 E7.22439 ; perimeter
G1 X54.547 Y68.877 E7.25287 ; perimeter
G1 X54.863 Y68.961 E7.26802 ; perimeter
G1 X55.465 Y69.185 E7.29782 ; perimeter
G1 X55.755 Y69.324 E7.31274 ; perimeter
G1 X56.282 Y69.622 E7.34082 ; perimeter
G1 X57.188 Y70.223 E7.39128 ; perimeter
G1 X59.599 Y68.088 E7.54070 ; perimeter
G1 X59.740 Y68.055 E7.54742 ; perimeter
G1 X59.895 Y67.879 F7500.000 ; move inwards before travel
G1 E3.94742 F3000.00000 ; retract
G92 E0 ; reset extrusion distance
G1 X52.504 Y65.701 F7500.000 ; move to first perimeter point
G1 E3.60000 F3000.00000 ; unretract
G1 F1080
G1 X65.975 Y56.991 E4.34424 ; perimeter
G1 X61.491 Y71.956 E5.06901 ; perimeter
G1 X74.055 Y81.355 E5.79691 ; perimeter
G1 X73.998 Y81.536 E5.80571 ; perimeter
G1 X58.063 Y82.064 E6.54537 ; perimeter
G1 X52.504 Y96.708 E7.27205 ; perimeter
G1 X46.944 Y82.064 E7.99873 ; perimeter
G1 X31.010 Y81.536 E8.73838 ; perimeter
G1 X30.953 Y81.355 E8.74719 ; perimeter
G1 X43.516 Y71.956 E9.47509 ; perimeter
G1 X39.032 Y56.991 E10.19985 ; perimeter
G1 X52.441 Y65.660 E10.94061 ; perimeter
G1 X52.951 Y65.924 F7500.000 ; move inwards before travel
G1 E7.34061 F3000.00000 ; retract
G92 E0 ; reset extrusion distance
G1 X51.430 Y72.549 F7500.000 ; move to first infill point
G1 E3.60000 F3000.00000 ; unretract
G1 F600
G1 X51.185 Y72.645 E3.60171 ; infill
G1 E0.00171 F3000.00000 ; retract
G92 E0 ; reset extrusion distance
G1 X55.833 Y76.012 F7500.000 ; move to first infill point
G1 E3.60000 F3000.00000 ; unretract
