; generated by Slic3r 1.34.1-prusa3d-win64 on 2017-10-24 at 11:46:53

; Buse diamètre 0,4mm
; Debit : 3,2mm3/s

; external perimeters extrusion width = 0.32mm
; perimeters extrusion width = 0.40mm
; infill extrusion width = 0.40mm
; solid infill extrusion width = 0.40mm
; top infill extrusion width = 0.32mm

M107 ; disable fan
M190 S70 ; attente chauffe plateau
M104 S195 ; préchauffe tête
G92 Z0
G28 Y ; prise d'origine en Y
G28 X ; prise d'origine en X
G1 X70 Y0 F6000 ; parking
M109 S195 ; attente chauffe T0
G21 ; set units to millimeters
G90 ; use absolute coordinates
M82 ; use absolute distances for extrusion
G92 E0 ; reset extrusion distance
G1 E-3.50000 F3000.00000 ; retract
G92 E0 ; reset extrusion distance
G1 Z0.250 F4800.000 ; move to next layer (0)
G1 X20.636 Y137.762 F4800.000 ; move to first skirt point
G1 E3.52000 F3000.00000 ; unretract
G1 F1200
G1 X19.831 Y137.826 E3.55069 ; skirt
G1 X7.643 Y135.904 E4.01964 ; skirt
G1 X7.117 Y135.726 E4.04074 ; skirt
G1 X6.665 Y135.404 E4.06184 ; skirt
G1 X4.829 Y133.568 E4.16054 ; skirt
G1 X4.520 Y133.131 E4.18086 ; skirt
G1 X4.356 Y132.686 E4.19888 ; skirt
G1 X4.307 Y132.215 E4.21689 ; skirt
G1 X4.375 Y131.746 E4.23490 ; skirt
G1 X4.556 Y131.308 E4.25291 ; skirt
G1 X19.955 Y108.320 E5.30453 ; skirt
G1 X22.881 Y104.647 E5.48297 ; skirt
G1 X26.024 Y101.257 E5.65869 ; skirt
G1 X100.234 Y27.049 E9.64733 ; skirt
G1 X103.610 Y23.916 E9.82240 ; skirt
G1 X107.294 Y20.974 E10.00159 ; skirt
G1 X111.101 Y18.379 E10.17668 ; skirt
G1 X130.214 Y5.619 E11.05013 ; skirt
G1 X130.716 Y5.388 E11.07110 ; skirt
G1 X131.262 Y5.310 E11.09208 ; skirt
G1 X131.921 Y5.428 E11.11754 ; skirt
G1 X132.497 Y5.765 E11.14287 ; skirt
G1 X134.442 Y7.705 E11.24730 ; skirt
G1 X134.821 Y8.330 E11.27506 ; skirt
G1 X137.733 Y19.817 E11.72546 ; skirt
G1 X137.761 Y20.266 E11.74256 ; skirt
G1 X137.683 Y20.713 E11.75980 ; skirt
G1 X137.504 Y21.126 E11.77691 ; skirt
G1 X137.231 Y21.488 E11.79415 ; skirt
G1 X21.342 Y137.371 E18.02290 ; skirt
G1 X20.688 Y137.733 E18.05131 ; skirt
G1 E14.55131 F3000.00000 ; retract
G92 E0 ; reset extrusion distance
G1 X4.764 Y132.250 F4800.000 ; move to first skirt point
G1 E3.52000 F3000.00000 ; unretract
G1 F1200
G1 X4.959 Y131.524 E3.54858 ; skirt
G1 X20.329 Y108.584 E4.59802 ; skirt
G1 X23.227 Y104.946 E4.77479 ; skirt
G1 X26.355 Y101.573 E4.94963 ; skirt
G1 X100.557 Y27.373 E8.93786 ; skirt
G1 X103.917 Y24.254 E9.11210 ; skirt
G1 X107.568 Y21.340 E9.28964 ; skirt
G1 X111.355 Y18.759 E9.46381 ; skirt
G1 X130.461 Y6.004 E10.33692 ; skirt
G1 X130.844 Y5.827 E10.35296 ; skirt
G1 X131.261 Y5.767 E10.36900 ; skirt
G1 X131.769 Y5.860 E10.38862 ; skirt
G1 X132.213 Y6.124 E10.40823 ; skirt
G1 X134.097 Y8.004 E10.50941 ; skirt
G1 X134.393 Y8.490 E10.53103 ; skirt
G1 X137.280 Y19.881 E10.97765 ; skirt
G1 X137.248 Y20.572 E11.00392 ; skirt
G1 X136.901 Y21.172 E11.03030 ; skirt
G1 X21.044 Y137.024 E17.25735 ; skirt
G1 X20.501 Y137.325 E17.28097 ; skirt
G1 X19.884 Y137.372 E17.30447 ; skirt
G1 X7.732 Y135.456 E17.77204 ; skirt
G1 X7.326 Y135.320 E17.78830 ; skirt
G1 X6.978 Y135.071 E17.80456 ; skirt
G1 X4.954 Y132.974 E17.91533 ; skirt
G1 X4.779 Y132.308 E17.94152 ; skirt
G1 E14.44152 F3000.00000 ; retract
G92 E0 ; reset extrusion distance
G1 X16.031 Y121.381 F4800.000 ; move to first perimeter point
G1 E3.52000 F3000.00000 ; unretract
G1 F1080
G1 X15.619 Y121.088 E3.53924 ; perimeter
G1 X17.375 Y117.434 E3.69333 ; perimeter
G1 X19.605 Y113.567 E3.86301 ; perimeter
G1 X22.118 Y109.877 E4.03269 ; perimeter
G1 X24.901 Y106.385 E4.20237 ; perimeter
G1 X27.937 Y103.112 E4.37206 ; perimeter
G1 X31.210 Y100.076 E4.54174 ; perimeter
G1 X34.702 Y97.293 E4.71142 ; perimeter
G1 X36.079 Y96.355 E4.77478 ; perimeter
G1 X38.379 Y95.121 E4.87397 ; perimeter
G1 X40.661 Y93.736 E4.97543 ; perimeter
G1 X42.866 Y92.231 E5.07688 ; perimeter
G1 X44.987 Y90.610 E5.17833 ; perimeter
G1 X47.020 Y88.879 E5.27982 ; perimeter
G1 X48.420 Y87.568 E5.35271 ; perimeter
G1 X49.140 Y88.288 E5.39140 ; perimeter
G1 X16.074 Y121.339 E7.16826 ; perimeter
G1 X15.784 Y121.696 F4800.000 ; move inwards before travel
G1 E3.66826 F3000.00000 ; retract
G92 E0 ; reset extrusion distance
G1 X50.185 Y87.212 F4800.000 ; move to first perimeter point
G1 E3.52000 F3000.00000 ; unretract
G1 F1080
G1 X49.481 Y86.508 E3.55784 ; perimeter
G1 X50.793 Y85.106 E3.63080 ; perimeter
G1 X52.524 Y83.073 E3.73231 ; perimeter
G1 X54.196 Y80.876 E3.83722 ; perimeter
G1 X55.649 Y78.747 E3.93518 ; perimeter
G1 X57.035 Y76.466 E4.03664 ; perimeter
G1 X58.268 Y74.166 E4.13583 ; perimeter
G1 X59.207 Y72.788 E4.19918 ; perimeter
G1 X61.990 Y69.297 E4.36887 ; perimeter
G1 X65.026 Y66.024 E4.53855 ; perimeter
G1 X68.299 Y62.988 E4.70823 ; perimeter
G1 X71.790 Y60.205 E4.87791 ; perimeter
G1 X73.168 Y59.266 E4.94128 ; perimeter
G1 X75.468 Y58.033 E5.04047 ; perimeter
G1 X77.750 Y56.647 E5.14192 ; perimeter
G1 X79.954 Y55.142 E5.24337 ; perimeter
G1 X82.076 Y53.522 E5.34482 ; perimeter
G1 X84.128 Y51.772 E5.44734 ; perimeter
G1 X85.512 Y50.482 E5.51925 ; perimeter
G1 X86.232 Y51.202 E5.55794 ; perimeter
G1 X50.227 Y87.201 E7.49302 ; perimeter
G1 X49.904 Y87.496 F4800.000 ; move inwards before travel
G1 E3.99302 F3000.00000 ; retract
G92 E0 ; reset extrusion distance
G1 X87.274 Y50.122 F4800.000 ; move to first perimeter point
G1 E3.52000 F3000.00000 ; unretract
G1 F1080
G1 X86.554 Y49.402 E3.55871 ; perimeter
G1 X87.882 Y48.017 E3.63164 ; perimeter
G1 X89.612 Y45.985 E3.73307 ; perimeter
G1 X91.233 Y43.864 E3.83453 ; perimeter
G1 X92.738 Y41.659 E3.93598 ; perimeter
G1 X94.123 Y39.377 E4.03743 ; perimeter
G1 X95.357 Y37.078 E4.13661 ; perimeter
G1 X96.296 Y35.701 E4.19997 ; perimeter
G1 X99.079 Y32.209 E4.36966 ; perimeter
G1 X102.116 Y28.936 E4.53934 ; perimeter
G1 X105.389 Y25.900 E4.70903 ; perimeter
G1 X108.879 Y23.116 E4.87871 ; perimeter
G1 X112.569 Y20.603 E5.04839 ; perimeter
G1 X116.437 Y18.373 E5.21807 ; perimeter
G1 X120.093 Y16.616 E5.37223 ; perimeter
G1 X120.385 Y17.029 E5.39147 ; perimeter
G1 X87.317 Y50.117 E7.16942 ; perimeter
G1 X86.992 Y50.406 F4800.000 ; move inwards before travel
G1 E3.66942 F3000.00000 ; retract
G92 E0 ; reset extrusion distance
G1 X64.415 Y80.637 F4800.000 ; move to first perimeter point
G1 E3.52000 F3000.00000 ; unretract
G1 F600
G1 X64.894 Y81.005 E3.54295 ; perimeter
G1 X65.261 Y81.484 E3.56590 ; perimeter
G1 X65.492 Y82.042 E3.58885 ; perimeter
G1 X65.571 Y82.641 E3.61180 ; perimeter
G1 X65.492 Y83.239 E3.63475 ; perimeter
G1 X65.261 Y83.797 E3.65770 ; perimeter
G1 X64.894 Y84.276 E3.68065 ; perimeter
G1 X64.415 Y84.644 E3.70360 ; perimeter
G1 X63.857 Y84.875 E3.72655 ; perimeter
G1 X63.258 Y84.954 E3.74950 ; perimeter
G1 X62.659 Y84.875 E3.77245 ; perimeter
G1 X62.101 Y84.644 E3.79540 ; perimeter
G1 X61.622 Y84.276 E3.81835 ; perimeter
G1 X61.255 Y83.797 E3.84130 ; perimeter
G1 X61.024 Y83.239 E3.86426 ; perimeter
G1 X60.945 Y82.641 E3.88721 ; perimeter
G1 X61.024 Y82.042 E3.91015 ; perimeter
G1 X61.255 Y81.484 E3.93311 ; perimeter
G1 X61.622 Y81.005 E3.95606 ; perimeter
G1 X62.101 Y80.637 E3.97901 ; perimeter
G1 X62.659 Y80.406 E4.00195 ; perimeter
G1 X63.258 Y80.327 E4.02491 ; perimeter
G1 X63.857 Y80.406 E4.04786 ; perimeter
G1 X64.359 Y80.614 E4.06853 ; perimeter
G1 X64.184 Y81.037 F4800.000 ; move to first perimeter point
G1 F600
G1 X64.568 Y81.331 E4.08690 ; perimeter
G1 X64.862 Y81.715 E4.10528 ; perimeter
G1 X65.047 Y82.161 E4.12366 ; perimeter
G1 X65.110 Y82.641 E4.14203 ; perimeter
G1 X65.047 Y83.120 E4.16041 ; perimeter
G1 X64.862 Y83.567 E4.17879 ; perimeter
G1 X64.568 Y83.950 E4.19716 ; perimeter
G1 X64.184 Y84.245 E4.21554 ; perimeter
G1 X63.737 Y84.430 E4.23392 ; perimeter
G1 X63.258 Y84.493 E4.25229 ; perimeter
G1 X62.779 Y84.430 E4.27066 ; perimeter
G1 X62.332 Y84.245 E4.28904 ; perimeter
G1 X61.948 Y83.950 E4.30742 ; perimeter
G1 X61.654 Y83.567 E4.32580 ; perimeter
G1 X61.469 Y83.120 E4.34417 ; perimeter
G1 X61.406 Y82.641 E4.36255 ; perimeter
G1 X61.469 Y82.161 E4.38092 ; perimeter
G1 X61.654 Y81.715 E4.39930 ; perimeter
G1 X61.948 Y81.331 E4.41768 ; perimeter
G1 X62.332 Y81.037 E4.43605 ; perimeter
G1 X62.779 Y80.852 E4.45443 ; perimeter
G1 X63.258 Y80.788 E4.47281 ; perimeter
G1 X63.737 Y80.852 E4.49118 ; perimeter
G1 X64.129 Y81.014 E4.50728 ; perimeter
G1 X64.530 Y80.837 F4800.000 ; move inwards before travel
G1 E1.00728 F3000.00000 ; retract
G92 E0 ; reset extrusion distance
G1 X80.007 Y65.891 F4800.000 ; move to first perimeter point
G1 E3.52000 F3000.00000 ; unretract
G1 F600
G1 X79.639 Y65.412 E3.54295 ; perimeter
G1 X79.408 Y64.854 E3.56590 ; perimeter
G1 X79.330 Y64.256 E3.58885 ; perimeter
G1 X79.408 Y63.657 E3.61180 ; perimeter
G1 X79.639 Y63.099 E3.63475 ; perimeter
G1 X80.007 Y62.620 E3.65770 ; perimeter
G1 X80.486 Y62.253 E3.68065 ; perimeter
G1 X81.044 Y62.022 E3.70360 ; perimeter
G1 X81.643 Y61.943 E3.72655 ; perimeter
G1 X82.242 Y62.022 E3.74950 ; perimeter
G1 X82.799 Y62.253 E3.77245 ; perimeter
G1 X83.278 Y62.620 E3.79540 ; perimeter
G1 X83.646 Y63.099 E3.81835 ; perimeter
G1 X83.877 Y63.657 E3.84130 ; perimeter
G1 X83.956 Y64.256 E3.86425 ; perimeter
G1 X83.877 Y64.855 E3.88721 ; perimeter
G1 X83.646 Y65.412 E3.91016 ; perimeter
G1 X83.278 Y65.891 E3.93310 ; perimeter
G1 X82.799 Y66.259 E3.95606 ; perimeter
G1 X82.241 Y66.490 E3.97901 ; perimeter
G1 X81.643 Y66.569 E4.00196 ; perimeter
G1 X81.044 Y66.490 E4.02490 ; perimeter
G1 X80.486 Y66.259 E4.04786 ; perimeter
G1 X80.055 Y65.928 E4.06853 ; perimeter
G1 X80.333 Y65.566 F4800.000 ; move to first perimeter point
G1 F600
G1 X80.039 Y65.182 E4.08690 ; perimeter
G1 X79.854 Y64.735 E4.10528 ; perimeter
G1 X79.791 Y64.256 E4.12365 ; perimeter
G1 X79.854 Y63.777 E4.14203 ; perimeter
G1 X80.039 Y63.330 E4.16041 ; perimeter
G1 X80.333 Y62.946 E4.17878 ; perimeter
G1 X80.717 Y62.652 E4.19716 ; perimeter
G1 X81.163 Y62.467 E4.21553 ; perimeter
G1 X81.643 Y62.404 E4.23391 ; perimeter
G1 X82.122 Y62.467 E4.25229 ; perimeter
G1 X82.569 Y62.652 E4.27066 ; perimeter
G1 X82.952 Y62.946 E4.28904 ; perimeter
G1 X83.247 Y63.330 E4.30742 ; perimeter
G1 X83.432 Y63.776 E4.32579 ; perimeter
G1 X83.495 Y64.256 E4.34417 ; perimeter
G1 X83.432 Y64.735 E4.36255 ; perimeter
G1 X83.247 Y65.182 E4.38092 ; perimeter
G1 X82.952 Y65.566 E4.39930 ; perimeter
G1 X82.569 Y65.860 E4.41768 ; perimeter
G1 X82.122 Y66.045 E4.43605 ; perimeter
G1 X81.643 Y66.108 E4.45443 ; perimeter
G1 X81.163 Y66.045 E4.47280 ; perimeter
G1 X80.717 Y65.860 E4.49118 ; perimeter
G1 X80.381 Y65.602 E4.50727 ; perimeter
G1 X79.947 Y65.669 F4800.000 ; move inwards before travel
G1 E1.00727 F3000.00000 ; retract
G92 E0 ; reset extrusion distance
G1 X128.843 Y12.174 F4800.000 ; move to first perimeter point
G1 E3.52000 F3000.00000 ; unretract
G1 F1200
G1 X133.530 Y16.860 E3.77191 ; perimeter
G1 X135.000 Y20.013 E3.90411 ; perimeter
G1 X134.707 Y20.306 E3.91986 ; perimeter
G1 X131.090 Y18.619 E4.07153 ; perimeter
G1 X129.613 Y20.096 E4.15092 ; perimeter
G1 X131.299 Y23.714 E4.30259 ; perimeter
G1 X131.006 Y24.007 E4.31835 ; perimeter
G1 X127.389 Y22.320 E4.47002 ; perimeter
G1 X125.910 Y23.799 E4.54952 ; perimeter
G1 X127.597 Y27.416 E4.70119 ; perimeter
G1 X127.304 Y27.709 E4.71694 ; perimeter
G1 X123.687 Y26.023 E4.86861 ; perimeter
G1 X122.208 Y27.502 E4.94811 ; perimeter
G1 X123.894 Y31.118 E5.09978 ; perimeter
G1 X123.601 Y31.411 E5.11554 ; perimeter
G1 X119.984 Y29.725 E5.26721 ; perimeter
G1 X118.505 Y31.204 E5.34670 ; perimeter
G1 X120.192 Y34.821 E5.49837 ; perimeter
G1 X119.899 Y35.114 E5.51413 ; perimeter
G1 X116.282 Y33.427 E5.66580 ; perimeter
G1 X114.803 Y34.906 E5.74530 ; perimeter
G1 X116.490 Y38.523 E5.89697 ; perimeter
G1 X116.196 Y38.816 E5.91272 ; perimeter
G1 X112.580 Y37.130 E6.06439 ; perimeter
G1 X111.101 Y38.609 E6.14389 ; perimeter
G1 X112.787 Y42.226 E6.29556 ; perimeter
G1 X112.494 Y42.519 E6.31132 ; perimeter
G1 X108.877 Y40.832 E6.46299 ; perimeter
G1 X107.398 Y42.311 E6.54248 ; perimeter
G1 X109.085 Y45.928 E6.69416 ; perimeter
G1 X108.792 Y46.221 E6.70991 ; perimeter
G1 X105.175 Y44.535 E6.86158 ; perimeter
G1 X103.696 Y46.014 E6.94108 ; perimeter
G1 X105.382 Y49.630 E7.09275 ; perimeter
G1 X105.089 Y49.923 E7.10851 ; perimeter
G1 X101.472 Y48.237 E7.26018 ; perimeter
G1 X99.993 Y49.716 E7.33967 ; perimeter
G1 X101.680 Y53.333 E7.49134 ; perimeter
G1 X101.387 Y53.626 E7.50710 ; perimeter
G1 X97.770 Y51.939 E7.65877 ; perimeter
G1 X96.286 Y53.424 E7.73855 ; perimeter
G1 X97.977 Y57.036 E7.89014 ; perimeter
G1 X97.684 Y57.328 E7.90586 ; perimeter
G1 X94.068 Y55.642 E8.05753 ; perimeter
G1 X92.589 Y57.121 E8.13703 ; perimeter
G1 X94.275 Y60.738 E8.28870 ; perimeter
G1 X93.982 Y61.031 E8.30446 ; perimeter
G1 X90.365 Y59.344 E8.45613 ; perimeter
G1 X88.886 Y60.823 E8.53562 ; perimeter
G1 X90.573 Y64.440 E8.68729 ; perimeter
G1 X90.280 Y64.733 E8.70305 ; perimeter
G1 X86.663 Y63.047 E8.85472 ; perimeter
G1 X85.184 Y64.526 E8.93422 ; perimeter
G1 X86.870 Y68.142 E9.08589 ; perimeter
G1 X86.577 Y68.435 E9.10164 ; perimeter
G1 X82.960 Y66.749 E9.25331 ; perimeter
G1 X81.481 Y68.228 E9.33281 ; perimeter
G1 X83.168 Y71.845 E9.48448 ; perimeter
G1 X82.875 Y72.138 E9.50024 ; perimeter
G1 X79.258 Y70.451 E9.65191 ; perimeter
G1 X77.779 Y71.930 E9.73140 ; perimeter
G1 X79.465 Y75.547 E9.88307 ; perimeter
G1 X79.172 Y75.840 E9.89883 ; perimeter
G1 X75.556 Y74.154 E10.05050 ; perimeter
G1 X74.077 Y75.633 E10.12999 ; perimeter
G1 X75.763 Y79.250 E10.28166 ; perimeter
G1 X75.470 Y79.543 E10.29742 ; perimeter
G1 X71.853 Y77.856 E10.44909 ; perimeter
G1 X70.374 Y79.335 E10.52859 ; perimeter
G1 X72.061 Y82.952 E10.68026 ; perimeter
G1 X71.768 Y83.245 E10.69601 ; perimeter
G1 X68.151 Y81.559 E10.84768 ; perimeter
G1 X66.672 Y83.038 E10.92718 ; perimeter
G1 X68.358 Y86.654 E11.07885 ; perimeter
G1 X68.065 Y86.947 E11.09460 ; perimeter
G1 X64.448 Y85.261 E11.24627 ; perimeter
G1 X62.969 Y86.740 E11.32577 ; perimeter
G1 X64.656 Y90.357 E11.47744 ; perimeter
G1 X64.363 Y90.650 E11.49320 ; perimeter
G1 X60.746 Y88.963 E11.64487 ; perimeter
G1 X59.267 Y90.442 E11.72436 ; perimeter
G1 X60.953 Y94.059 E11.87603 ; perimeter
G1 X60.660 Y94.352 E11.89179 ; perimeter
G1 X57.044 Y92.666 E12.04346 ; perimeter
G1 X55.565 Y94.145 E12.12296 ; perimeter
G1 X57.251 Y97.762 E12.27463 ; perimeter
G1 X56.958 Y98.055 E12.29038 ; perimeter
G1 X53.341 Y96.368 E12.44205 ; perimeter
G1 X51.862 Y97.847 E12.52155 ; perimeter
G1 X53.549 Y101.464 E12.67322 ; perimeter
G1 X53.256 Y101.757 E12.68897 ; perimeter
G1 X49.639 Y100.071 E12.84064 ; perimeter
G1 X48.160 Y101.550 E12.92014 ; perimeter
G1 X49.846 Y105.166 E13.07181 ; perimeter
G1 X49.553 Y105.459 E13.08757 ; perimeter
G1 X45.936 Y103.773 E13.23924 ; perimeter
G1 X44.457 Y105.252 E13.31873 ; perimeter
G1 X46.144 Y108.869 E13.47040 ; perimeter
G1 X45.851 Y109.162 E13.48616 ; perimeter
G1 X42.234 Y107.475 E13.63783 ; perimeter
G1 X40.755 Y108.954 E13.71733 ; perimeter
G1 X42.441 Y112.571 E13.86900 ; perimeter
G1 X42.148 Y112.864 E13.88475 ; perimeter
G1 X38.532 Y111.178 E14.03643 ; perimeter
G1 X37.053 Y112.657 E14.11592 ; perimeter
G1 X38.739 Y116.274 E14.26759 ; perimeter
G1 X38.446 Y116.567 E14.28335 ; perimeter
G1 X34.829 Y114.880 E14.43502 ; perimeter
G1 X33.350 Y116.359 E14.51451 ; perimeter
G1 X35.037 Y119.976 E14.66619 ; perimeter
G1 X34.744 Y120.269 E14.68194 ; perimeter
G1 X31.127 Y118.583 E14.83361 ; perimeter
G1 X29.648 Y120.062 E14.91311 ; perimeter
G1 X31.334 Y123.678 E15.06478 ; perimeter
G1 X31.041 Y123.972 E15.08053 ; perimeter
G1 X27.424 Y122.285 E15.23221 ; perimeter
G1 X25.945 Y123.764 E15.31170 ; perimeter
G1 X27.632 Y127.381 E15.46337 ; perimeter
G1 X27.339 Y127.674 E15.47913 ; perimeter
G1 X23.722 Y125.987 E15.63080 ; perimeter
G1 X22.243 Y127.466 E15.71029 ; perimeter
G1 X23.929 Y131.083 E15.86196 ; perimeter
G1 X23.636 Y131.376 E15.87772 ; perimeter
G1 X20.020 Y129.690 E16.02939 ; perimeter
G1 X18.540 Y131.169 E16.10888 ; perimeter
G1 X20.227 Y134.786 E16.26056 ; perimeter
G1 X19.934 Y135.079 E16.27632 ; perimeter
G1 X16.318 Y133.393 E16.42794 ; perimeter
G1 X15.519 Y134.188 E16.47079 ; perimeter
