; generated by Slic3r 1.34.1-prusa3d-win64 on 2017-10-24 at 15:16:51

; Buse diamètre 0,4mm
; Debit : 3,2mm3/s

; external perimeters extrusion width = 0.32mm
; perimeters extrusion width = 0.40mm
; infill extrusion width = 0.40mm
; solid infill extrusion width = 0.40mm
; top infill extrusion width = 0.32mm

M107 ; disable fan
M190 S70 ; attente chauffe plateau
M104 S195 ; préchauffe tête
G92 Z0
G28 Y ; prise d'origine en Y
G28 X ; prise d'origine en X
G1 X70 Y0 F6000 ; parking
M109 S195 ; attente chauffe T0
G21 ; set units to millimeters
G90 ; use absolute coordinates
M82 ; use absolute distances for extrusion
G92 E0 ; reset extrusion distance
G1 E-3.50000 F3000.00000 ; retract
G92 E0 ; reset extrusion distance
G1 Z0.250 F4800.000 ; move to next layer (0)
G1 X21.578 Y138.627 F4800.000 ; move to first skirt point
G1 E3.52000 F3000.00000 ; unretract
G1 F1200
G1 X20.865 Y138.724 E3.54738 ; skirt
G1 X15.974 Y137.936 E3.73565 ; skirt
G1 X6.496 Y134.953 E4.11330 ; skirt
G1 X5.779 Y134.519 E4.14513 ; skirt
G1 X3.945 Y132.684 E4.24376 ; skirt
G1 X3.636 Y132.247 E4.26408 ; skirt
G1 X3.472 Y131.803 E4.28209 ; skirt
G1 X3.423 Y131.331 E4.30011 ; skirt
G1 X3.491 Y130.862 E4.31812 ; skirt
G1 X3.672 Y130.424 E4.33613 ; skirt
G1 X19.072 Y107.436 E5.38775 ; skirt
G1 X21.997 Y103.764 E5.56619 ; skirt
G1 X25.140 Y100.373 E5.74191 ; skirt
G1 X99.350 Y26.166 E9.73055 ; skirt
G1 X102.726 Y23.032 E9.90562 ; skirt
G1 X106.410 Y20.090 E10.08481 ; skirt
G1 X110.217 Y17.495 E10.25990 ; skirt
G1 X129.331 Y4.735 E11.13335 ; skirt
G1 X129.832 Y4.504 E11.15433 ; skirt
G1 X130.378 Y4.426 E11.17530 ; skirt
G1 X131.025 Y4.540 E11.20025 ; skirt
G1 X131.597 Y4.868 E11.22532 ; skirt
G1 X133.545 Y6.806 E11.32975 ; skirt
G1 X133.899 Y7.350 E11.35444 ; skirt
G1 X138.577 Y20.530 E11.88597 ; skirt
G1 X138.648 Y21.019 E11.90475 ; skirt
G1 X138.591 Y21.510 E11.92353 ; skirt
G1 X138.410 Y21.970 E11.94232 ; skirt
G1 X138.116 Y22.371 E11.96123 ; skirt
G1 X22.206 Y138.273 E18.19106 ; skirt
G1 X21.631 Y138.597 E18.21616 ; skirt
G1 E14.71616 F3000.00000 ; retract
G92 E0 ; reset extrusion distance
G1 X3.880 Y131.366 F4800.000 ; move to first skirt point
G1 E3.52000 F3000.00000 ; unretract
G1 F1200
G1 X4.076 Y130.640 E3.54858 ; skirt
G1 X19.445 Y107.700 E4.59802 ; skirt
G1 X22.343 Y104.062 E4.77479 ; skirt
G1 X25.473 Y100.687 E4.94974 ; skirt
G1 X99.673 Y26.489 E8.93787 ; skirt
G1 X103.033 Y23.371 E9.11210 ; skirt
G1 X106.684 Y20.456 E9.28964 ; skirt
G1 X110.471 Y17.875 E9.46381 ; skirt
G1 X129.577 Y5.120 E10.33692 ; skirt
G1 X129.960 Y4.943 E10.35296 ; skirt
G1 X130.378 Y4.883 E10.36900 ; skirt
G1 X130.880 Y4.974 E10.38839 ; skirt
G1 X131.320 Y5.232 E10.40779 ; skirt
G1 X133.203 Y7.110 E10.50885 ; skirt
G1 X133.479 Y7.531 E10.52802 ; skirt
G1 X138.131 Y20.633 E11.05641 ; skirt
G1 X138.190 Y21.009 E11.07088 ; skirt
G1 X138.150 Y21.390 E11.08546 ; skirt
G1 X138.011 Y21.748 E11.10004 ; skirt
G1 X137.784 Y22.057 E11.11462 ; skirt
G1 X21.913 Y137.922 E17.34242 ; skirt
G1 X21.421 Y138.197 E17.36382 ; skirt
G1 X20.860 Y138.266 E17.38533 ; skirt
G1 X16.066 Y137.488 E17.56991 ; skirt
G1 X6.646 Y134.521 E17.94526 ; skirt
G1 X6.094 Y134.188 E17.96976 ; skirt
G1 X4.070 Y132.090 E18.08055 ; skirt
G1 X3.895 Y131.424 E18.10673 ; skirt
G1 E14.60673 F3000.00000 ; retract
G92 E0 ; reset extrusion distance
G1 X15.148 Y120.497 F4800.000 ; move to first perimeter point
G1 E3.52000 F3000.00000 ; unretract
G1 F1080
G1 X14.735 Y120.204 E3.53924 ; perimeter
G1 X16.491 Y116.550 E3.69332 ; perimeter
G1 X18.721 Y112.683 E3.86300 ; perimeter
G1 X21.234 Y108.993 E4.03269 ; perimeter
G1 X24.017 Y105.502 E4.20237 ; perimeter
G1 X27.054 Y102.229 E4.37205 ; perimeter
G1 X30.326 Y99.192 E4.54174 ; perimeter
G1 X33.818 Y96.409 E4.71142 ; perimeter
G1 X35.196 Y95.471 E4.77478 ; perimeter
G1 X37.495 Y94.237 E4.87397 ; perimeter
G1 X39.777 Y92.852 E4.97542 ; perimeter
G1 X41.982 Y91.347 E5.07688 ; perimeter
G1 X44.103 Y89.726 E5.17833 ; perimeter
G1 X46.136 Y87.995 E5.27981 ; perimeter
G1 X47.536 Y86.685 E5.35271 ; perimeter
G1 X48.256 Y87.404 E5.39140 ; perimeter
G1 X15.190 Y120.455 E7.16826 ; perimeter
G1 X14.901 Y120.812 F4800.000 ; move inwards before travel
G1 E3.66826 F3000.00000 ; retract
G92 E0 ; reset extrusion distance
G1 X49.317 Y86.344 F4800.000 ; move to first perimeter point
G1 E3.52000 F3000.00000 ; unretract
G1 F1080
G1 X48.597 Y85.624 E3.55869 ; perimeter
G1 X49.909 Y84.222 E3.63164 ; perimeter
G1 X51.640 Y82.189 E3.73315 ; perimeter
G1 X53.312 Y79.992 E3.83807 ; perimeter
G1 X54.765 Y77.864 E3.93603 ; perimeter
G1 X56.151 Y75.582 E4.03748 ; perimeter
G1 X57.384 Y73.282 E4.13667 ; perimeter
G1 X58.323 Y71.904 E4.20003 ; perimeter
G1 X61.106 Y68.413 E4.36971 ; perimeter
G1 X64.142 Y65.140 E4.53939 ; perimeter
G1 X67.415 Y62.104 E4.70908 ; perimeter
G1 X70.907 Y59.321 E4.87876 ; perimeter
G1 X72.284 Y58.382 E4.94212 ; perimeter
G1 X74.584 Y57.149 E5.04131 ; perimeter
G1 X76.866 Y55.763 E5.14276 ; perimeter
G1 X79.071 Y54.258 E5.24422 ; perimeter
G1 X81.192 Y52.638 E5.34567 ; perimeter
G1 X83.245 Y50.888 E5.44819 ; perimeter
G1 X84.628 Y49.598 E5.52009 ; perimeter
G1 X85.348 Y50.318 E5.55878 ; perimeter
G1 X49.359 Y86.301 E7.49302 ; perimeter
G1 X49.036 Y86.628 F4800.000 ; move inwards before travel
G1 E3.99302 F3000.00000 ; retract
G92 E0 ; reset extrusion distance
G1 X86.409 Y49.257 F4800.000 ; move to first perimeter point
G1 E3.52000 F3000.00000 ; unretract
G1 F1080
G1 X85.670 Y48.518 E3.55971 ; perimeter
G1 X86.998 Y47.133 E3.63265 ; perimeter
G1 X88.729 Y45.101 E3.73408 ; perimeter
G1 X90.349 Y42.980 E3.83553 ; perimeter
G1 X91.854 Y40.775 E3.93698 ; perimeter
G1 X93.239 Y38.493 E4.03844 ; perimeter
G1 X94.473 Y36.194 E4.13762 ; perimeter
G1 X95.412 Y34.817 E4.20097 ; perimeter
G1 X98.195 Y31.325 E4.37067 ; perimeter
G1 X101.232 Y28.052 E4.54035 ; perimeter
G1 X104.505 Y25.016 E4.71003 ; perimeter
G1 X107.995 Y22.232 E4.87971 ; perimeter
G1 X111.685 Y19.719 E5.04939 ; perimeter
G1 X115.553 Y17.489 E5.21907 ; perimeter
G1 X119.209 Y15.732 E5.37324 ; perimeter
G1 X119.502 Y16.145 E5.39248 ; perimeter
G1 X86.452 Y49.215 E7.16942 ; perimeter
G1 X86.127 Y49.541 F4800.000 ; move inwards before travel
G1 E3.66942 F3000.00000 ; retract
G92 E0 ; reset extrusion distance
G1 X61.714 Y81.361 F4800.000 ; move to first perimeter point
G1 E3.52000 F3000.00000 ; unretract
G1 F600
G1 X62.082 Y81.840 E3.54295 ; perimeter
G1 X62.313 Y82.398 E3.56590 ; perimeter
G1 X62.392 Y82.997 E3.58885 ; perimeter
G1 X62.313 Y83.595 E3.61180 ; perimeter
G1 X62.082 Y84.153 E3.63475 ; perimeter
G1 X61.714 Y84.632 E3.65770 ; perimeter
G1 X61.235 Y85.000 E3.68065 ; perimeter
G1 X60.677 Y85.231 E3.70360 ; perimeter
G1 X60.078 Y85.310 E3.72655 ; perimeter
G1 X59.480 Y85.231 E3.74950 ; perimeter
G1 X58.922 Y85.000 E3.77246 ; perimeter
G1 X58.443 Y84.632 E3.79540 ; perimeter
G1 X58.075 Y84.153 E3.81835 ; perimeter
G1 X57.844 Y83.595 E3.84131 ; perimeter
G1 X57.765 Y82.997 E3.86426 ; perimeter
G1 X57.844 Y82.398 E3.88720 ; perimeter
G1 X58.075 Y81.840 E3.91015 ; perimeter
G1 X58.443 Y81.361 E3.93311 ; perimeter
G1 X58.922 Y80.993 E3.95606 ; perimeter
G1 X59.480 Y80.762 E3.97901 ; perimeter
G1 X60.078 Y80.683 E4.00196 ; perimeter
G1 X60.677 Y80.762 E4.02491 ; perimeter
G1 X61.235 Y80.993 E4.04786 ; perimeter
G1 X61.666 Y81.324 E4.06853 ; perimeter
G1 X61.388 Y81.687 F4800.000 ; move to first perimeter point
G1 F600
G1 X61.682 Y82.071 E4.08691 ; perimeter
G1 X61.867 Y82.517 E4.10528 ; perimeter
G1 X61.931 Y82.997 E4.12366 ; perimeter
G1 X61.867 Y83.476 E4.14204 ; perimeter
G1 X61.682 Y83.923 E4.16041 ; perimeter
G1 X61.388 Y84.306 E4.17878 ; perimeter
G1 X61.005 Y84.601 E4.19716 ; perimeter
G1 X60.558 Y84.786 E4.21554 ; perimeter
G1 X60.078 Y84.849 E4.23391 ; perimeter
G1 X59.599 Y84.786 E4.25229 ; perimeter
G1 X59.152 Y84.601 E4.27067 ; perimeter
G1 X58.769 Y84.306 E4.28904 ; perimeter
G1 X58.474 Y83.923 E4.30742 ; perimeter
G1 X58.289 Y83.476 E4.32580 ; perimeter
G1 X58.226 Y82.997 E4.34417 ; perimeter
G1 X58.289 Y82.517 E4.36255 ; perimeter
G1 X58.474 Y82.071 E4.38092 ; perimeter
G1 X58.769 Y81.687 E4.39930 ; perimeter
G1 X59.152 Y81.393 E4.41768 ; perimeter
G1 X59.599 Y81.208 E4.43605 ; perimeter
G1 X60.078 Y81.144 E4.45443 ; perimeter
G1 X60.558 Y81.208 E4.47281 ; perimeter
G1 X61.004 Y81.393 E4.49118 ; perimeter
G1 X61.340 Y81.650 E4.50728 ; perimeter
G1 X61.774 Y81.583 F4800.000 ; move inwards before travel
G1 E1.00728 F3000.00000 ; retract
G92 E0 ; reset extrusion distance
G1 X80.363 Y62.712 F4800.000 ; move to first perimeter point
G1 E3.52000 F3000.00000 ; unretract
G1 F600
G1 X79.996 Y62.233 E3.54295 ; perimeter
G1 X79.764 Y61.675 E3.56590 ; perimeter
G1 X79.686 Y61.076 E3.58885 ; perimeter
G1 X79.764 Y60.478 E3.61180 ; perimeter
G1 X79.996 Y59.920 E3.63475 ; perimeter
G1 X80.363 Y59.441 E3.65770 ; perimeter
G1 X80.842 Y59.073 E3.68065 ; perimeter
G1 X81.400 Y58.842 E3.70360 ; perimeter
G1 X81.999 Y58.763 E3.72655 ; perimeter
G1 X82.597 Y58.842 E3.74950 ; perimeter
G1 X83.155 Y59.073 E3.77245 ; perimeter
G1 X83.634 Y59.441 E3.79540 ; perimeter
G1 X84.002 Y59.920 E3.81835 ; perimeter
G1 X84.233 Y60.478 E3.84130 ; perimeter
G1 X84.312 Y61.076 E3.86425 ; perimeter
G1 X84.233 Y61.675 E3.88720 ; perimeter
G1 X84.002 Y62.233 E3.91015 ; perimeter
G1 X83.634 Y62.712 E3.93310 ; perimeter
G1 X83.155 Y63.080 E3.95605 ; perimeter
G1 X82.597 Y63.311 E3.97901 ; perimeter
G1 X81.999 Y63.389 E4.00196 ; perimeter
G1 X81.400 Y63.311 E4.02491 ; perimeter
G1 X80.842 Y63.080 E4.04785 ; perimeter
G1 X80.411 Y62.748 E4.06852 ; perimeter
G1 X80.689 Y62.386 F4800.000 ; move to first perimeter point
G1 F600
G1 X80.395 Y62.002 E4.08690 ; perimeter
G1 X80.210 Y61.556 E4.10528 ; perimeter
G1 X80.147 Y61.076 E4.12365 ; perimeter
G1 X80.210 Y60.597 E4.14203 ; perimeter
G1 X80.395 Y60.150 E4.16041 ; perimeter
G1 X80.689 Y59.767 E4.17878 ; perimeter
G1 X81.073 Y59.472 E4.19715 ; perimeter
G1 X81.519 Y59.287 E4.21553 ; perimeter
G1 X81.999 Y59.224 E4.23391 ; perimeter
G1 X82.478 Y59.287 E4.25229 ; perimeter
G1 X82.925 Y59.472 E4.27066 ; perimeter
G1 X83.308 Y59.767 E4.28904 ; perimeter
G1 X83.603 Y60.150 E4.30741 ; perimeter
G1 X83.788 Y60.597 E4.32579 ; perimeter
G1 X83.851 Y61.076 E4.34416 ; perimeter
G1 X83.788 Y61.556 E4.36254 ; perimeter
G1 X83.603 Y62.002 E4.38092 ; perimeter
G1 X83.308 Y62.386 E4.39929 ; perimeter
G1 X82.925 Y62.680 E4.41767 ; perimeter
G1 X82.478 Y62.865 E4.43605 ; perimeter
G1 X81.999 Y62.928 E4.45442 ; perimeter
G1 X81.519 Y62.865 E4.47280 ; perimeter
G1 X81.073 Y62.680 E4.49117 ; perimeter
G1 X80.737 Y62.422 E4.50727 ; perimeter
G1 X80.303 Y62.489 F4800.000 ; move inwards before travel
G1 E1.00727 F3000.00000 ; retract
G92 E0 ; reset extrusion distance
G1 X127.959 Y11.290 F4800.000 ; move to first perimeter point
G1 E3.52000 F3000.00000 ; unretract
G1 F1200
G1 X134.414 Y17.744 E3.86693 ; perimeter
G1 X135.884 Y20.897 E3.99912 ; perimeter
G1 X135.591 Y21.190 E4.01488 ; perimeter
G1 X131.974 Y19.503 E4.16655 ; perimeter
G1 X130.497 Y20.980 E4.24594 ; perimeter
G1 X132.183 Y24.597 E4.39761 ; perimeter
G1 X131.890 Y24.891 E4.41337 ; perimeter
G1 X128.273 Y23.204 E4.56504 ; perimeter
G1 X126.794 Y24.683 E4.64454 ; perimeter
G1 X128.481 Y28.300 E4.79621 ; perimeter
G1 X128.187 Y28.593 E4.81196 ; perimeter
G1 X124.571 Y26.906 E4.96364 ; perimeter
G1 X123.092 Y28.385 E5.04313 ; perimeter
G1 X124.778 Y32.002 E5.19480 ; perimeter
G1 X124.485 Y32.295 E5.21056 ; perimeter
G1 X120.868 Y30.609 E5.36223 ; perimeter
G1 X119.389 Y32.088 E5.44172 ; perimeter
G1 X121.076 Y35.705 E5.59339 ; perimeter
G1 X120.783 Y35.998 E5.60915 ; perimeter
G1 X117.166 Y34.311 E5.76082 ; perimeter
G1 X115.687 Y35.790 E5.84032 ; perimeter
G1 X117.373 Y39.407 E5.99199 ; perimeter
G1 X117.080 Y39.700 E6.00774 ; perimeter
G1 X113.464 Y38.014 E6.15941 ; perimeter
G1 X111.984 Y39.493 E6.23891 ; perimeter
G1 X113.671 Y43.109 E6.39058 ; perimeter
G1 X113.378 Y43.403 E6.40634 ; perimeter
G1 X109.761 Y41.716 E6.55801 ; perimeter
G1 X108.282 Y43.195 E6.63750 ; perimeter
G1 X109.969 Y46.812 E6.78917 ; perimeter
G1 X109.676 Y47.105 E6.80493 ; perimeter
G1 X106.059 Y45.418 E6.95660 ; perimeter
G1 X104.580 Y46.897 E7.03609 ; perimeter
G1 X106.266 Y50.514 E7.18777 ; perimeter
G1 X105.973 Y50.807 E7.20352 ; perimeter
G1 X102.356 Y49.121 E7.35519 ; perimeter
G1 X100.877 Y50.600 E7.43469 ; perimeter
G1 X102.564 Y54.217 E7.58636 ; perimeter
G1 X102.271 Y54.510 E7.60211 ; perimeter
G1 X98.654 Y52.823 E7.75378 ; perimeter
G1 X97.169 Y54.308 E7.83357 ; perimeter
G1 X98.861 Y57.920 E7.98515 ; perimeter
G1 X98.568 Y58.212 E8.00088 ; perimeter
G1 X94.952 Y56.526 E8.15255 ; perimeter
G1 X93.473 Y58.005 E8.23204 ; perimeter
G1 X95.159 Y61.621 E8.38371 ; perimeter
G1 X94.866 Y61.915 E8.39947 ; perimeter
G1 X91.249 Y60.228 E8.55114 ; perimeter
G1 X89.770 Y61.707 E8.63064 ; perimeter
G1 X91.457 Y65.324 E8.78231 ; perimeter
G1 X91.164 Y65.617 E8.79806 ; perimeter
G1 X87.547 Y63.930 E8.94974 ; perimeter
G1 X86.068 Y65.409 E9.02923 ; perimeter
G1 X87.754 Y69.026 E9.18090 ; perimeter
G1 X87.461 Y69.319 E9.19666 ; perimeter
G1 X83.844 Y67.633 E9.34833 ; perimeter
G1 X82.365 Y69.112 E9.42782 ; perimeter
G1 X84.052 Y72.729 E9.57950 ; perimeter
G1 X83.759 Y73.022 E9.59525 ; perimeter
G1 X80.142 Y71.335 E9.74692 ; perimeter
G1 X78.663 Y72.814 E9.82642 ; perimeter
G1 X80.349 Y76.431 E9.97809 ; perimeter
G1 X80.056 Y76.724 E9.99384 ; perimeter
G1 X76.440 Y75.038 E10.14551 ; perimeter
G1 X74.961 Y76.517 E10.22501 ; perimeter
G1 X76.647 Y80.133 E10.37668 ; perimeter
G1 X76.354 Y80.427 E10.39244 ; perimeter
G1 X72.737 Y78.740 E10.54411 ; perimeter
G1 X71.258 Y80.219 E10.62360 ; perimeter
G1 X72.945 Y83.836 E10.77527 ; perimeter
G1 X72.651 Y84.129 E10.79103 ; perimeter
G1 X69.035 Y82.442 E10.94270 ; perimeter
G1 X67.556 Y83.921 E11.02219 ; perimeter
G1 X69.242 Y87.538 E11.17387 ; perimeter
G1 X68.949 Y87.831 E11.18962 ; perimeter
G1 X65.332 Y86.145 E11.34129 ; perimeter
G1 X63.853 Y87.624 E11.42079 ; perimeter
G1 X65.540 Y91.241 E11.57246 ; perimeter
G1 X65.247 Y91.534 E11.58822 ; perimeter
G1 X61.630 Y89.847 E11.73989 ; perimeter
G1 X60.151 Y91.326 E11.81938 ; perimeter
G1 X61.837 Y94.943 E11.97105 ; perimeter
G1 X61.544 Y95.236 E11.98681 ; perimeter
G1 X57.928 Y93.550 E12.13848 ; perimeter
G1 X56.449 Y95.029 E12.21797 ; perimeter
G1 X58.135 Y98.645 E12.36965 ; perimeter
G1 X57.842 Y98.939 E12.38540 ; perimeter
G1 X54.225 Y97.252 E12.53707 ; perimeter
G1 X52.746 Y98.731 E12.61657 ; perimeter
G1 X54.433 Y102.348 E12.76824 ; perimeter
G1 X54.139 Y102.641 E12.78399 ; perimeter
G1 X50.523 Y100.954 E12.93566 ; perimeter
G1 X49.044 Y102.433 E13.01516 ; perimeter
G1 X50.730 Y106.050 E13.16683 ; perimeter
G1 X50.437 Y106.343 E13.18259 ; perimeter
G1 X46.820 Y104.657 E13.33426 ; perimeter
G1 X45.341 Y106.136 E13.41375 ; perimeter
G1 X47.028 Y109.753 E13.56542 ; perimeter
G1 X46.735 Y110.046 E13.58118 ; perimeter
G1 X43.118 Y108.359 E13.73285 ; perimeter
G1 X41.639 Y109.838 E13.81235 ; perimeter
G1 X43.325 Y113.455 E13.96402 ; perimeter
G1 X43.032 Y113.748 E13.97977 ; perimeter
G1 X39.416 Y112.062 E14.13144 ; perimeter
G1 X37.936 Y113.541 E14.21094 ; perimeter
G1 X39.623 Y117.157 E14.36261 ; perimeter
G1 X39.330 Y117.451 E14.37837 ; perimeter
G1 X35.713 Y115.764 E14.53004 ; perimeter
G1 X34.234 Y117.243 E14.60953 ; perimeter
G1 X35.921 Y120.860 E14.76120 ; perimeter
G1 X35.627 Y121.153 E14.77696 ; perimeter
G1 X32.011 Y119.466 E14.92863 ; perimeter
G1 X30.532 Y120.945 E15.00813 ; perimeter
G1 X32.218 Y124.562 E15.15980 ; perimeter
G1 X31.925 Y124.855 E15.17555 ; perimeter
G1 X28.308 Y123.169 E15.32722 ; perimeter
G1 X26.829 Y124.648 E15.40672 ; perimeter
G1 X28.516 Y128.265 E15.55839 ; perimeter
G1 X28.223 Y128.558 E15.57415 ; perimeter
G1 X24.606 Y126.871 E15.72582 ; perimeter
G1 X23.127 Y128.350 E15.80531 ; perimeter
G1 X24.813 Y131.967 E15.95699 ; perimeter
G1 X24.520 Y132.260 E15.97274 ; perimeter
G1 X20.904 Y130.574 E16.12438 ; perimeter
G1 X20.449 Y131.028 E16.14880 ; perimeter
G1 X19.424 Y132.053 E16.20389 ; perimeter
G1 X21.111 Y135.669 E16.35557 ; perimeter
