; generated by Slic3r 1.34.1-prusa3d-win64 on 2017-08-31 at 09:48:45

; Buse OEV5 - diamètre 0,5mm

; external perimeters extrusion width = 0.40mm
; perimeters extrusion width = 0.50mm
; infill extrusion width = 0.50mm
; solid infill extrusion width = 0.50mm
; top infill extrusion width = 0.40mm

M107 ; disable fan
M190 S70 ; attente chauffe plateau
M104 S195 ; préchauffe tête
G92 Z0
G1 Z5 F1200
G28 Y ; prise d'origine en Y
G28 X ; prise d'origine en X
G1 X70 Y70 F6000 ; parking
M109 S195 ; attente chauffe T0
G21 ; set units to millimeters
G90 ; use absolute coordinates
M82 ; use absolute distances for extrusion
G92 E0 ; reset extrusion distance
G1 E-3.50000 F3000.00000 ; retract
G92 E0 ; reset extrusion distance
G1 Z0.250 F7500.000 ; move to next layer (0)
G1 X54.500 Y33.061 F7500.000 ; move to first skirt point
G1 E3.50000 F3000.00000 ; unretract
G1 F1800
G1 X55.270 Y31.847 E3.56671 ; skirt
G1 X56.373 Y30.409 E3.65076 ; skirt
G1 X57.362 Y29.334 E3.71854 ; skirt
G1 X58.590 Y28.220 E3.79548 ; skirt
G1 X59.744 Y27.338 E3.86283 ; skirt
G1 X61.061 Y26.500 E3.93524 ; skirt
G1 X62.433 Y25.786 E4.00702 ; skirt
G1 X63.887 Y25.184 E4.08003 ; skirt
G1 X65.369 Y24.717 E4.15210 ; skirt
G1 X66.887 Y24.380 E4.22426 ; skirt
G1 X68.434 Y24.176 E4.29663 ; skirt
G1 X69.998 Y24.108 E4.36924 ; skirt
G1 X71.553 Y24.175 E4.44146 ; skirt
G1 X73.113 Y24.380 E4.51446 ; skirt
G1 X74.637 Y24.719 E4.58687 ; skirt
G1 X76.237 Y25.232 E4.66486 ; skirt
G1 X77.557 Y25.782 E4.73116 ; skirt
G1 X78.835 Y26.443 E4.79793 ; skirt
G1 X80.165 Y27.278 E4.87078 ; skirt
G1 X81.491 Y28.285 E4.94806 ; skirt
G1 X82.652 Y29.348 E5.02106 ; skirt
G1 X83.707 Y30.499 E5.09347 ; skirt
G1 X84.664 Y31.747 E5.16647 ; skirt
G1 X85.502 Y33.064 E5.23889 ; skirt
G1 X86.267 Y34.554 E5.31657 ; skirt
G1 X86.814 Y35.880 E5.38313 ; skirt
G1 X87.248 Y37.248 E5.44970 ; skirt
G1 X87.598 Y38.777 E5.52249 ; skirt
G1 X87.823 Y40.428 E5.59977 ; skirt
G1 X87.893 Y42.000 E5.67278 ; skirt
G1 X87.893 Y102.025 E8.45751 ; skirt
G1 X87.812 Y103.675 E8.53414 ; skirt
G1 X87.622 Y105.100 E8.60085 ; skirt
G1 X87.310 Y106.523 E8.66840 ; skirt
G1 X86.818 Y108.107 E8.74534 ; skirt
G1 X86.225 Y109.543 E8.81742 ; skirt
G1 X85.500 Y110.939 E8.89042 ; skirt
G1 X84.727 Y112.158 E8.95738 ; skirt
G1 X83.623 Y113.596 E9.04148 ; skirt
G1 X82.641 Y114.663 E9.10876 ; skirt
G1 X81.415 Y115.776 E9.18560 ; skirt
G1 X80.257 Y116.661 E9.25320 ; skirt
G1 X78.939 Y117.500 E9.32566 ; skirt
G1 X77.562 Y118.216 E9.39769 ; skirt
G1 X76.112 Y118.816 E9.47049 ; skirt
G1 X74.631 Y119.283 E9.54252 ; skirt
G1 X73.107 Y119.621 E9.61494 ; skirt
G1 X71.560 Y119.825 E9.68735 ; skirt
G1 X70.000 Y119.893 E9.75977 ; skirt
G1 X68.434 Y119.824 E9.83251 ; skirt
G1 X66.784 Y119.599 E9.90974 ; skirt
G1 X65.248 Y119.248 E9.98286 ; skirt
G1 X63.886 Y118.815 E10.04916 ; skirt
G1 X62.555 Y118.268 E10.11593 ; skirt
G1 X61.070 Y117.504 E10.19340 ; skirt
G1 X59.745 Y116.662 E10.26621 ; skirt
G1 X58.503 Y115.710 E10.33881 ; skirt
G1 X57.349 Y114.653 E10.41143 ; skirt
G1 X56.285 Y113.492 E10.48448 ; skirt
G1 X55.278 Y112.165 E10.56176 ; skirt
G1 X54.507 Y110.951 E10.62846 ; skirt
G1 X53.843 Y109.681 E10.69498 ; skirt
G1 X53.233 Y108.238 E10.76764 ; skirt
G1 X52.722 Y106.649 E10.84511 ; skirt
G1 X52.382 Y105.121 E10.91773 ; skirt
G1 X52.175 Y103.560 E10.99078 ; skirt
G1 X52.107 Y102.000 E11.06320 ; skirt
G1 X52.107 Y41.975 E13.84793 ; skirt
G1 X52.188 Y40.325 E13.92456 ; skirt
G1 X52.378 Y38.900 E13.99127 ; skirt
G1 X52.691 Y37.472 E14.05907 ; skirt
G1 X53.182 Y35.892 E14.13581 ; skirt
G1 X53.775 Y34.457 E14.20784 ; skirt
G1 X54.466 Y33.128 E14.27736 ; skirt
G1 X54.862 Y33.332 F7500.000 ; move to first skirt point
G1 F1800
G1 X55.700 Y32.006 E14.35011 ; skirt
G1 X56.630 Y30.793 E14.42104 ; skirt
G1 X57.664 Y29.663 E14.49208 ; skirt
G1 X58.793 Y28.629 E14.56309 ; skirt
G1 X60.075 Y27.654 E14.63781 ; skirt
G1 X61.370 Y26.840 E14.70882 ; skirt
G1 X62.623 Y26.190 E14.77429 ; skirt
G1 X63.933 Y25.645 E14.84009 ; skirt
G1 X65.475 Y25.151 E14.91522 ; skirt
G1 X66.955 Y24.822 E14.98557 ; skirt
G1 X68.471 Y24.621 E15.05650 ; skirt
G1 X69.999 Y24.554 E15.12747 ; skirt
G1 X71.516 Y24.620 E15.19790 ; skirt
G1 X73.025 Y24.818 E15.26850 ; skirt
G1 X74.511 Y25.147 E15.33911 ; skirt
G1 X75.960 Y25.603 E15.40962 ; skirt
G1 X77.366 Y26.185 E15.48019 ; skirt
G1 X78.717 Y26.887 E15.55083 ; skirt
G1 X80.002 Y27.705 E15.62148 ; skirt
G1 X81.137 Y28.573 E15.68779 ; skirt
G1 X82.326 Y29.654 E15.76234 ; skirt
G1 X83.294 Y30.705 E15.82865 ; skirt
G1 X84.351 Y32.082 E15.90914 ; skirt
G1 X85.112 Y33.281 E15.97504 ; skirt
G1 X85.817 Y34.639 E16.04601 ; skirt
G1 X86.397 Y36.042 E16.11644 ; skirt
G1 X86.875 Y37.580 E16.19116 ; skirt
G1 X87.182 Y38.972 E16.25729 ; skirt
G1 X87.369 Y40.377 E16.32307 ; skirt
G1 X87.446 Y41.978 E16.39743 ; skirt
G1 X87.446 Y102.000 E19.18200 ; skirt
G1 X87.380 Y103.517 E19.25242 ; skirt
G1 X87.181 Y105.032 E19.32335 ; skirt
G1 X86.851 Y106.518 E19.39396 ; skirt
G1 X86.356 Y108.066 E19.46937 ; skirt
G1 X85.811 Y109.374 E19.53510 ; skirt
G1 X85.160 Y110.630 E19.60069 ; skirt
G1 X84.346 Y111.925 E19.67165 ; skirt
G1 X83.371 Y113.207 E19.74638 ; skirt
G1 X82.342 Y114.331 E19.81709 ; skirt
G1 X81.218 Y115.361 E19.88784 ; skirt
G1 X80.000 Y116.296 E19.95906 ; skirt
G1 X78.715 Y117.114 E20.02971 ; skirt
G1 X77.275 Y117.855 E20.10483 ; skirt
G1 X75.966 Y118.395 E20.17056 ; skirt
G1 X74.618 Y118.822 E20.23615 ; skirt
G1 X73.127 Y119.162 E20.30711 ; skirt
G1 X71.527 Y119.379 E20.38202 ; skirt
G1 X69.999 Y119.446 E20.45298 ; skirt
G1 X68.487 Y119.380 E20.52316 ; skirt
G1 X66.975 Y119.182 E20.59391 ; skirt
G1 X65.484 Y118.852 E20.66477 ; skirt
G1 X64.044 Y118.398 E20.73481 ; skirt
G1 X62.630 Y117.813 E20.80581 ; skirt
G1 X61.287 Y117.115 E20.87603 ; skirt
G1 X59.999 Y116.295 E20.94685 ; skirt
G1 X58.867 Y115.430 E21.01294 ; skirt
G1 X57.674 Y114.347 E21.08770 ; skirt
G1 X56.706 Y113.295 E21.15405 ; skirt
G1 X55.649 Y111.918 E21.23454 ; skirt
G1 X54.891 Y110.723 E21.30019 ; skirt
G1 X54.186 Y109.367 E21.37112 ; skirt
G1 X53.603 Y107.959 E21.44180 ; skirt
G1 X53.126 Y106.425 E21.51631 ; skirt
G1 X52.819 Y105.029 E21.58265 ; skirt
G1 X52.631 Y103.623 E21.64847 ; skirt
G1 X52.554 Y102.022 E21.72283 ; skirt
G1 X52.554 Y42.000 E24.50740 ; skirt
G1 X52.621 Y40.476 E24.57818 ; skirt
G1 X52.838 Y38.877 E24.65304 ; skirt
G1 X53.178 Y37.382 E24.72416 ; skirt
G1 X53.606 Y36.032 E24.78988 ; skirt
G1 X54.145 Y34.725 E24.85548 ; skirt
G1 X54.828 Y33.398 E24.92467 ; skirt
G1 E21.42467 F3000.00000 ; retract
G92 E0 ; reset extrusion distance
G1 X82.696 Y60.332 F7500.000 ; move to first perimeter point
G1 E3.50000 F3000.00000 ; unretract
G1 F1800
G1 X82.696 Y102.017 E5.43389 ; perimeter
G1 X82.636 Y103.245 E5.49091 ; perimeter
G1 X82.453 Y104.477 E5.54871 ; perimeter
G1 X82.150 Y105.686 E5.60652 ; perimeter
G1 X81.731 Y106.859 E5.66433 ; perimeter
G1 X81.198 Y107.985 E5.72213 ; perimeter
G1 X80.557 Y109.054 E5.77994 ; perimeter
G1 X79.815 Y110.055 E5.83775 ; perimeter
G1 X78.978 Y110.978 E5.89556 ; perimeter
G1 X78.055 Y111.815 E5.95336 ; perimeter
G1 X77.054 Y112.557 E6.01117 ; perimeter
G1 X75.985 Y113.198 E6.06898 ; perimeter
G1 X74.859 Y113.731 E6.12678 ; perimeter
G1 X73.686 Y114.150 E6.18459 ; perimeter
G1 X72.477 Y114.453 E6.24240 ; perimeter
G1 X71.245 Y114.636 E6.30021 ; perimeter
G1 X70.000 Y114.697 E6.35801 ; perimeter
G1 X68.755 Y114.636 E6.41582 ; perimeter
G1 X67.523 Y114.453 E6.47363 ; perimeter
G1 X66.314 Y114.150 E6.53144 ; perimeter
G1 X65.141 Y113.731 E6.58924 ; perimeter
G1 X64.015 Y113.198 E6.64705 ; perimeter
G1 X62.946 Y112.557 E6.70486 ; perimeter
G1 X61.945 Y111.815 E6.76266 ; perimeter
G1 X61.022 Y110.978 E6.82047 ; perimeter
G1 X60.185 Y110.055 E6.87828 ; perimeter
G1 X59.443 Y109.054 E6.93609 ; perimeter
G1 X58.802 Y107.985 E6.99389 ; perimeter
G1 X58.269 Y106.859 E7.05170 ; perimeter
G1 X57.850 Y105.686 E7.10951 ; perimeter
G1 X57.547 Y104.477 E7.16731 ; perimeter
G1 X57.364 Y103.245 E7.22512 ; perimeter
G1 X57.304 Y102.017 E7.28214 ; perimeter
G1 X57.304 Y41.983 E10.06728 ; perimeter
G1 X57.364 Y40.755 E10.12429 ; perimeter
G1 X57.547 Y39.523 E10.18210 ; perimeter
G1 X57.850 Y38.314 E10.23991 ; perimeter
G1 X58.269 Y37.141 E10.29771 ; perimeter
G1 X58.802 Y36.015 E10.35552 ; perimeter
G1 X59.443 Y34.946 E10.41333 ; perimeter
G1 X60.185 Y33.945 E10.47114 ; perimeter
G1 X61.022 Y33.022 E10.52894 ; perimeter
G1 X61.945 Y32.185 E10.58676 ; perimeter
G1 X62.950 Y31.440 E10.64479 ; perimeter
G1 X64.015 Y30.802 E10.70236 ; perimeter
G1 X65.141 Y30.269 E10.76017 ; perimeter
G1 X66.314 Y29.850 E10.81798 ; perimeter
G1 X67.523 Y29.547 E10.87579 ; perimeter
G1 X68.755 Y29.364 E10.93359 ; perimeter
G1 X69.995 Y29.303 E10.99117 ; perimeter
G1 X71.244 Y29.364 E11.04920 ; perimeter
G1 X72.477 Y29.547 E11.10701 ; perimeter
G1 X73.686 Y29.850 E11.16482 ; perimeter
G1 X74.859 Y30.269 E11.22263 ; perimeter
G1 X75.985 Y30.802 E11.28044 ; perimeter
G1 X77.054 Y31.443 E11.33824 ; perimeter
G1 X78.055 Y32.185 E11.39605 ; perimeter
G1 X78.978 Y33.022 E11.45386 ; perimeter
G1 X79.815 Y33.945 E11.51166 ; perimeter
G1 X80.557 Y34.946 E11.56947 ; perimeter
G1 X81.198 Y36.015 E11.62728 ; perimeter
G1 X81.731 Y37.141 E11.68509 ; perimeter
G1 X82.150 Y38.314 E11.74289 ; perimeter
G1 X82.453 Y39.523 E11.80070 ; perimeter
G1 X82.636 Y40.755 E11.85851 ; perimeter
G1 X82.696 Y41.983 E11.91552 ; perimeter
G1 X82.696 Y60.257 E12.76329 ; perimeter
G1 X82.250 Y60.332 F7500.000 ; move to first perimeter point
G1 F1620
G1 X82.250 Y102.006 E14.69668 ; perimeter
G1 X82.191 Y103.201 E14.75217 ; perimeter
G1 X82.015 Y104.390 E14.80794 ; perimeter
G1 X81.723 Y105.556 E14.86371 ; perimeter
G1 X81.318 Y106.688 E14.91948 ; perimeter
G1 X80.804 Y107.775 E14.97526 ; perimeter
G1 X80.186 Y108.806 E15.03103 ; perimeter
G1 X79.470 Y109.772 E15.08680 ; perimeter
G1 X78.662 Y110.662 E15.14257 ; perimeter
G1 X77.772 Y111.470 E15.19835 ; perimeter
G1 X76.806 Y112.186 E15.25412 ; perimeter
G1 X75.775 Y112.804 E15.30989 ; perimeter
G1 X74.688 Y113.318 E15.36566 ; perimeter
G1 X73.556 Y113.723 E15.42144 ; perimeter
G1 X72.390 Y114.015 E15.47721 ; perimeter
G1 X71.201 Y114.191 E15.53298 ; perimeter
G1 X70.000 Y114.250 E15.58876 ; perimeter
G1 X68.799 Y114.191 E15.64453 ; perimeter
G1 X67.610 Y114.015 E15.70030 ; perimeter
G1 X66.444 Y113.723 E15.75607 ; perimeter
G1 X65.312 Y113.318 E15.81185 ; perimeter
G1 X64.225 Y112.804 E15.86762 ; perimeter
G1 X63.194 Y112.186 E15.92339 ; perimeter
G1 X62.228 Y111.470 E15.97916 ; perimeter
G1 X61.338 Y110.662 E16.03494 ; perimeter
G1 X60.530 Y109.772 E16.09071 ; perimeter
G1 X59.814 Y108.806 E16.14648 ; perimeter
G1 X59.196 Y107.775 E16.20225 ; perimeter
G1 X58.682 Y106.688 E16.25803 ; perimeter
G1 X58.277 Y105.556 E16.31380 ; perimeter
G1 X57.985 Y104.390 E16.36957 ; perimeter
G1 X57.809 Y103.201 E16.42535 ; perimeter
G1 X57.750 Y102.006 E16.48083 ; perimeter
G1 X57.750 Y41.994 E19.26496 ; perimeter
G1 X57.809 Y40.799 E19.32045 ; perimeter
G1 X57.985 Y39.610 E19.37622 ; perimeter
G1 X58.277 Y38.444 E19.43199 ; perimeter
G1 X58.682 Y37.312 E19.48777 ; perimeter
G1 X59.196 Y36.225 E19.54354 ; perimeter
G1 X59.814 Y35.194 E19.59931 ; perimeter
G1 X60.530 Y34.228 E19.65508 ; perimeter
G1 X61.338 Y33.338 E19.71086 ; perimeter
G1 X62.229 Y32.530 E19.76663 ; perimeter
G1 X63.198 Y31.812 E19.82263 ; perimeter
G1 X64.225 Y31.196 E19.87817 ; perimeter
G1 X65.312 Y30.682 E19.93395 ; perimeter
G1 X66.444 Y30.277 E19.98972 ; perimeter
G1 X67.610 Y29.985 E20.04549 ; perimeter
G1 X68.799 Y29.809 E20.10126 ; perimeter
G1 X69.995 Y29.750 E20.15681 ; perimeter
G1 X71.201 Y29.809 E20.21281 ; perimeter
G1 X72.390 Y29.985 E20.26858 ; perimeter
G1 X73.556 Y30.277 E20.32435 ; perimeter
G1 X74.688 Y30.682 E20.38013 ; perimeter
G1 X75.775 Y31.196 E20.43590 ; perimeter
G1 X76.806 Y31.814 E20.49167 ; perimeter
G1 X77.772 Y32.530 E20.54745 ; perimeter
G1 X78.662 Y33.338 E20.60322 ; perimeter
G1 X79.470 Y34.228 E20.65899 ; perimeter
G1 X80.186 Y35.194 E20.71476 ; perimeter
G1 X80.804 Y36.225 E20.77054 ; perimeter
G1 X81.318 Y37.312 E20.82631 ; perimeter
G1 X81.723 Y38.444 E20.88208 ; perimeter
G1 X82.015 Y39.610 E20.93785 ; perimeter
G1 X82.191 Y40.799 E20.99363 ; perimeter
G1 X82.250 Y41.994 E21.04911 ; perimeter
G1 X82.250 Y60.257 E21.89638 ; perimeter
G1 X82.683 Y60.581 F7500.000 ; move inwards before travel
G1 E18.39638 F3000.00000 ; retract
G92 E0 ; reset extrusion distance
G1 X84.304 Y60.332 F7500.000 ; move to first perimeter point
G1 E3.50000 F3000.00000 ; unretract
G1 F1800
G1 X84.304 Y101.985 E5.43239 ; perimeter
G1 X84.249 Y103.247 E5.49099 ; perimeter
G1 X84.086 Y104.484 E5.54887 ; perimeter
G1 X83.816 Y105.702 E5.60676 ; perimeter
G1 X83.440 Y106.892 E5.66465 ; perimeter
G1 X82.963 Y108.045 E5.72254 ; perimeter
G1 X82.387 Y109.151 E5.78043 ; perimeter
G1 X81.716 Y110.204 E5.83831 ; perimeter
G1 X80.957 Y111.194 E5.89620 ; perimeter
G1 X80.114 Y112.114 E5.95409 ; perimeter
G1 X79.194 Y112.957 E6.01198 ; perimeter
G1 X78.204 Y113.716 E6.06986 ; perimeter
G1 X77.151 Y114.387 E6.12775 ; perimeter
G1 X76.045 Y114.963 E6.18564 ; perimeter
G1 X74.892 Y115.440 E6.24353 ; perimeter
G1 X73.702 Y115.816 E6.30141 ; perimeter
G1 X72.484 Y116.086 E6.35930 ; perimeter
G1 X71.247 Y116.249 E6.41719 ; perimeter
G1 X70.000 Y116.303 E6.47508 ; perimeter
G1 X68.753 Y116.249 E6.53296 ; perimeter
G1 X67.516 Y116.086 E6.59085 ; perimeter
G1 X66.298 Y115.816 E6.64874 ; perimeter
G1 X65.108 Y115.440 E6.70663 ; perimeter
G1 X63.955 Y114.963 E6.76451 ; perimeter
G1 X62.849 Y114.387 E6.82240 ; perimeter
G1 X61.796 Y113.716 E6.88029 ; perimeter
G1 X60.806 Y112.957 E6.93818 ; perimeter
G1 X59.886 Y112.114 E6.99606 ; perimeter
G1 X59.043 Y111.194 E7.05395 ; perimeter
G1 X58.284 Y110.204 E7.11184 ; perimeter
G1 X57.613 Y109.151 E7.16973 ; perimeter
G1 X57.037 Y108.045 E7.22761 ; perimeter
G1 X56.560 Y106.892 E7.28550 ; perimeter
G1 X56.184 Y105.702 E7.34339 ; perimeter
G1 X55.914 Y104.484 E7.40128 ; perimeter
G1 X55.751 Y103.247 E7.45917 ; perimeter
G1 X55.696 Y101.985 E7.51776 ; perimeter
G1 X55.696 Y42.015 E10.29991 ; perimeter
G1 X55.751 Y40.753 E10.35850 ; perimeter
G1 X55.914 Y39.516 E10.41639 ; perimeter
G1 X56.184 Y38.298 E10.47428 ; perimeter
G1 X56.560 Y37.108 E10.53216 ; perimeter
G1 X57.037 Y35.955 E10.59005 ; perimeter
G1 X57.613 Y34.849 E10.64794 ; perimeter
G1 X58.284 Y33.796 E10.70583 ; perimeter
G1 X59.043 Y32.806 E10.76371 ; perimeter
G1 X59.886 Y31.886 E10.82160 ; perimeter
G1 X60.806 Y31.043 E10.87949 ; perimeter
G1 X61.796 Y30.284 E10.93738 ; perimeter
G1 X62.849 Y29.613 E10.99526 ; perimeter
G1 X63.955 Y29.037 E11.05315 ; perimeter
G1 X65.108 Y28.560 E11.11104 ; perimeter
G1 X66.298 Y28.184 E11.16893 ; perimeter
G1 X67.516 Y27.914 E11.22681 ; perimeter
G1 X68.753 Y27.751 E11.28470 ; perimeter
G1 X70.000 Y27.697 E11.34259 ; perimeter
G1 X71.241 Y27.751 E11.40023 ; perimeter
G1 X72.484 Y27.914 E11.45837 ; perimeter
G1 X73.702 Y28.184 E11.51625 ; perimeter
G1 X74.892 Y28.560 E11.57414 ; perimeter
G1 X76.045 Y29.037 E11.63203 ; perimeter
G1 X77.151 Y29.613 E11.68991 ; perimeter
G1 X78.204 Y30.284 E11.74780 ; perimeter
G1 X79.194 Y31.043 E11.80569 ; perimeter
G1 X80.114 Y31.886 E11.86358 ; perimeter
G1 X80.957 Y32.806 E11.92146 ; perimeter
G1 X81.716 Y33.796 E11.97935 ; perimeter
G1 X82.387 Y34.849 E12.03724 ; perimeter
G1 X82.963 Y35.955 E12.09513 ; perimeter
G1 X83.440 Y37.108 E12.15301 ; perimeter
G1 X83.816 Y38.298 E12.21090 ; perimeter
G1 X84.086 Y39.516 E12.26879 ; perimeter
G1 X84.249 Y40.753 E12.32668 ; perimeter
G1 X84.304 Y42.015 E12.38527 ; perimeter
G1 X84.304 Y60.257 E13.23155 ; perimeter
G1 X84.750 Y60.332 F7500.000 ; move to first perimeter point
G1 F1620
G1 X84.750 Y101.995 E15.16439 ; perimeter
G1 X84.694 Y103.286 E15.22434 ; perimeter
G1 X84.526 Y104.561 E15.28404 ; perimeter
G1 X84.247 Y105.818 E15.34373 ; perimeter
G1 X83.860 Y107.045 E15.40343 ; perimeter
G1 X83.368 Y108.234 E15.46312 ; perimeter
G1 X82.774 Y109.375 E15.52282 ; perimeter
G1 X82.082 Y110.460 E15.58252 ; perimeter
G1 X81.299 Y111.481 E15.64221 ; perimeter
